; G-Code generated by Simplify3D(R) Version 3.1.1
; Dec 14, 2016 at 5:05:40 PM
; Settings Summary
;   processName,Process1
;   applyToModels,Spinner,Cap,Cap(2)
;   profileName,Rostock MAX v2 (modified)
;   profileVersion,2015-05-01 08:00:00
;   baseProfile,
;   printMaterial,Iron PLA
;   printQuality,Medium
;   printExtruders,
;   extruderName,Primary Extruder
;   extruderToolheadNumber,0
;   extruderDiameter,0.6
;   extruderAutoWidth,1
;   extruderWidth,0.72
;   extrusionMultiplier,1.1
;   extruderUseRetract,1
;   extruderRetractionDistance,2
;   extruderExtraRestartDistance,-0.2
;   extruderRetractionZLift,0
;   extruderRetractionSpeed,1800
;   extruderUseCoasting,1
;   extruderCoastingDistance,0.5
;   extruderUseWipe,0
;   extruderWipeDistance,5
;   primaryExtruder,0
;   layerHeight,0.3
;   topSolidLayers,3
;   bottomSolidLayers,3
;   perimeterOutlines,3
;   printPerimetersInsideOut,1
;   startPointOption,2
;   startPointOriginX,0
;   startPointOriginY,0
;   startPointOriginZ,300
;   sequentialIslands,0
;   spiralVaseMode,0
;   firstLayerHeightPercentage,25
;   firstLayerWidthPercentage,100
;   firstLayerUnderspeed,0.4
;   useRaft,0
;   raftExtruder,0
;   raftLayers,3
;   raftOffset,15
;   raftSeparationDistance,0.14
;   raftInfill,85
;   disableRaftBaseLayers,0
;   useSkirt,1
;   skirtExtruder,0
;   skirtLayers,1
;   skirtOutlines,2
;   skirtOffset,5
;   usePrimePillar,0
;   primePillarExtruder,999
;   primePillarWidth,12
;   primePillarLocation,7
;   primePillarSpeedMultiplier,1
;   useOozeShield,0
;   oozeShieldExtruder,999
;   oozeShieldOffset,2
;   oozeShieldOutlines,1
;   oozeShieldSidewallShape,1
;   oozeShieldSidewallAngle,30
;   oozeShieldSpeedMultiplier,1
;   infillExtruder,0
;   internalInfillPattern,Rectilinear
;   externalInfillPattern,Rectilinear
;   infillPercentage,85
;   outlineOverlapPercentage,40
;   infillExtrusionWidthPercentage,100
;   minInfillLength,3
;   infillLayerInterval,1
;   infillAngles,45,-45
;   overlapInfillAngles,0
;   generateSupport,0
;   supportExtruder,0
;   supportInfillPercentage,30
;   supportExtraInflation,0
;   denseSupportLayers,0
;   denseSupportInfillPercentage,70
;   supportLayerInterval,1
;   supportHorizontalPartOffset,0.3
;   supportUpperSeparationLayers,1
;   supportLowerSeparationLayers,1
;   supportType,0
;   supportGridSpacing,4
;   maxOverhangAngle,70
;   supportAngles,0
;   temperatureName,Primary Extruder,Heated Bed
;   temperatureNumber,0,1
;   temperatureSetpointCount,1,1
;   temperatureSetpointLayers,1,1
;   temperatureSetpointTemperatures,225,60
;   temperatureStabilizeAtStartup,1,1
;   temperatureHeatedBed,0,1
;   temperatureRelayBetweenLayers,0,0
;   temperatureRelayBetweenLoops,0,0
;   fanLayers,1,2
;   fanSpeeds,0,100
;   blipFanToFullPower,1
;   adjustSpeedForCooling,1
;   minSpeedLayerTime,5
;   minCoolingSpeedSlowdown,80
;   increaseFanForCooling,0
;   minFanLayerTime,60
;   maxCoolingFanSpeed,100
;   increaseFanForBridging,0
;   bridgingFanSpeed,100
;   use5D,1
;   relativeEdistances,0
;   allowEaxisZeroing,1
;   independentExtruderAxes,0
;   includeM10123,0
;   stickySupport,1
;   applyToolheadOffsets,0
;   gcodeXoffset,0
;   gcodeYoffset,0
;   gcodeZoffset,0
;   overrideMachineDefinition,1
;   machineTypeOverride,1
;   strokeXoverride,197
;   strokeYoverride,197
;   strokeZoverride,375
;   originOffsetXoverride,98.5
;   originOffsetYoverride,98.5
;   originOffsetZoverride,0
;   homeXdirOverride,0
;   homeYdirOverride,0
;   homeZdirOverride,1
;   flipXoverride,1
;   flipYoverride,-1
;   flipZoverride,1
;   toolheadOffsets,0,0|0,0|0,0|0,0|0,0|0,0
;   overrideFirmwareConfiguration,1
;   firmwareTypeOverride,RepRap (Marlin/Repetier/Sprinter)
;   GPXconfigOverride,r2
;   baudRateOverride,115200
;   overridePrinterModels,1
;   printerModelsOverride
;   startingGcode,G28 ; home all axes
;   layerChangeGcode,
;   retractionGcode,
;   toolChangeGcode,
;   endingGcode,M104 S0 ; turn off extruder,M140 S0 ; turn off bed,G28 ; home axes,M84 ; disable motors
;   exportFileFormat,gcode
;   celebration,0
;   celebrationSong,Random Song
;   postProcessing,
;   defaultSpeed,1000
;   outlineUnderspeed,0.5
;   solidInfillUnderspeed,0.8
;   supportUnderspeed,0.8
;   rapidXYspeed,9000
;   rapidZspeed,1200
;   minBridgingArea,50
;   bridgingExtraInflation,0
;   bridgingExtrusionMultiplier,0.8
;   bridgingSpeedMultiplier,1.25
;   filamentDiameter,1.75
;   filamentPricePerKg,22
;   filamentDensity,1.25
;   useMinPrintHeight,0
;   minPrintHeight,0.05
;   useMaxPrintHeight,0
;   maxPrintHeight,0
;   useDiaphragm,0
;   diaphragmLayerInterval,20
;   robustSlicing,1
;   mergeAllIntoSolid,0
;   onlyRetractWhenCrossingOutline,0
;   retractBetweenLayers,0
;   useRetractionMinTravel,0
;   retractionMinTravel,3
;   retractWhileWiping,1
;   onlyWipeOutlines,1
;   avoidCrossingOutline,1
;   maxMovementDetourFactor,1.5
;   toolChangeRetractionDistance,12
;   toolChangeExtraRestartDistance,-0.5
;   toolChangeRetractionSpeed,600
;   allowThinWallGapFill,0
;   thinWallAllowedOverlapPercentage,10
;   horizontalSizeCompensation,0
G90
M82
M106 S0
M140 S60
M190 S60
M104 S225 T0
M109 S225 T0
G28 ; home all axes
G92 E0
G1 E-2.0000 F1800
G1 Z0.075 F1200
; layer 1, Z = 0.075
T0
; tool H0.300 W0.720
; skirt
G1 X15.227 Y-3.519 F9000
G1 E-0.2000 F540
G92 E0
G1 X15.498 Y-2.784 E0.0773 F400
G1 X16.757 Y-0.276 E0.3546
G1 X16.770 Y-0.247 E0.3577
G1 X16.897 Y0.048 E0.3894
G1 X16.909 Y0.077 E0.3925
G1 X17.475 Y1.631 E0.5559
G1 X17.484 Y1.659 E0.5589
G1 X17.572 Y1.950 E0.5889
G1 X17.580 Y1.979 E0.5918
G1 X17.970 Y3.578 E0.7544
G1 X17.976 Y3.607 E0.7573
G1 X18.032 Y3.905 E0.7873
G1 X18.037 Y3.935 E0.7903
G1 X18.250 Y5.566 E0.9528
G1 X18.253 Y5.596 E0.9557
G1 X18.275 Y5.899 E0.9858
G1 X18.277 Y5.929 E0.9887
G1 X18.310 Y7.574 E1.1512
G1 X18.309 Y7.603 E1.1542
G1 X18.299 Y7.907 E1.1842
G1 X18.297 Y7.937 E1.1871
G1 X18.149 Y9.576 E1.3497
G1 X18.146 Y9.605 E1.3526
G1 X18.102 Y9.906 E1.3826
G1 X18.097 Y9.935 E1.3856
G1 X17.771 Y11.548 E1.5481
G1 X17.764 Y11.577 E1.5510
G1 X17.688 Y11.871 E1.5811
G1 X17.680 Y11.900 E1.5840
G1 X17.179 Y13.467 E1.7465
G1 X17.169 Y13.495 E1.7495
G1 X17.061 Y13.779 E1.7795
G1 X17.050 Y13.806 E1.7824
G1 X16.380 Y15.310 E1.9450
G1 X16.368 Y15.336 E1.9479
G1 X16.229 Y15.607 E1.9779
G1 X16.215 Y15.633 E1.9808
G1 X15.385 Y17.054 E2.1434
G1 X15.369 Y17.079 E2.1463
G1 X15.202 Y17.333 E2.1764
G1 X15.185 Y17.357 E2.1793
G1 X14.204 Y18.679 E2.3418
G1 X14.186 Y18.702 E2.3448
G1 X13.992 Y18.936 E2.3748
G1 X13.972 Y18.958 E2.3777
G1 X12.853 Y20.164 E2.5403
G1 X12.832 Y20.185 E2.5432
G1 X12.613 Y20.397 E2.5732
G1 X12.592 Y20.417 E2.5761
G1 X11.347 Y21.493 E2.7387
G1 X11.324 Y21.512 E2.7416
G1 X11.084 Y21.698 E2.7716
G1 X11.060 Y21.715 E2.7746
G1 X9.705 Y22.649 E2.9371
G1 X9.680 Y22.665 E2.9401
G1 X9.421 Y22.824 E2.9701
G1 X9.395 Y22.838 E2.9730
G1 X7.946 Y23.618 E3.1356
G1 X7.919 Y23.631 E3.1385
G1 X7.644 Y23.761 E3.1685
G1 X7.617 Y23.772 E3.1714
G1 X7.139 Y23.965 E3.2223
G1 X7.311 Y24.101 E3.2439
G1 X7.332 Y24.119 E3.2467
G1 X7.546 Y24.308 E3.2749
G1 X7.566 Y24.327 E3.2776
G1 X8.469 Y25.211 E3.4024
G1 X8.489 Y25.231 E3.4052
G1 X8.682 Y25.440 E3.4334
G1 X8.700 Y25.461 E3.4361
G1 X9.508 Y26.433 E3.5609
G1 X9.525 Y26.455 E3.5637
G1 X9.696 Y26.683 E3.5918
G1 X9.712 Y26.706 E3.5946
G1 X10.415 Y27.756 E3.7194
G1 X10.430 Y27.779 E3.7221
G1 X10.577 Y28.024 E3.7503
G1 X10.590 Y28.048 E3.7531
G1 X11.182 Y29.165 E3.8779
G1 X11.194 Y29.190 E3.8806
G1 X11.315 Y29.448 E3.9088
G1 X11.326 Y29.474 E3.9116
G1 X11.800 Y30.645 E4.0364
G1 X11.809 Y30.671 E4.0391
G1 X11.902 Y30.941 E4.0673
G1 X11.911 Y30.967 E4.0701
G1 X12.262 Y32.181 E4.1949
G1 X12.269 Y32.208 E4.1976
G1 X12.334 Y32.486 E4.2258
G1 X12.339 Y32.513 E4.2285
G1 X12.563 Y33.757 E4.3534
G1 X12.568 Y33.784 E4.3561
G1 X12.604 Y34.067 E4.3843
G1 X12.607 Y34.095 E4.3870
G1 X12.702 Y35.355 E4.5118
G1 X12.703 Y35.382 E4.5146
G1 X12.710 Y35.668 E4.5428
G1 X12.710 Y35.696 E4.5455
G1 X12.675 Y36.959 E4.6703
G1 X12.673 Y36.986 E4.6731
G1 X12.651 Y37.271 E4.7013
G1 X12.648 Y37.298 E4.7040
G1 X12.483 Y38.551 E4.8288
G1 X12.479 Y38.578 E4.8316
G1 X12.427 Y38.859 E4.8598
G1 X12.421 Y38.886 E4.8625
G1 X12.129 Y40.115 E4.9873
G1 X12.122 Y40.142 E4.9901
G1 X12.041 Y40.416 E5.0183
G1 X12.033 Y40.443 E5.0210
G1 X11.616 Y41.635 E5.1458
G1 X11.606 Y41.661 E5.1486
G1 X11.498 Y41.925 E5.1767
G1 X11.486 Y41.951 E5.1795
G1 X10.949 Y43.094 E5.3043
G1 X10.936 Y43.119 E5.3070
G1 X10.802 Y43.371 E5.3352
G1 X10.788 Y43.395 E5.3380
G1 X10.135 Y44.477 E5.4628
G1 X10.120 Y44.500 E5.4655
G1 X9.961 Y44.736 E5.4937
G1 X9.944 Y44.759 E5.4965
G1 X9.184 Y45.768 E5.6213
G1 X9.167 Y45.790 E5.6240
G1 X8.984 Y46.009 E5.6522
G1 X8.965 Y46.030 E5.6550
G1 X8.105 Y46.955 E5.7798
G1 X8.086 Y46.975 E5.7825
G1 X7.881 Y47.174 E5.8107
G1 X7.861 Y47.193 E5.8134
G1 X6.910 Y48.025 E5.9383
G1 X6.889 Y48.043 E5.9410
G1 X6.664 Y48.219 E5.9692
G1 X6.642 Y48.236 E5.9719
G1 X5.611 Y48.966 E6.0967
G1 X5.588 Y48.982 E6.0995
G1 X5.347 Y49.134 E6.1277
G1 X5.323 Y49.149 E6.1304
G1 X4.222 Y49.769 E6.2552
G1 X4.198 Y49.782 E6.2580
G1 X3.942 Y49.909 E6.2862
G1 X3.917 Y49.921 E6.2889
G1 X2.758 Y50.424 E6.4137
G1 X2.733 Y50.435 E6.4165
G1 X2.465 Y50.535 E6.4447
G1 X2.439 Y50.544 E6.4474
G1 X1.235 Y50.926 E6.5722
G1 X1.208 Y50.934 E6.5750
G1 X0.932 Y51.006 E6.6031
G1 X0.905 Y51.012 E6.6059
G1 X-0.332 Y51.268 E6.7307
G1 X-0.360 Y51.273 E6.7334
G1 X-0.642 Y51.316 E6.7616
G1 X-0.669 Y51.320 E6.7644
G1 X-1.926 Y51.447 E6.8892
G1 X-1.954 Y51.449 E6.8919
G1 X-2.239 Y51.464 E6.9201
G1 X-2.267 Y51.464 E6.9229
G1 X-3.530 Y51.462 E7.0477
G1 X-3.558 Y51.461 E7.0504
G1 X-3.843 Y51.446 E7.0786
G1 X-3.871 Y51.444 E7.0814
G1 X-5.127 Y51.311 E7.2062
G1 X-5.155 Y51.308 E7.2089
G1 X-5.437 Y51.263 E7.2371
G1 X-5.464 Y51.258 E7.2399
G1 X-6.700 Y50.997 E7.3647
G1 X-6.728 Y50.991 E7.3674
G1 X-7.003 Y50.918 E7.3956
G1 X-7.030 Y50.910 E7.3983
G1 X-8.233 Y50.523 E7.5231
G1 X-8.259 Y50.514 E7.5259
G1 X-8.526 Y50.413 E7.5541
G1 X-8.552 Y50.402 E7.5568
G1 X-9.708 Y49.894 E7.6816
G1 X-9.734 Y49.882 E7.6844
G1 X-9.989 Y49.754 E7.7126
G1 X-10.013 Y49.741 E7.7153
G1 X-11.111 Y49.117 E7.8401
G1 X-11.135 Y49.102 E7.8429
G1 X-11.376 Y48.949 E7.8711
G1 X-11.399 Y48.933 E7.8738
G1 X-12.427 Y48.199 E7.9986
G1 X-12.449 Y48.182 E8.0014
G1 X-12.673 Y48.005 E8.0295
G1 X-12.694 Y47.987 E8.0323
G1 X-13.641 Y47.151 E8.1571
G1 X-13.662 Y47.132 E8.1598
G1 X-13.866 Y46.933 E8.1880
G1 X-13.885 Y46.913 E8.1908
G1 X-14.742 Y45.984 E8.3156
G1 X-14.760 Y45.963 E8.3183
G1 X-14.865 Y45.836 E8.3346
G1 X-15.010 Y46.009 E8.3569
G1 X-15.028 Y46.029 E8.3596
G1 X-15.888 Y46.955 E8.4844
G1 X-15.908 Y46.975 E8.4872
G1 X-16.113 Y47.174 E8.5154
G1 X-16.133 Y47.193 E8.5181
G1 X-17.084 Y48.025 E8.6429
G1 X-17.105 Y48.043 E8.6457
G1 X-17.329 Y48.219 E8.6739
G1 X-17.351 Y48.236 E8.6766
G1 X-18.383 Y48.966 E8.8014
G1 X-18.406 Y48.982 E8.8042
G1 X-18.647 Y49.134 E8.8324
G1 X-18.671 Y49.149 E8.8351
G1 X-19.771 Y49.769 E8.9599
G1 X-19.796 Y49.782 E8.9627
G1 X-20.051 Y49.909 E8.9909
G1 X-20.077 Y49.921 E8.9936
G1 X-21.235 Y50.424 E9.1184
G1 X-21.261 Y50.435 E9.1212
G1 X-21.528 Y50.535 E9.1493
G1 X-21.555 Y50.544 E9.1521
G1 X-22.759 Y50.926 E9.2769
G1 X-22.786 Y50.934 E9.2796
G1 X-23.062 Y51.006 E9.3078
G1 X-23.089 Y51.012 E9.3106
G1 X-24.326 Y51.268 E9.4354
G1 X-24.353 Y51.273 E9.4381
G1 X-24.636 Y51.316 E9.4663
G1 X-24.663 Y51.320 E9.4691
G1 X-25.920 Y51.447 E9.5939
G1 X-25.948 Y51.449 E9.5966
G1 X-26.233 Y51.464 E9.6248
G1 X-26.261 Y51.464 E9.6276
G1 X-27.524 Y51.462 E9.7524
G1 X-27.552 Y51.461 E9.7551
G1 X-27.837 Y51.446 E9.7833
G1 X-27.865 Y51.444 E9.7861
G1 X-29.121 Y51.311 E9.9109
G1 X-29.149 Y51.308 E9.9136
G1 X-29.431 Y51.263 E9.9418
G1 X-29.458 Y51.258 E9.9445
G1 X-30.694 Y50.997 E10.0693
G1 X-30.721 Y50.991 E10.0721
G1 X-30.997 Y50.918 E10.1003
G1 X-31.024 Y50.910 E10.1030
G1 X-32.227 Y50.523 E10.2278
G1 X-32.253 Y50.514 E10.2306
G1 X-32.520 Y50.413 E10.2588
G1 X-32.545 Y50.402 E10.2615
G1 X-33.702 Y49.894 E10.3863
G1 X-33.727 Y49.882 E10.3891
G1 X-33.982 Y49.754 E10.4173
G1 X-34.007 Y49.741 E10.4200
G1 X-35.105 Y49.117 E10.5448
G1 X-35.129 Y49.102 E10.5476
G1 X-35.370 Y48.949 E10.5758
G1 X-35.393 Y48.933 E10.5785
G1 X-36.421 Y48.199 E10.7033
G1 X-36.443 Y48.182 E10.7061
G1 X-36.666 Y48.005 E10.7342
G1 X-36.688 Y47.987 E10.7370
G1 X-37.635 Y47.151 E10.8618
G1 X-37.655 Y47.132 E10.8645
G1 X-37.859 Y46.933 E10.8927
G1 X-37.879 Y46.913 E10.8955
G1 X-38.735 Y45.984 E11.0203
G1 X-38.754 Y45.963 E11.0230
G1 X-38.936 Y45.743 E11.0512
G1 X-38.953 Y45.722 E11.0540
G1 X-39.710 Y44.710 E11.1788
G1 X-39.726 Y44.687 E11.1815
G1 X-39.885 Y44.450 E11.2097
G1 X-39.899 Y44.426 E11.2125
G1 X-40.548 Y43.342 E11.3373
G1 X-40.561 Y43.318 E11.3400
G1 X-40.695 Y43.066 E11.3682
G1 X-40.707 Y43.041 E11.3710
G1 X-41.241 Y41.895 E11.4958
G1 X-41.252 Y41.870 E11.4985
G1 X-41.359 Y41.605 E11.5267
G1 X-41.369 Y41.579 E11.5294
G1 X-41.781 Y40.385 E11.6542
G1 X-41.790 Y40.359 E11.6570
G1 X-41.869 Y40.084 E11.6852
G1 X-41.876 Y40.058 E11.6879
G1 X-42.164 Y38.827 E11.8127
G1 X-42.170 Y38.800 E11.8155
G1 X-42.220 Y38.519 E11.8437
G1 X-42.224 Y38.492 E11.8464
G1 X-42.384 Y37.238 E11.9712
G1 X-42.387 Y37.211 E11.9740
G1 X-42.408 Y36.926 E12.0022
G1 X-42.410 Y36.898 E12.0049
G1 X-42.440 Y35.635 E12.1297
G1 X-42.440 Y35.608 E12.1325
G1 X-42.432 Y35.322 E12.1607
G1 X-42.431 Y35.294 E12.1634
G1 X-42.331 Y34.035 E12.2882
G1 X-42.328 Y34.007 E12.2909
G1 X-42.290 Y33.724 E12.3191
G1 X-42.286 Y33.697 E12.3219
G1 X-42.057 Y32.454 E12.4467
G1 X-42.051 Y32.427 E12.4494
G1 X-41.985 Y32.150 E12.4776
G1 X-41.978 Y32.123 E12.4804
G1 X-41.623 Y30.910 E12.6052
G1 X-41.614 Y30.884 E12.6079
G1 X-41.520 Y30.614 E12.6361
G1 X-41.510 Y30.588 E12.6389
G1 X-41.032 Y29.419 E12.7637
G1 X-41.021 Y29.394 E12.7664
G1 X-40.899 Y29.135 E12.7946
G1 X-40.887 Y29.111 E12.7974
G1 X-40.291 Y27.997 E12.9222
G1 X-40.277 Y27.972 E12.9249
G1 X-40.130 Y27.728 E12.9531
G1 X-40.115 Y27.705 E12.9558
G1 X-39.409 Y26.660 E13.0804
G1 X-39.393 Y26.638 E13.0831
G1 X-39.225 Y26.414 E13.1107
G1 X-39.208 Y26.392 E13.1134
G1 X-38.424 Y25.452 E13.2344
G1 X-38.405 Y25.432 E13.2371
G1 X-38.212 Y25.222 E13.2653
G1 X-38.192 Y25.202 E13.2680
G1 X-37.259 Y24.293 E13.3967
G1 X-37.238 Y24.274 E13.3995
G1 X-37.020 Y24.082 E13.4283
G1 X-36.998 Y24.064 E13.4311
G1 X-36.004 Y23.280 E13.5561
G1 X-35.981 Y23.263 E13.5589
G1 X-35.748 Y23.098 E13.5871
G1 X-35.725 Y23.083 E13.5898
G1 X-34.658 Y22.407 E13.7146
G1 X-34.634 Y22.393 E13.7174
G1 X-34.386 Y22.253 E13.7455
G1 X-34.361 Y22.240 E13.7483
G1 X-33.230 Y21.677 E13.8731
G1 X-33.205 Y21.665 E13.8758
G1 X-32.943 Y21.551 E13.9040
G1 X-32.917 Y21.541 E13.9068
G1 X-31.734 Y21.098 E14.0316
G1 X-31.708 Y21.089 E14.0343
G1 X-31.436 Y21.002 E14.0625
G1 X-31.409 Y20.995 E14.0653
G1 X-30.187 Y20.675 E14.1901
G1 X-30.160 Y20.669 E14.1928
G1 X-29.880 Y20.611 E14.2210
G1 X-29.853 Y20.606 E14.2238
G1 X-28.606 Y20.414 E14.3484
G1 X-28.579 Y20.411 E14.3511
G1 X-28.299 Y20.382 E14.3789
G1 X-28.271 Y20.380 E14.3816
G1 X-27.029 Y20.317 E14.5045
G1 X-27.001 Y20.316 E14.5073
G1 X-26.713 Y20.316 E14.5357
G1 X-26.685 Y20.317 E14.5385
G1 X-25.403 Y20.385 E14.6653
G1 X-25.375 Y20.387 E14.6681
G1 X-25.090 Y20.417 E14.6964
G1 X-25.062 Y20.421 E14.6992
G1 X-23.813 Y20.618 E14.8240
G1 X-23.786 Y20.623 E14.8268
G1 X-23.506 Y20.682 E14.8550
G1 X-23.479 Y20.688 E14.8577
G1 X-22.258 Y21.012 E14.9825
G1 X-22.232 Y21.020 E14.9853
G1 X-21.960 Y21.107 E15.0135
G1 X-21.934 Y21.117 E15.0162
G1 X-20.752 Y21.564 E15.1410
G1 X-20.727 Y21.575 E15.1438
G1 X-20.465 Y21.690 E15.1720
G1 X-20.440 Y21.702 E15.1747
G1 X-19.311 Y22.269 E15.2995
G1 X-19.287 Y22.282 E15.3023
G1 X-19.038 Y22.423 E15.3304
G1 X-19.015 Y22.437 E15.3332
G1 X-17.950 Y23.117 E15.4580
G1 X-17.927 Y23.133 E15.4607
G1 X-17.695 Y23.299 E15.4889
G1 X-17.672 Y23.315 E15.4917
G1 X-16.683 Y24.101 E15.6165
G1 X-16.662 Y24.119 E15.6192
G1 X-16.448 Y24.308 E15.6474
G1 X-16.427 Y24.327 E15.6502
G1 X-15.524 Y25.211 E15.7750
G1 X-15.505 Y25.231 E15.7777
G1 X-15.312 Y25.440 E15.8059
G1 X-15.293 Y25.461 E15.8087
G1 X-14.866 Y25.975 E15.8747
G1 X-14.430 Y25.452 E15.9419
G1 X-14.412 Y25.432 E15.9447
