; G-Code generated by Simplify3D(R) Version 3.1.1
; Dec 14, 2016 at 11:12:04 AM
; Settings Summary
;   processName,Process1
;   applyToModels,Cap,Cap(2)
;   profileName,Rostock MAX v2 (modified)
;   profileVersion,2015-05-01 08:00:00
;   baseProfile,
;   printMaterial,Iron PLA
;   printQuality,Medium
;   printExtruders,
;   extruderName,Primary Extruder
;   extruderToolheadNumber,0
;   extruderDiameter,0.4
;   extruderAutoWidth,1
;   extruderWidth,0.48
;   extrusionMultiplier,1.1
;   extruderUseRetract,1
;   extruderRetractionDistance,2
;   extruderExtraRestartDistance,-0.2
;   extruderRetractionZLift,0
;   extruderRetractionSpeed,1800
;   extruderUseCoasting,1
;   extruderCoastingDistance,0.5
;   extruderUseWipe,0
;   extruderWipeDistance,5
;   primaryExtruder,0
;   layerHeight,0.2
;   topSolidLayers,3
;   bottomSolidLayers,3
;   perimeterOutlines,3
;   printPerimetersInsideOut,1
;   startPointOption,2
;   startPointOriginX,0
;   startPointOriginY,0
;   startPointOriginZ,300
;   sequentialIslands,0
;   spiralVaseMode,0
;   firstLayerHeightPercentage,25
;   firstLayerWidthPercentage,100
;   firstLayerUnderspeed,0.4
;   useRaft,0
;   raftExtruder,0
;   raftLayers,3
;   raftOffset,15
;   raftSeparationDistance,0.14
;   raftInfill,85
;   disableRaftBaseLayers,0
;   useSkirt,1
;   skirtExtruder,0
;   skirtLayers,1
;   skirtOutlines,2
;   skirtOffset,5
;   usePrimePillar,0
;   primePillarExtruder,999
;   primePillarWidth,12
;   primePillarLocation,7
;   primePillarSpeedMultiplier,1
;   useOozeShield,0
;   oozeShieldExtruder,999
;   oozeShieldOffset,2
;   oozeShieldOutlines,1
;   oozeShieldSidewallShape,1
;   oozeShieldSidewallAngle,30
;   oozeShieldSpeedMultiplier,1
;   infillExtruder,0
;   internalInfillPattern,Rectilinear
;   externalInfillPattern,Rectilinear
;   infillPercentage,85
;   outlineOverlapPercentage,40
;   infillExtrusionWidthPercentage,100
;   minInfillLength,3
;   infillLayerInterval,1
;   infillAngles,45,-45
;   overlapInfillAngles,0
;   generateSupport,0
;   supportExtruder,0
;   supportInfillPercentage,30
;   supportExtraInflation,0
;   denseSupportLayers,0
;   denseSupportInfillPercentage,70
;   supportLayerInterval,1
;   supportHorizontalPartOffset,0.3
;   supportUpperSeparationLayers,1
;   supportLowerSeparationLayers,1
;   supportType,0
;   supportGridSpacing,4
;   maxOverhangAngle,70
;   supportAngles,0
;   temperatureName,Primary Extruder,Heated Bed
;   temperatureNumber,0,1
;   temperatureSetpointCount,1,1
;   temperatureSetpointLayers,1,1
;   temperatureSetpointTemperatures,225,60
;   temperatureStabilizeAtStartup,1,1
;   temperatureHeatedBed,0,1
;   temperatureRelayBetweenLayers,0,0
;   temperatureRelayBetweenLoops,0,0
;   fanLayers,1,2
;   fanSpeeds,0,100
;   blipFanToFullPower,1
;   adjustSpeedForCooling,1
;   minSpeedLayerTime,5
;   minCoolingSpeedSlowdown,80
;   increaseFanForCooling,0
;   minFanLayerTime,60
;   maxCoolingFanSpeed,100
;   increaseFanForBridging,0
;   bridgingFanSpeed,100
;   use5D,1
;   relativeEdistances,0
;   allowEaxisZeroing,1
;   independentExtruderAxes,0
;   includeM10123,0
;   stickySupport,1
;   applyToolheadOffsets,0
;   gcodeXoffset,0
;   gcodeYoffset,0
;   gcodeZoffset,0
;   overrideMachineDefinition,1
;   machineTypeOverride,1
;   strokeXoverride,197
;   strokeYoverride,197
;   strokeZoverride,375
;   originOffsetXoverride,98.5
;   originOffsetYoverride,98.5
;   originOffsetZoverride,0
;   homeXdirOverride,0
;   homeYdirOverride,0
;   homeZdirOverride,1
;   flipXoverride,1
;   flipYoverride,-1
;   flipZoverride,1
;   toolheadOffsets,0,0|0,0|0,0|0,0|0,0|0,0
;   overrideFirmwareConfiguration,1
;   firmwareTypeOverride,RepRap (Marlin/Repetier/Sprinter)
;   GPXconfigOverride,r2
;   baudRateOverride,115200
;   overridePrinterModels,1
;   printerModelsOverride
;   startingGcode,G28 ; home all axes
;   layerChangeGcode,
;   retractionGcode,
;   toolChangeGcode,
;   endingGcode,M104 S0 ; turn off extruder,M140 S0 ; turn off bed,G28 ; home axes,M84 ; disable motors
;   exportFileFormat,gcode
;   celebration,0
;   celebrationSong,Random Song
;   postProcessing,
;   defaultSpeed,1000
;   outlineUnderspeed,0.5
;   solidInfillUnderspeed,0.8
;   supportUnderspeed,0.8
;   rapidXYspeed,9000
;   rapidZspeed,1200
;   minBridgingArea,50
;   bridgingExtraInflation,0
;   bridgingExtrusionMultiplier,0.8
;   bridgingSpeedMultiplier,1.25
;   filamentDiameter,1.75
;   filamentPricePerKg,22
;   filamentDensity,1.25
;   useMinPrintHeight,0
;   minPrintHeight,0.05
;   useMaxPrintHeight,0
;   maxPrintHeight,0
;   useDiaphragm,0
;   diaphragmLayerInterval,20
;   robustSlicing,1
;   mergeAllIntoSolid,0
;   onlyRetractWhenCrossingOutline,0
;   retractBetweenLayers,0
;   useRetractionMinTravel,0
;   retractionMinTravel,3
;   retractWhileWiping,1
;   onlyWipeOutlines,1
;   avoidCrossingOutline,1
;   maxMovementDetourFactor,1.5
;   toolChangeRetractionDistance,12
;   toolChangeExtraRestartDistance,-0.5
;   toolChangeRetractionSpeed,600
;   allowThinWallGapFill,0
;   thinWallAllowedOverlapPercentage,10
;   horizontalSizeCompensation,0
G90
M82
M106 S0
M140 S60
M190 S60
M104 S225 T0
M109 S225 T0
G28 ; home all axes
G92 E0
G1 E-2.0000 F1800
G1 Z0.050 F1200
; layer 1, Z = 0.05
T0
; tool H0.200 W0.480
; skirt
G1 X9.352 Y0.008 F9000
G1 E-0.2000 F540
G92 E0
G1 X9.944 Y0.478 E0.0332 F400
G1 X9.958 Y0.490 E0.0340
G1 X10.166 Y0.672 E0.0461
G1 X10.179 Y0.685 E0.0469
G1 X11.076 Y1.561 E0.1020
G1 X11.089 Y1.575 E0.1028
G1 X11.276 Y1.778 E0.1149
G1 X11.289 Y1.791 E0.1158
G1 X12.091 Y2.756 E0.1708
G1 X12.102 Y2.770 E0.1716
G1 X12.268 Y2.991 E0.1838
G1 X12.278 Y3.006 E0.1846
G1 X12.977 Y4.048 E0.2396
G1 X12.987 Y4.063 E0.2404
G1 X13.129 Y4.300 E0.2526
G1 X13.138 Y4.316 E0.2534
G1 X13.726 Y5.424 E0.3084
G1 X13.734 Y5.441 E0.3093
G1 X13.851 Y5.691 E0.3214
G1 X13.859 Y5.708 E0.3222
G1 X14.330 Y6.870 E0.3773
G1 X14.336 Y6.888 E0.3781
G1 X14.426 Y7.149 E0.3902
G1 X14.432 Y7.166 E0.3910
G1 X14.781 Y8.371 E0.4461
G1 X14.786 Y8.389 E0.4469
G1 X14.849 Y8.658 E0.4590
G1 X14.853 Y8.676 E0.4598
G1 X15.076 Y9.910 E0.5149
G1 X15.079 Y9.928 E0.5157
G1 X15.114 Y10.202 E0.5278
G1 X15.116 Y10.221 E0.5286
G1 X15.211 Y11.471 E0.5837
G1 X15.212 Y11.490 E0.5845
G1 X15.219 Y11.766 E0.5966
G1 X15.218 Y11.784 E0.5974
G1 X15.185 Y13.038 E0.6525
G1 X15.184 Y13.057 E0.6533
G1 X15.162 Y13.332 E0.6654
G1 X15.160 Y13.350 E0.6663
G1 X14.997 Y14.594 E0.7213
G1 X14.994 Y14.612 E0.7221
G1 X14.945 Y14.884 E0.7343
G1 X14.941 Y14.902 E0.7351
G1 X14.651 Y16.122 E0.7901
G1 X14.646 Y16.140 E0.7909
G1 X14.569 Y16.405 E0.8031
G1 X14.563 Y16.423 E0.8039
G1 X14.150 Y17.607 E0.8589
G1 X14.143 Y17.624 E0.8598
G1 X14.039 Y17.880 E0.8719
G1 X14.031 Y17.897 E0.8727
G1 X13.498 Y19.032 E0.9278
G1 X13.490 Y19.048 E0.9286
G1 X13.360 Y19.292 E0.9407
G1 X13.351 Y19.308 E0.9415
G1 X12.704 Y20.383 E0.9966
G1 X12.694 Y20.398 E0.9974
G1 X12.539 Y20.627 E1.0095
G1 X12.528 Y20.642 E1.0103
G1 X11.774 Y21.644 E1.0654
G1 X11.763 Y21.659 E1.0662
G1 X11.586 Y21.871 E1.0783
G1 X11.574 Y21.884 E1.0791
G1 X10.720 Y22.804 E1.1342
G1 X10.707 Y22.817 E1.1350
G1 X10.509 Y23.009 E1.1471
G1 X10.496 Y23.022 E1.1479
G1 X9.553 Y23.849 E1.2030
G1 X9.538 Y23.861 E1.2038
G1 X9.322 Y24.032 E1.2159
G1 X9.307 Y24.043 E1.2168
G1 X8.284 Y24.768 E1.2718
G1 X8.268 Y24.779 E1.2726
G1 X8.035 Y24.926 E1.2847
G1 X8.019 Y24.936 E1.2856
G1 X6.927 Y25.552 E1.3406
G1 X6.911 Y25.561 E1.3414
G1 X6.664 Y25.684 E1.3536
G1 X6.647 Y25.692 E1.3544
G1 X5.497 Y26.193 E1.4094
G1 X5.480 Y26.200 E1.4103
G1 X5.221 Y26.297 E1.4224
G1 X5.204 Y26.303 E1.4232
G1 X4.008 Y26.683 E1.4783
G1 X3.991 Y26.688 E1.4791
G1 X3.724 Y26.758 E1.4912
G1 X3.705 Y26.762 E1.4920
G1 X2.477 Y27.017 E1.5471
G1 X2.459 Y27.020 E1.5479
G1 X2.186 Y27.062 E1.5600
G1 X2.168 Y27.065 E1.5608
G1 X0.920 Y27.192 E1.6159
G1 X0.902 Y27.194 E1.6167
G1 X0.626 Y27.207 E1.6288
G1 X0.607 Y27.208 E1.6296
G1 X-0.647 Y27.206 E1.6847
G1 X-0.665 Y27.206 E1.6855
G1 X-0.941 Y27.191 E1.6976
G1 X-0.959 Y27.190 E1.6984
G1 X-2.207 Y27.059 E1.7535
G1 X-2.225 Y27.057 E1.7543
G1 X-2.498 Y27.014 E1.7664
G1 X-2.516 Y27.011 E1.7672
G1 X-3.743 Y26.752 E1.8223
G1 X-3.762 Y26.748 E1.8231
G1 X-4.028 Y26.678 E1.8352
G1 X-4.046 Y26.672 E1.8361
G1 X-5.241 Y26.289 E1.8911
G1 X-5.258 Y26.283 E1.8919
G1 X-5.516 Y26.186 E1.9041
G1 X-5.533 Y26.178 E1.9049
G1 X-6.682 Y25.675 E1.9599
G1 X-6.699 Y25.667 E1.9608
G1 X-6.946 Y25.543 E1.9729
G1 X-6.962 Y25.534 E1.9737
G1 X-8.053 Y24.915 E2.0287
G1 X-8.068 Y24.906 E2.0296
G1 X-8.301 Y24.757 E2.0417
G1 X-8.317 Y24.747 E2.0425
G1 X-9.338 Y24.019 E2.0976
G1 X-9.353 Y24.008 E2.0984
G1 X-9.569 Y23.836 E2.1105
G1 X-9.583 Y23.824 E2.1113
G1 X-10.524 Y22.995 E2.1664
G1 X-10.538 Y22.982 E2.1672
G1 X-10.735 Y22.789 E2.1793
G1 X-10.748 Y22.776 E2.1801
G1 X-11.599 Y21.855 E2.2352
G1 X-11.611 Y21.841 E2.2360
G1 X-11.788 Y21.628 E2.2481
G1 X-11.799 Y21.614 E2.2489
G1 X-12.551 Y20.610 E2.3040
G1 X-12.561 Y20.595 E2.3048
G1 X-12.715 Y20.365 E2.3169
G1 X-12.725 Y20.350 E2.3177
G1 X-13.369 Y19.274 E2.3728
G1 X-13.379 Y19.258 E2.3736
G1 X-13.508 Y19.014 E2.3857
G1 X-13.516 Y18.997 E2.3866
G1 X-14.046 Y17.860 E2.4416
G1 X-14.054 Y17.843 E2.4424
G1 X-14.158 Y17.588 E2.4546
G1 X-14.164 Y17.570 E2.4554
G1 X-14.575 Y16.385 E2.5104
G1 X-14.580 Y16.367 E2.5112
G1 X-14.657 Y16.102 E2.5234
G1 X-14.662 Y16.084 E2.5242
G1 X-14.948 Y14.863 E2.5792
G1 X-14.952 Y14.845 E2.5801
G1 X-15.001 Y14.573 E2.5922
G1 X-15.004 Y14.555 E2.5930
G1 X-15.163 Y13.311 E2.6481
G1 X-15.165 Y13.293 E2.6489
G1 X-15.186 Y13.017 E2.6610
G1 X-15.187 Y12.999 E2.6618
G1 X-15.218 Y11.745 E2.7169
G1 X-15.218 Y11.727 E2.7177
G1 X-15.210 Y11.451 E2.7298
G1 X-15.209 Y11.432 E2.7306
G1 X-15.111 Y10.182 E2.7857
G1 X-15.109 Y10.163 E2.7865
G1 X-15.073 Y9.889 E2.7986
G1 X-15.070 Y9.871 E2.7994
G1 X-14.844 Y8.638 E2.8545
G1 X-14.840 Y8.619 E2.8553
G1 X-14.776 Y8.351 E2.8674
G1 X-14.772 Y8.333 E2.8682
G1 X-14.420 Y7.129 E2.9233
G1 X-14.414 Y7.112 E2.9241
G1 X-14.323 Y6.851 E2.9362
G1 X-14.316 Y6.833 E2.9371
G1 X-13.842 Y5.672 E2.9921
G1 X-13.835 Y5.655 E2.9929
G1 X-13.717 Y5.405 E3.0051
G1 X-13.709 Y5.389 E3.0059
G1 X-13.118 Y4.283 E3.0609
G1 X-13.109 Y4.267 E3.0617
G1 X-12.967 Y4.030 E3.0739
G1 X-12.957 Y4.014 E3.0747
G1 X-12.256 Y2.976 E3.1297
G1 X-12.246 Y2.961 E3.1305
G1 X-12.082 Y2.743 E3.1424
G1 X-12.070 Y2.729 E3.1432
G1 X-11.284 Y1.786 E3.1972
G1 X-11.272 Y1.772 E3.1980
G1 X-11.084 Y1.569 E3.2101
G1 X-11.071 Y1.556 E3.2109
G1 X-10.154 Y0.662 E3.2671
G1 X-10.140 Y0.650 E3.2679
G1 X-9.930 Y0.465 E3.2802
G1 X-9.916 Y0.453 E3.2810
G1 X-9.352 Y0.008 E3.3126
G1 X-9.569 Y-0.164 E3.3247
G1 X-9.583 Y-0.176 E3.3255
G1 X-10.524 Y-1.005 E3.3806
G1 X-10.538 Y-1.018 E3.3814
G1 X-10.735 Y-1.211 E3.3935
G1 X-10.748 Y-1.224 E3.3943
G1 X-11.599 Y-2.145 E3.4494
G1 X-11.611 Y-2.159 E3.4502
G1 X-11.788 Y-2.372 E3.4623
G1 X-11.799 Y-2.386 E3.4631
G1 X-12.551 Y-3.390 E3.5182
G1 X-12.561 Y-3.405 E3.5190
G1 X-12.715 Y-3.635 E3.5311
G1 X-12.725 Y-3.650 E3.5320
G1 X-13.369 Y-4.726 E3.5870
G1 X-13.379 Y-4.742 E3.5878
G1 X-13.508 Y-4.986 E3.6000
G1 X-13.516 Y-5.003 E3.6008
G1 X-14.046 Y-6.140 E3.6558
G1 X-14.054 Y-6.157 E3.6566
G1 X-14.158 Y-6.412 E3.6688
G1 X-14.164 Y-6.430 E3.6696
G1 X-14.575 Y-7.615 E3.7246
G1 X-14.580 Y-7.632 E3.7255
G1 X-14.657 Y-7.898 E3.7376
G1 X-14.662 Y-7.916 E3.7384
G1 X-14.948 Y-9.137 E3.7935
G1 X-14.952 Y-9.155 E3.7943
G1 X-15.001 Y-9.427 E3.8064
G1 X-15.004 Y-9.445 E3.8072
G1 X-15.163 Y-10.689 E3.8623
G1 X-15.165 Y-10.707 E3.8631
G1 X-15.186 Y-10.983 E3.8752
G1 X-15.187 Y-11.001 E3.8760
G1 X-15.218 Y-12.255 E3.9311
G1 X-15.218 Y-12.273 E3.9319
G1 X-15.210 Y-12.549 E3.9440
G1 X-15.209 Y-12.568 E3.9448
G1 X-15.111 Y-13.818 E3.9999
G1 X-15.109 Y-13.837 E4.0007
G1 X-15.073 Y-14.111 E4.0128
G1 X-15.070 Y-14.129 E4.0136
G1 X-14.844 Y-15.362 E4.0687
G1 X-14.840 Y-15.381 E4.0695
G1 X-14.776 Y-15.649 E4.0816
G1 X-14.772 Y-15.667 E4.0825
G1 X-14.420 Y-16.871 E4.1375
G1 X-14.414 Y-16.888 E4.1383
G1 X-14.323 Y-17.149 E4.1505
G1 X-14.316 Y-17.167 E4.1513
G1 X-13.842 Y-18.328 E4.2063
G1 X-13.835 Y-18.345 E4.2071
G1 X-13.717 Y-18.595 E4.2193
G1 X-13.709 Y-18.611 E4.2201
G1 X-13.118 Y-19.717 E4.2751
G1 X-13.109 Y-19.733 E4.2760
G1 X-12.967 Y-19.970 E4.2881
G1 X-12.957 Y-19.986 E4.2889
G1 X-12.256 Y-21.024 E4.3439
G1 X-12.246 Y-21.039 E4.3447
G1 X-12.082 Y-21.257 E4.3567
G1 X-12.070 Y-21.271 E4.3575
G1 X-11.284 Y-22.214 E4.4114
G1 X-11.272 Y-22.228 E4.4122
G1 X-11.084 Y-22.431 E4.4243
G1 X-11.071 Y-22.444 E4.4251
G1 X-10.154 Y-23.338 E4.4813
G1 X-10.140 Y-23.350 E4.4822
G1 X-9.930 Y-23.535 E4.4944
G1 X-9.916 Y-23.547 E4.4953
G1 X-8.930 Y-24.325 E4.5504
G1 X-8.915 Y-24.336 E4.5512
G1 X-8.690 Y-24.496 E4.5633
G1 X-8.675 Y-24.506 E4.5641
G1 X-7.616 Y-25.178 E4.6192
G1 X-7.600 Y-25.187 E4.6200
G1 X-7.359 Y-25.323 E4.6321
G1 X-7.343 Y-25.332 E4.6330
G1 X-6.220 Y-25.891 E4.6880
G1 X-6.203 Y-25.899 E4.6888
G1 X-5.950 Y-26.009 E4.7010
G1 X-5.933 Y-26.016 E4.7018
G1 X-4.759 Y-26.457 E4.7568
G1 X-4.741 Y-26.463 E4.7576
G1 X-4.478 Y-26.547 E4.7698
G1 X-4.460 Y-26.552 E4.7706
G1 X-3.247 Y-26.870 E4.8256
G1 X-3.229 Y-26.874 E4.8265
G1 X-2.959 Y-26.930 E4.8386
G1 X-2.941 Y-26.933 E4.8394
G1 X-1.701 Y-27.125 E4.8945
G1 X-1.683 Y-27.127 E4.8953
G1 X-1.408 Y-27.155 E4.9074
G1 X-1.390 Y-27.156 E4.9082
G1 X-0.137 Y-27.219 E4.9633
G1 X-0.118 Y-27.220 E4.9641
G1 X0.158 Y-27.220 E4.9762
G1 X0.176 Y-27.219 E4.9770
G1 X1.429 Y-27.153 E5.0321
G1 X1.447 Y-27.151 E5.0329
G1 X1.722 Y-27.123 E5.0450
G1 X1.740 Y-27.120 E5.0458
G1 X2.979 Y-26.926 E5.1009
G1 X2.997 Y-26.922 E5.1017
G1 X3.268 Y-26.865 E5.1138
G1 X3.286 Y-26.861 E5.1146
G1 X4.498 Y-26.540 E5.1697
G1 X4.516 Y-26.535 E5.1705
G1 X4.779 Y-26.451 E5.1826
G1 X4.796 Y-26.445 E5.1835
G1 X5.969 Y-26.001 E5.2385
G1 X5.986 Y-25.994 E5.2393
G1 X6.239 Y-25.883 E5.2514
G1 X6.256 Y-25.875 E5.2523
G1 X7.377 Y-25.313 E5.3073
G1 X7.393 Y-25.304 E5.3081
G1 X7.634 Y-25.168 E5.3203
G1 X7.649 Y-25.158 E5.3211
G1 X8.707 Y-24.484 E5.3761
G1 X8.722 Y-24.473 E5.3770
G1 X8.947 Y-24.313 E5.3891
G1 X8.962 Y-24.302 E5.3899
G1 X9.944 Y-23.522 E5.4450
G1 X9.958 Y-23.510 E5.4458
G1 X10.166 Y-23.328 E5.4579
G1 X10.179 Y-23.315 E5.4587
G1 X11.076 Y-22.439 E5.5138
G1 X11.089 Y-22.425 E5.5146
G1 X11.276 Y-22.222 E5.5267
G1 X11.289 Y-22.209 E5.5275
G1 X12.091 Y-21.244 E5.5826
G1 X12.102 Y-21.230 E5.5834
G1 X12.268 Y-21.009 E5.5955
G1 X12.278 Y-20.994 E5.5963
G1 X12.977 Y-19.952 E5.6514
G1 X12.987 Y-19.937 E5.6522
G1 X13.129 Y-19.700 E5.6643
G1 X13.138 Y-19.684 E5.6651
G1 X13.726 Y-18.576 E5.7202
G1 X13.734 Y-18.559 E5.7210
G1 X13.851 Y-18.309 E5.7331
G1 X13.859 Y-18.292 E5.7340
G1 X14.330 Y-17.130 E5.7890
G1 X14.336 Y-17.112 E5.7898
G1 X14.426 Y-16.851 E5.8019
G1 X14.432 Y-16.834 E5.8028
G1 X14.781 Y-15.629 E5.8578
G1 X14.786 Y-15.611 E5.8586
G1 X14.849 Y-15.342 E5.8708
G1 X14.853 Y-15.324 E5.8716
G1 X15.076 Y-14.090 E5.9266
G1 X15.079 Y-14.072 E5.9275
G1 X15.114 Y-13.798 E5.9396
G1 X15.116 Y-13.779 E5.9404
G1 X15.211 Y-12.529 E5.9955
G1 X15.212 Y-12.510 E5.9963
G1 X15.219 Y-12.234 E6.0084
G1 X15.218 Y-12.216 E6.0092
G1 X15.185 Y-10.962 E6.0643
G1 X15.184 Y-10.943 E6.0651
G1 X15.162 Y-10.668 E6.0772
G1 X15.160 Y-10.650 E6.0780
G1 X14.997 Y-9.406 E6.1331
G1 X14.994 Y-9.388 E6.1339
G1 X14.945 Y-9.116 E6.1460
G1 X14.941 Y-9.098 E6.1468
G1 X14.651 Y-7.878 E6.2019
G1 X14.646 Y-7.860 E6.2027
G1 X14.569 Y-7.595 E6.2148
G1 X14.563 Y-7.577 E6.2156
G1 X14.150 Y-6.393 E6.2707
G1 X14.143 Y-6.376 E6.2715
G1 X14.039 Y-6.120 E6.2836
G1 X14.031 Y-6.103 E6.2844
G1 X13.498 Y-4.968 E6.3395
G1 X13.490 Y-4.952 E6.3403
G1 X13.360 Y-4.708 E6.3525
G1 X13.351 Y-4.692 E6.3533
G1 X12.704 Y-3.617 E6.4083
G1 X12.694 Y-3.602 E6.4091
G1 X12.539 Y-3.373 E6.4213
G1 X12.528 Y-3.358 E6.4221
G1 X11.774 Y-2.356 E6.4771
G1 X11.763 Y-2.341 E6.4780
G1 X11.586 Y-2.129 E6.4901
G1 X11.574 Y-2.116 E6.4909
G1 X10.720 Y-1.196 E6.5459
G1 X10.707 Y-1.183 E6.5468
G1 X10.509 Y-0.991 E6.5589
G1 X10.496 Y-0.978 E6.5597
G1 X9.736 Y-0.311 E6.6041
G1 X9.553 Y-0.151 F400
G1 X9.538 Y-0.139 F400
G1 X9.352 Y0.008 F400
G92 E0
G1 E-2.0000 F1800
G1 X9.029 Y-0.349 F9000
G1 E-0.2000 F1800
G92 E0
G1 X9.024 Y-0.345 E0.0003 F400
G1 X8.548 Y-0.008 E0.0259
