; G-Code generated by Simplify3D(R) Version 3.1.1
; Dec 25, 2016 at 1:20:35 PM
; Settings Summary
;   processName,Process1
;   applyToModels,FlatCap(6),ConcaveCap(2)(2)(2),FlatCap(3),FlatCap(5),FlatCap(2),FlatCap(4),FlatCap,ConcaveCap(2)(2),ConcaveCap(2)(2)(2)(2),ConcaveCap(2)(2)(2)(3)
;   profileName,Rostock MAX v2 (modified)
;   profileVersion,2015-05-01 08:00:00
;   baseProfile,
;   printMaterial,Iron PLA
;   printQuality,Medium
;   printExtruders,
;   extruderName,Primary Extruder
;   extruderToolheadNumber,0
;   extruderDiameter,0.6
;   extruderAutoWidth,1
;   extruderWidth,0.72
;   extrusionMultiplier,1.1
;   extruderUseRetract,1
;   extruderRetractionDistance,2
;   extruderExtraRestartDistance,-0.2
;   extruderRetractionZLift,0
;   extruderRetractionSpeed,1800
;   extruderUseCoasting,1
;   extruderCoastingDistance,0.5
;   extruderUseWipe,0
;   extruderWipeDistance,5
;   primaryExtruder,0
;   layerHeight,0.3
;   topSolidLayers,3
;   bottomSolidLayers,3
;   perimeterOutlines,3
;   printPerimetersInsideOut,1
;   startPointOption,2
;   startPointOriginX,0
;   startPointOriginY,0
;   startPointOriginZ,300
;   sequentialIslands,0
;   spiralVaseMode,0
;   firstLayerHeightPercentage,25
;   firstLayerWidthPercentage,100
;   firstLayerUnderspeed,0.4
;   useRaft,0
;   raftExtruder,0
;   raftLayers,3
;   raftOffset,15
;   raftSeparationDistance,0.14
;   raftInfill,85
;   disableRaftBaseLayers,0
;   useSkirt,1
;   skirtExtruder,0
;   skirtLayers,1
;   skirtOutlines,1
;   skirtOffset,10
;   usePrimePillar,0
;   primePillarExtruder,999
;   primePillarWidth,12
;   primePillarLocation,7
;   primePillarSpeedMultiplier,1
;   useOozeShield,0
;   oozeShieldExtruder,999
;   oozeShieldOffset,2
;   oozeShieldOutlines,1
;   oozeShieldSidewallShape,1
;   oozeShieldSidewallAngle,30
;   oozeShieldSpeedMultiplier,1
;   infillExtruder,0
;   internalInfillPattern,Rectilinear
;   externalInfillPattern,Rectilinear
;   infillPercentage,85
;   outlineOverlapPercentage,40
;   infillExtrusionWidthPercentage,100
;   minInfillLength,3
;   infillLayerInterval,1
;   infillAngles,45,-45
;   overlapInfillAngles,0
;   generateSupport,1
;   supportExtruder,0
;   supportInfillPercentage,40
;   supportExtraInflation,0
;   denseSupportLayers,0
;   denseSupportInfillPercentage,70
;   supportLayerInterval,1
;   supportHorizontalPartOffset,0.5
;   supportUpperSeparationLayers,1
;   supportLowerSeparationLayers,1
;   supportType,0
;   supportGridSpacing,3
;   maxOverhangAngle,70
;   supportAngles,0
;   temperatureName,Primary Extruder,Heated Bed
;   temperatureNumber,0,1
;   temperatureSetpointCount,1,1
;   temperatureSetpointLayers,1,1
;   temperatureSetpointTemperatures,225,60
;   temperatureStabilizeAtStartup,1,1
;   temperatureHeatedBed,0,1
;   temperatureRelayBetweenLayers,0,0
;   temperatureRelayBetweenLoops,0,0
;   fanLayers,1,2
;   fanSpeeds,0,80
;   blipFanToFullPower,1
;   adjustSpeedForCooling,1
;   minSpeedLayerTime,5
;   minCoolingSpeedSlowdown,80
;   increaseFanForCooling,0
;   minFanLayerTime,60
;   maxCoolingFanSpeed,100
;   increaseFanForBridging,0
;   bridgingFanSpeed,100
;   use5D,1
;   relativeEdistances,0
;   allowEaxisZeroing,1
;   independentExtruderAxes,0
;   includeM10123,0
;   stickySupport,1
;   applyToolheadOffsets,0
;   gcodeXoffset,0
;   gcodeYoffset,0
;   gcodeZoffset,0
;   overrideMachineDefinition,1
;   machineTypeOverride,1
;   strokeXoverride,197
;   strokeYoverride,197
;   strokeZoverride,375
;   originOffsetXoverride,98.5
;   originOffsetYoverride,98.5
;   originOffsetZoverride,0
;   homeXdirOverride,0
;   homeYdirOverride,0
;   homeZdirOverride,1
;   flipXoverride,1
;   flipYoverride,-1
;   flipZoverride,1
;   toolheadOffsets,0,0|0,0|0,0|0,0|0,0|0,0
;   overrideFirmwareConfiguration,1
;   firmwareTypeOverride,RepRap (Marlin/Repetier/Sprinter)
;   GPXconfigOverride,r2
;   baudRateOverride,115200
;   overridePrinterModels,1
;   printerModelsOverride
;   startingGcode,G28 ; home all axes
;   layerChangeGcode,
;   retractionGcode,
;   toolChangeGcode,
;   endingGcode,M104 S0 ; turn off extruder,M140 S0 ; turn off bed,G28 ; home axes,M84 ; disable motors
;   exportFileFormat,gcode
;   celebration,0
;   celebrationSong,Random Song
;   postProcessing,
;   defaultSpeed,1000
;   outlineUnderspeed,0.5
;   solidInfillUnderspeed,0.8
;   supportUnderspeed,0.8
;   rapidXYspeed,9000
;   rapidZspeed,1200
;   minBridgingArea,50
;   bridgingExtraInflation,0
;   bridgingExtrusionMultiplier,0.8
;   bridgingSpeedMultiplier,1.25
;   filamentDiameter,1.75
;   filamentPricePerKg,22
;   filamentDensity,1.25
;   useMinPrintHeight,0
;   minPrintHeight,0.05
;   useMaxPrintHeight,0
;   maxPrintHeight,0
;   useDiaphragm,0
;   diaphragmLayerInterval,20
;   robustSlicing,1
;   mergeAllIntoSolid,0
;   onlyRetractWhenCrossingOutline,0
;   retractBetweenLayers,0
;   useRetractionMinTravel,0
;   retractionMinTravel,3
;   retractWhileWiping,1
;   onlyWipeOutlines,1
;   avoidCrossingOutline,1
;   maxMovementDetourFactor,1.5
;   toolChangeRetractionDistance,12
;   toolChangeExtraRestartDistance,-0.5
;   toolChangeRetractionSpeed,600
;   allowThinWallGapFill,0
;   thinWallAllowedOverlapPercentage,10
;   horizontalSizeCompensation,0
G90
M82
M106 S0
M140 S60
M190 S60
M104 S225 T0
M109 S225 T0
G28 ; home all axes
G92 E0
G1 E-2.0000 F1800
G1 Z0.075 F1200
; layer 1, Z = 0.075
T0
; tool H0.300 W0.720
; skirt
G1 X1.835 Y6.835 F9000
G1 X2.746 Y7.583 F9000
G1 X3.799 Y8.866 F9000
G1 X4.581 Y10.329 F9000
G1 X5.063 Y11.918 F9000
G1 X5.225 Y13.569 F9000
G1 X5.063 Y15.221 F9000
G1 X4.581 Y16.809 F9000
G1 X4.535 Y16.895 F9000
G1 X7.846 Y29.228 F9000
G1 E-0.2000 F540
G92 E0
G1 X7.832 Y29.239 E0.0017 F400
G1 X7.000 Y29.795 E0.1006
G1 X6.985 Y29.804 E0.1023
G1 X4.578 Y31.090 E0.3719
G1 X4.562 Y31.098 E0.3736
G1 X3.638 Y31.480 E0.4724
G1 X3.621 Y31.486 E0.4742
G1 X1.010 Y32.279 E0.7438
G1 X0.992 Y32.283 E0.7455
G1 X0.011 Y32.478 E0.8443
G1 X-0.006 Y32.481 E0.8461
G1 X-2.722 Y32.748 E1.1157
G1 X-2.740 Y32.749 E1.1174
G1 X-3.740 Y32.749 E1.2162
G1 X-3.758 Y32.748 E1.2180
G1 X-6.474 Y32.481 E1.4876
G1 X-6.491 Y32.478 E1.4893
G1 X-7.259 Y32.325 E1.5666
G1 X-7.147 Y32.886 E1.6231
G1 X-7.145 Y32.904 E1.6249
G1 X-6.879 Y35.602 E1.8927
G1 X-6.878 Y35.620 E1.8945
G1 X-6.878 Y36.620 E1.9933
G1 X-6.879 Y36.638 E1.9950
G1 X-7.145 Y39.336 E2.2629
G1 X-7.147 Y39.354 E2.2647
G1 X-7.343 Y40.335 E2.3635
G1 X-7.347 Y40.352 E2.3652
G1 X-8.134 Y42.947 E2.6331
G1 X-8.140 Y42.964 E2.6348
G1 X-8.523 Y43.888 E2.7336
G1 X-8.530 Y43.904 E2.7354
G1 X-9.809 Y46.295 E3.0033
G1 X-9.818 Y46.311 E3.0050
G1 X-10.373 Y47.142 E3.1038
G1 X-10.384 Y47.156 E3.1056
G1 X-12.104 Y49.253 E3.3734
G1 X-12.116 Y49.266 E3.3752
G1 X-12.823 Y49.973 E3.4740
G1 X-12.837 Y49.985 E3.4757
G1 X-14.933 Y51.705 E3.7436
G1 X-14.947 Y51.716 E3.7453
G1 X-15.779 Y52.271 E3.8441
G1 X-15.794 Y52.280 E3.8459
G1 X-18.185 Y53.559 E4.1138
G1 X-18.201 Y53.566 E4.1155
G1 X-19.125 Y53.949 E4.2143
G1 X-19.142 Y53.955 E4.2161
G1 X-21.737 Y54.742 E4.4839
G1 X-21.754 Y54.747 E4.4857
G1 X-22.735 Y54.942 E4.5845
G1 X-22.753 Y54.944 E4.5862
G1 X-25.451 Y55.210 E4.8541
G1 X-25.469 Y55.211 E4.8559
G1 X-26.469 Y55.211 E4.9547
G1 X-26.487 Y55.210 E4.9564
G1 X-29.186 Y54.944 E5.2243
G1 X-29.203 Y54.942 E5.2260
G1 X-30.184 Y54.747 E5.3248
G1 X-30.201 Y54.742 E5.3266
G1 X-32.796 Y53.955 E5.5945
G1 X-32.813 Y53.949 E5.5962
G1 X-33.737 Y53.566 E5.6950
G1 X-33.753 Y53.559 E5.6967
G1 X-36.144 Y52.280 E5.9646
G1 X-36.160 Y52.271 E5.9664
G1 X-36.991 Y51.716 E6.0652
G1 X-37.005 Y51.705 E6.0669
G1 X-39.102 Y49.985 E6.3348
G1 X-39.115 Y49.973 E6.3365
G1 X-39.822 Y49.266 E6.4353
G1 X-39.834 Y49.253 E6.4371
G1 X-41.554 Y47.156 E6.7050
G1 X-41.565 Y47.142 E6.7067
G1 X-42.120 Y46.311 E6.8055
G1 X-42.130 Y46.295 E6.8073
G1 X-43.408 Y43.904 E7.0751
G1 X-43.415 Y43.888 E7.0769
G1 X-43.798 Y42.964 E7.1757
G1 X-43.804 Y42.947 E7.1774
G1 X-44.591 Y40.352 E7.4453
G1 X-44.596 Y40.335 E7.4471
G1 X-44.791 Y39.354 E7.5459
G1 X-44.793 Y39.336 E7.5476
G1 X-45.059 Y36.638 E7.8155
G1 X-45.060 Y36.620 E7.8172
G1 X-45.060 Y35.620 E7.9160
G1 X-45.059 Y35.602 E7.9178
G1 X-44.793 Y32.904 E8.1856
G1 X-44.791 Y32.886 E8.1874
G1 X-44.596 Y31.905 E8.2862
G1 X-44.591 Y31.888 E8.2879
G1 X-43.804 Y29.293 E8.5558
G1 X-43.798 Y29.276 E8.5576
G1 X-43.415 Y28.352 E8.6564
G1 X-43.408 Y28.336 E8.6581
G1 X-42.130 Y25.945 E8.9260
G1 X-42.120 Y25.929 E8.9277
G1 X-41.565 Y25.098 E9.0265
G1 X-41.554 Y25.084 E9.0283
G1 X-41.371 Y24.860 E9.0568
G1 X-41.539 Y24.655 E9.0831
G1 X-41.550 Y24.641 E9.0848
G1 X-42.105 Y23.809 E9.1836
G1 X-42.115 Y23.794 E9.1854
G1 X-43.401 Y21.387 E9.4550
G1 X-43.409 Y21.371 E9.4567
G1 X-43.791 Y20.447 E9.5555
G1 X-43.797 Y20.430 E9.5573
G1 X-44.590 Y17.819 E9.8269
G1 X-44.594 Y17.801 E9.8286
G1 X-44.789 Y16.820 E9.9274
G1 X-44.792 Y16.803 E9.9292
G1 X-45.059 Y14.087 E10.1988
G1 X-45.060 Y14.069 E10.2005
G1 X-45.060 Y13.069 E10.2993
G1 X-45.059 Y13.051 E10.3011
G1 X-44.792 Y10.335 E10.5707
G1 X-44.789 Y10.318 E10.5724
G1 X-44.594 Y9.337 E10.6712
G1 X-44.590 Y9.320 E10.6730
G1 X-43.797 Y6.708 E10.9426
G1 X-43.791 Y6.691 E10.9443
G1 X-43.409 Y5.767 E11.0431
G1 X-43.401 Y5.751 E11.0448
G1 X-42.115 Y3.344 E11.3145
G1 X-42.105 Y3.329 E11.3162
G1 X-41.550 Y2.497 E11.4150
G1 X-41.539 Y2.483 E11.4167
G1 X-39.808 Y0.374 E11.6863
G1 X-39.796 Y0.360 E11.6881
G1 X-39.089 Y-0.347 E11.7869
G1 X-39.076 Y-0.359 E11.7886
G1 X-36.966 Y-2.090 E12.0582
G1 X-36.952 Y-2.101 E12.0600
G1 X-36.656 Y-2.298 E12.0951
G1 X-36.898 Y-2.661 E12.1382
G1 X-36.908 Y-2.676 E12.1399
G1 X-37.738 Y-4.227 E12.3137
G1 X-37.745 Y-4.243 E12.3154
G1 X-38.129 Y-5.169 E12.4145
G1 X-38.135 Y-5.186 E12.4163
G1 X-38.644 Y-6.863 E12.5894
G1 X-38.648 Y-6.880 E12.5912
G1 X-38.843 Y-7.857 E12.6895
G1 X-38.846 Y-7.874 E12.6912
G1 X-39.020 Y-9.626 E12.8652
G1 X-39.021 Y-9.644 E12.8669
G1 X-39.021 Y-10.649 E12.9662
G1 X-39.020 Y-10.666 E12.9679
G1 X-38.848 Y-12.417 E13.1417
G1 X-38.845 Y-12.435 E13.1435
G1 X-38.650 Y-13.416 E13.2423
G1 X-38.646 Y-13.433 E13.2440
G1 X-38.136 Y-15.114 E13.4176
G1 X-38.130 Y-15.131 E13.4193
G1 X-37.747 Y-16.055 E13.5181
G1 X-37.740 Y-16.071 E13.5199
G1 X-36.911 Y-17.621 E13.6935
G1 X-36.902 Y-17.636 E13.6952
G1 X-36.346 Y-18.468 E13.7940
G1 X-36.336 Y-18.482 E13.7958
G1 X-35.221 Y-19.840 E13.9693
G1 X-35.209 Y-19.853 E13.9711
G1 X-34.502 Y-20.560 E14.0699
G1 X-34.489 Y-20.572 E14.0716
G1 X-33.137 Y-21.682 E14.2444
G1 X-33.123 Y-21.692 E14.2461
G1 X-32.297 Y-22.245 E14.3443
G1 X-32.282 Y-22.254 E14.3460
G1 X-31.729 Y-22.550 E14.4080
G1 X-32.270 Y-22.840 E14.4686
G1 X-32.285 Y-22.849 E14.4704
G1 X-33.117 Y-23.404 E14.5692
G1 X-33.131 Y-23.415 E14.5709
G1 X-34.489 Y-24.530 E14.7445
G1 X-34.502 Y-24.542 E14.7462
G1 X-35.209 Y-25.249 E14.8451
G1 X-35.221 Y-25.262 E14.8468
G1 X-36.334 Y-26.617 E15.0200
G1 X-36.344 Y-26.632 E15.0217
G1 X-36.898 Y-27.461 E15.1203
G1 X-36.908 Y-27.476 E15.1220
G1 X-37.738 Y-29.027 E15.2958
G1 X-37.745 Y-29.043 E15.2975
G1 X-38.129 Y-29.969 E15.3966
G1 X-38.135 Y-29.986 E15.3984
G1 X-38.644 Y-31.663 E15.5715
G1 X-38.648 Y-31.680 E15.5733
G1 X-38.843 Y-32.657 E15.6716
G1 X-38.846 Y-32.674 E15.6733
G1 X-39.020 Y-34.426 E15.8473
G1 X-39.021 Y-34.444 E15.8490
G1 X-39.021 Y-35.449 E15.9483
G1 X-39.020 Y-35.466 E15.9500
G1 X-38.848 Y-37.217 E16.1238
G1 X-38.845 Y-37.235 E16.1256
G1 X-38.650 Y-38.216 E16.2244
G1 X-38.646 Y-38.233 E16.2261
G1 X-38.136 Y-39.914 E16.3997
G1 X-38.130 Y-39.931 E16.4014
G1 X-37.747 Y-40.855 E16.5002
G1 X-37.740 Y-40.871 E16.5020
G1 X-36.911 Y-42.421 E16.6755
G1 X-36.902 Y-42.436 E16.6773
G1 X-36.347 Y-43.268 E16.7761
G1 X-36.336 Y-43.282 E16.7778
G1 X-35.221 Y-44.640 E16.9514
G1 X-35.209 Y-44.653 E16.9532
G1 X-34.502 Y-45.360 E17.0520
G1 X-34.489 Y-45.372 E17.0537
G1 X-33.137 Y-46.482 E17.2265
G1 X-33.123 Y-46.492 E17.2282
G1 X-32.297 Y-47.045 E17.3264
G1 X-32.282 Y-47.054 E17.3281
G1 X-30.729 Y-47.886 E17.5022
G1 X-30.713 Y-47.894 E17.5039
G1 X-29.783 Y-48.280 E17.6034
G1 X-29.766 Y-48.286 E17.6051
G1 X-28.082 Y-48.797 E17.7790
G1 X-28.065 Y-48.801 E17.7808
G1 X-27.084 Y-48.996 E17.8796
G1 X-27.066 Y-48.999 E17.8813
G1 X-25.318 Y-49.171 E18.0549
G1 X-25.300 Y-49.172 E18.0566
G1 X-24.300 Y-49.172 E18.1554
G1 X-24.282 Y-49.171 E18.1572
G1 X-22.534 Y-48.999 E18.3307
G1 X-22.516 Y-48.996 E18.3325
G1 X-21.535 Y-48.801 E18.4313
G1 X-21.518 Y-48.797 E18.4330
G1 X-19.837 Y-48.287 E18.6066
G1 X-19.820 Y-48.281 E18.6083
G1 X-18.896 Y-47.898 E18.7072
G1 X-18.880 Y-47.890 E18.7089
G1 X-17.330 Y-47.062 E18.8825
G1 X-17.315 Y-47.053 E18.8842
G1 X-16.483 Y-46.497 E18.9830
G1 X-16.469 Y-46.487 E18.9848
G1 X-15.111 Y-45.372 E19.1583
G1 X-15.098 Y-45.360 E19.1601
G1 X-14.391 Y-44.653 E19.2589
G1 X-14.379 Y-44.640 E19.2606
G1 X-13.264 Y-43.282 E19.4342
G1 X-13.253 Y-43.267 E19.4360
G1 X-12.698 Y-42.436 E19.5348
G1 X-12.689 Y-42.421 E19.5365
G1 X-12.400 Y-41.881 E19.5970
G1 X-12.111 Y-42.421 E19.6575
G1 X-12.102 Y-42.436 E19.6593
G1 X-11.546 Y-43.268 E19.7581
G1 X-11.536 Y-43.282 E19.7598
G1 X-10.421 Y-44.640 E19.9334
G1 X-10.409 Y-44.653 E19.9351
G1 X-9.702 Y-45.360 E20.0339
G1 X-9.689 Y-45.372 E20.0357
G1 X-8.337 Y-46.482 E20.2085
G1 X-8.323 Y-46.492 E20.2102
G1 X-7.497 Y-47.045 E20.3084
G1 X-7.482 Y-47.054 E20.3101
G1 X-5.929 Y-47.886 E20.4841
G1 X-5.913 Y-47.894 E20.4859
G1 X-4.983 Y-48.280 E20.5853
G1 X-4.966 Y-48.286 E20.5871
G1 X-3.282 Y-48.797 E20.7610
G1 X-3.265 Y-48.801 E20.7627
G1 X-2.284 Y-48.996 E20.8615
G1 X-2.266 Y-48.999 E20.8633
G1 X-0.518 Y-49.171 E21.0368
G1 X-0.500 Y-49.172 E21.0386
G1 X0.500 Y-49.172 E21.1374
G1 X0.518 Y-49.171 E21.1391
G1 X2.266 Y-48.999 E21.3127
G1 X2.284 Y-48.996 E21.3145
G1 X3.265 Y-48.801 E21.4133
G1 X3.282 Y-48.797 E21.4150
G1 X4.963 Y-48.287 E21.5886
G1 X4.980 Y-48.281 E21.5903
G1 X5.904 Y-47.898 E21.6891
G1 X5.920 Y-47.890 E21.6909
G1 X7.470 Y-47.062 E21.8644
G1 X7.485 Y-47.053 E21.8662
G1 X8.317 Y-46.497 E21.9650
G1 X8.331 Y-46.487 E21.9667
G1 X9.689 Y-45.372 E22.1403
G1 X9.702 Y-45.360 E22.1420
G1 X10.409 Y-44.653 E22.2409
G1 X10.421 Y-44.640 E22.2426
G1 X11.536 Y-43.282 E22.4162
G1 X11.547 Y-43.267 E22.4179
G1 X12.102 Y-42.436 E22.5167
G1 X12.111 Y-42.421 E22.5185
G1 X12.400 Y-41.881 E22.5790
G1 X12.689 Y-42.421 E22.6395
G1 X12.698 Y-42.436 E22.6412
G1 X13.253 Y-43.267 E22.7400
G1 X13.264 Y-43.282 E22.7418
G1 X14.379 Y-44.640 E22.9153
G1 X14.391 Y-44.653 E22.9171
G1 X15.098 Y-45.360 E23.0159
G1 X15.111 Y-45.372 E23.0177
G1 X16.463 Y-46.482 E23.1904
G1 X16.477 Y-46.492 E23.1922
G1 X17.303 Y-47.045 E23.2903
G1 X17.318 Y-47.054 E23.2921
G1 X18.871 Y-47.886 E23.4661
G1 X18.887 Y-47.894 E23.4679
G1 X19.817 Y-48.280 E23.5673
G1 X19.834 Y-48.286 E23.5691
G1 X21.518 Y-48.797 E23.7429
G1 X21.535 Y-48.801 E23.7447
G1 X22.516 Y-48.996 E23.8435
G1 X22.534 Y-48.999 E23.8452
G1 X24.282 Y-49.171 E24.0188
G1 X24.300 Y-49.172 E24.0206
G1 X25.300 Y-49.172 E24.1194
G1 X25.318 Y-49.171 E24.1211
G1 X27.066 Y-48.999 E24.2947
G1 X27.084 Y-48.996 E24.2964
G1 X28.065 Y-48.801 E24.3952
G1 X28.082 Y-48.797 E24.3970
G1 X29.763 Y-48.287 E24.5705
G1 X29.780 Y-48.281 E24.5723
G1 X30.704 Y-47.898 E24.6711
G1 X30.720 Y-47.890 E24.6728
G1 X32.270 Y-47.062 E24.8464
G1 X32.285 Y-47.053 E24.8482
G1 X33.117 Y-46.497 E24.9470
G1 X33.131 Y-46.487 E24.9487
G1 X34.489 Y-45.372 E25.1223
G1 X34.502 Y-45.360 E25.1240
G1 X35.209 Y-44.653 E25.2228
G1 X35.221 Y-44.640 E25.2246
G1 X36.336 Y-43.282 E25.3981
G1 X36.347 Y-43.268 E25.3999
G1 X36.902 Y-42.436 E25.4987
G1 X36.911 Y-42.421 E25.5004
G1 X37.740 Y-40.871 E25.6740
G1 X37.747 Y-40.855 E25.6758
G1 X38.130 Y-39.931 E25.7746
G1 X38.136 Y-39.914 E25.7763
G1 X38.644 Y-38.240 E25.9491
G1 X38.648 Y-38.223 E25.9509
G1 X38.843 Y-37.248 E26.0491
G1 X38.845 Y-37.231 E26.0508
G1 X39.020 Y-35.478 E26.2248
G1 X39.021 Y-35.460 E26.2266
G1 X39.021 Y-34.454 E26.3260
G1 X39.020 Y-34.436 E26.3277
G1 X38.850 Y-32.702 E26.4999
G1 X38.847 Y-32.684 E26.5016
G1 X38.656 Y-31.717 E26.5991
G1 X38.652 Y-31.700 E26.6008
G1 X38.143 Y-30.007 E26.7754
G1 X38.137 Y-29.990 E26.7772
G1 X37.750 Y-29.053 E26.8773
G1 X37.743 Y-29.037 E26.8791
G1 X36.911 Y-27.481 E27.0533
G1 X36.902 Y-27.466 E27.0551
G1 X36.347 Y-26.634 E27.1539
