; G-Code generated by Simplify3D(R) Version 3.1.1
; Dec 25, 2016 at 12:24:35 AM
; Settings Summary
;   processName,Process1
;   applyToModels,Spinner,FlatCap(6),ConcaveCap(2)(2)(2),FlatCap(3),FlatCap(5),FlatCap(2),FlatCap(4),FlatCap,ConcaveCap(2)(2),Spinner(2),FlatCap(7),FlatCap(2)(2),FlatCap(3)(2),FlatCap(4)(2),FlatCap(5)(2),FlatCap(6)(2),ConcaveCap(2)(2)(3),ConcaveCap(2)(2)(2)(2)
;   profileName,Rostock MAX v2 (modified)
;   profileVersion,2015-05-01 08:00:00
;   baseProfile,
;   printMaterial,Iron PLA
;   printQuality,Medium
;   printExtruders,
;   extruderName,Primary Extruder
;   extruderToolheadNumber,0
;   extruderDiameter,0.6
;   extruderAutoWidth,1
;   extruderWidth,0.72
;   extrusionMultiplier,1.1
;   extruderUseRetract,1
;   extruderRetractionDistance,2
;   extruderExtraRestartDistance,-0.2
;   extruderRetractionZLift,0
;   extruderRetractionSpeed,1800
;   extruderUseCoasting,1
;   extruderCoastingDistance,0.5
;   extruderUseWipe,0
;   extruderWipeDistance,5
;   primaryExtruder,0
;   layerHeight,0.3
;   topSolidLayers,3
;   bottomSolidLayers,3
;   perimeterOutlines,3
;   printPerimetersInsideOut,1
;   startPointOption,2
;   startPointOriginX,0
;   startPointOriginY,0
;   startPointOriginZ,300
;   sequentialIslands,0
;   spiralVaseMode,0
;   firstLayerHeightPercentage,25
;   firstLayerWidthPercentage,100
;   firstLayerUnderspeed,0.4
;   useRaft,0
;   raftExtruder,0
;   raftLayers,3
;   raftOffset,15
;   raftSeparationDistance,0.14
;   raftInfill,85
;   disableRaftBaseLayers,0
;   useSkirt,1
;   skirtExtruder,0
;   skirtLayers,1
;   skirtOutlines,1
;   skirtOffset,10
;   usePrimePillar,0
;   primePillarExtruder,999
;   primePillarWidth,12
;   primePillarLocation,7
;   primePillarSpeedMultiplier,1
;   useOozeShield,0
;   oozeShieldExtruder,999
;   oozeShieldOffset,2
;   oozeShieldOutlines,1
;   oozeShieldSidewallShape,1
;   oozeShieldSidewallAngle,30
;   oozeShieldSpeedMultiplier,1
;   infillExtruder,0
;   internalInfillPattern,Rectilinear
;   externalInfillPattern,Rectilinear
;   infillPercentage,85
;   outlineOverlapPercentage,40
;   infillExtrusionWidthPercentage,100
;   minInfillLength,3
;   infillLayerInterval,1
;   infillAngles,45,-45
;   overlapInfillAngles,0
;   generateSupport,1
;   supportExtruder,0
;   supportInfillPercentage,40
;   supportExtraInflation,0
;   denseSupportLayers,0
;   denseSupportInfillPercentage,70
;   supportLayerInterval,1
;   supportHorizontalPartOffset,0.5
;   supportUpperSeparationLayers,1
;   supportLowerSeparationLayers,1
;   supportType,0
;   supportGridSpacing,3
;   maxOverhangAngle,70
;   supportAngles,0
;   temperatureName,Primary Extruder,Heated Bed
;   temperatureNumber,0,1
;   temperatureSetpointCount,1,1
;   temperatureSetpointLayers,1,1
;   temperatureSetpointTemperatures,225,60
;   temperatureStabilizeAtStartup,1,1
;   temperatureHeatedBed,0,1
;   temperatureRelayBetweenLayers,0,0
;   temperatureRelayBetweenLoops,0,0
;   fanLayers,1,2
;   fanSpeeds,0,80
;   blipFanToFullPower,1
;   adjustSpeedForCooling,1
;   minSpeedLayerTime,5
;   minCoolingSpeedSlowdown,80
;   increaseFanForCooling,0
;   minFanLayerTime,60
;   maxCoolingFanSpeed,100
;   increaseFanForBridging,0
;   bridgingFanSpeed,100
;   use5D,1
;   relativeEdistances,0
;   allowEaxisZeroing,1
;   independentExtruderAxes,0
;   includeM10123,0
;   stickySupport,1
;   applyToolheadOffsets,0
;   gcodeXoffset,0
;   gcodeYoffset,0
;   gcodeZoffset,0
;   overrideMachineDefinition,1
;   machineTypeOverride,1
;   strokeXoverride,197
;   strokeYoverride,197
;   strokeZoverride,375
;   originOffsetXoverride,98.5
;   originOffsetYoverride,98.5
;   originOffsetZoverride,0
;   homeXdirOverride,0
;   homeYdirOverride,0
;   homeZdirOverride,1
;   flipXoverride,1
;   flipYoverride,-1
;   flipZoverride,1
;   toolheadOffsets,0,0|0,0|0,0|0,0|0,0|0,0
;   overrideFirmwareConfiguration,1
;   firmwareTypeOverride,RepRap (Marlin/Repetier/Sprinter)
;   GPXconfigOverride,r2
;   baudRateOverride,115200
;   overridePrinterModels,1
;   printerModelsOverride
;   startingGcode,G28 ; home all axes
;   layerChangeGcode,
;   retractionGcode,
;   toolChangeGcode,
;   endingGcode,M104 S0 ; turn off extruder,M140 S0 ; turn off bed,G28 ; home axes,M84 ; disable motors
;   exportFileFormat,gcode
;   celebration,0
;   celebrationSong,Random Song
;   postProcessing,
;   defaultSpeed,1000
;   outlineUnderspeed,0.5
;   solidInfillUnderspeed,0.8
;   supportUnderspeed,0.8
;   rapidXYspeed,9000
;   rapidZspeed,1200
;   minBridgingArea,50
;   bridgingExtraInflation,0
;   bridgingExtrusionMultiplier,0.8
;   bridgingSpeedMultiplier,1.25
;   filamentDiameter,1.75
;   filamentPricePerKg,22
;   filamentDensity,1.25
;   useMinPrintHeight,0
;   minPrintHeight,0.05
;   useMaxPrintHeight,0
;   maxPrintHeight,0
;   useDiaphragm,0
;   diaphragmLayerInterval,20
;   robustSlicing,1
;   mergeAllIntoSolid,0
;   onlyRetractWhenCrossingOutline,0
;   retractBetweenLayers,0
;   useRetractionMinTravel,0
;   retractionMinTravel,3
;   retractWhileWiping,1
;   onlyWipeOutlines,1
;   avoidCrossingOutline,1
;   maxMovementDetourFactor,1.5
;   toolChangeRetractionDistance,12
;   toolChangeExtraRestartDistance,-0.5
;   toolChangeRetractionSpeed,600
;   allowThinWallGapFill,0
;   thinWallAllowedOverlapPercentage,10
;   horizontalSizeCompensation,0
G90
M82
M106 S0
M140 S60
M190 S60
M104 S225 T0
M109 S225 T0
G28 ; home all axes
G92 E0
G1 E-2.0000 F1800
G1 Z0.075 F1200
; layer 1, Z = 0.075
T0
; tool H0.300 W0.720
; skirt
G1 X-35.332 Y10.378 F9000
G1 E-0.2000 F540
G92 E0
G1 X-35.327 Y10.369 E0.0010 F400
G1 X-35.050 Y9.889 E0.0557
G1 X-35.494 Y9.801 E0.1004
G1 X-35.511 Y9.797 E0.1022
G1 X-37.193 Y9.287 E0.2758
G1 X-37.209 Y9.281 E0.2775
G1 X-38.134 Y8.898 E0.3763
G1 X-38.150 Y8.890 E0.3781
G1 X-39.699 Y8.062 E0.5516
G1 X-39.714 Y8.053 E0.5534
G1 X-40.546 Y7.497 E0.6522
G1 X-40.560 Y7.487 E0.6539
G1 X-41.918 Y6.372 E0.8275
G1 X-41.932 Y6.360 E0.8292
G1 X-42.639 Y5.653 E0.9280
G1 X-42.651 Y5.640 E0.9298
G1 X-43.763 Y4.284 E1.1030
G1 X-43.774 Y4.270 E1.1047
G1 X-44.328 Y3.441 E1.2033
G1 X-44.337 Y3.426 E1.2050
G1 X-45.167 Y1.875 E1.3788
G1 X-45.175 Y1.859 E1.3805
G1 X-45.559 Y0.932 E1.4796
G1 X-45.565 Y0.916 E1.4814
G1 X-46.074 Y-0.762 E1.6545
G1 X-46.078 Y-0.779 E1.6563
G1 X-46.273 Y-1.755 E1.7546
G1 X-46.275 Y-1.773 E1.7563
G1 X-46.449 Y-3.524 E1.9303
G1 X-46.450 Y-3.542 E1.9320
G1 X-46.451 Y-4.547 E2.0313
G1 X-46.450 Y-4.565 E2.0330
G1 X-46.277 Y-6.316 E2.2068
G1 X-46.275 Y-6.333 E2.2086
G1 X-46.080 Y-7.314 E2.3074
G1 X-46.075 Y-7.331 E2.3091
G1 X-45.565 Y-9.013 E2.4827
G1 X-45.559 Y-9.029 E2.4844
G1 X-45.177 Y-9.954 E2.5832
G1 X-45.169 Y-9.969 E2.5850
G1 X-44.341 Y-11.519 E2.7586
G1 X-44.332 Y-11.534 E2.7603
G1 X-43.776 Y-12.366 E2.8591
G1 X-43.765 Y-12.380 E2.8608
G1 X-42.694 Y-13.686 E3.0277
G1 X-42.734 Y-13.718 E3.0328
G1 X-42.747 Y-13.730 E3.0345
G1 X-43.454 Y-14.437 E3.1333
G1 X-43.466 Y-14.450 E3.1351
G1 X-45.197 Y-16.560 E3.4047
G1 X-45.208 Y-16.574 E3.4064
G1 X-45.763 Y-17.406 E3.5052
G1 X-45.773 Y-17.421 E3.5070
G1 X-47.059 Y-19.828 E3.7766
G1 X-47.067 Y-19.844 E3.7783
G1 X-47.449 Y-20.768 E3.8771
G1 X-47.455 Y-20.785 E3.8789
G1 X-48.248 Y-23.397 E4.1485
G1 X-48.252 Y-23.414 E4.1502
G1 X-48.447 Y-24.395 E4.2490
G1 X-48.450 Y-24.412 E4.2507
G1 X-48.717 Y-27.128 E4.5203
G1 X-48.718 Y-27.146 E4.5221
G1 X-48.718 Y-28.146 E4.6209
G1 X-48.717 Y-28.164 E4.6226
G1 X-48.450 Y-30.880 E4.8922
G1 X-48.447 Y-30.897 E4.8940
G1 X-48.252 Y-31.878 E4.9928
G1 X-48.248 Y-31.896 E4.9945
G1 X-47.455 Y-34.507 E5.2641
G1 X-47.449 Y-34.524 E5.2659
G1 X-47.067 Y-35.448 E5.3647
G1 X-47.059 Y-35.464 E5.3664
G1 X-45.773 Y-37.871 E5.6360
G1 X-45.763 Y-37.886 E5.6378
G1 X-45.643 Y-38.066 E5.6592
G1 X-45.659 Y-38.082 E5.6615
G1 X-45.666 Y-38.089 E5.6624
G1 X-46.962 Y-39.515 E5.8527
G1 X-46.969 Y-39.522 E5.8537
G1 X-47.321 Y-39.955 E5.9089
G1 X-47.327 Y-39.963 E5.9098
G1 X-48.459 Y-41.522 E6.1001
G1 X-48.465 Y-41.530 E6.1011
G1 X-48.768 Y-41.999 E6.1563
G1 X-48.773 Y-42.007 E6.1573
G1 X-49.728 Y-43.680 E6.3475
G1 X-49.733 Y-43.689 E6.3485
G1 X-49.983 Y-44.189 E6.4037
G1 X-49.987 Y-44.198 E6.4047
G1 X-50.753 Y-45.965 E6.5950
G1 X-50.756 Y-45.974 E6.5959
G1 X-50.950 Y-46.498 E6.6511
G1 X-50.953 Y-46.507 E6.6521
G1 X-51.521 Y-48.348 E6.8424
G1 X-51.524 Y-48.358 E6.8433
G1 X-51.659 Y-48.900 E6.8985
G1 X-51.661 Y-48.909 E6.8995
G1 X-52.024 Y-50.801 E7.0898
G1 X-52.025 Y-50.811 E7.0908
G1 X-52.100 Y-51.364 E7.1459
G1 X-52.101 Y-51.374 E7.1469
G1 X-52.255 Y-53.294 E7.3372
G1 X-52.255 Y-53.304 E7.3382
G1 X-52.269 Y-53.863 E7.3933
G1 X-52.269 Y-53.873 E7.3943
G1 X-52.212 Y-55.798 E7.5846
G1 X-52.211 Y-55.808 E7.5856
G1 X-52.164 Y-56.364 E7.6408
G1 X-52.163 Y-56.374 E7.6417
G1 X-51.895 Y-58.282 E7.8320
G1 X-51.893 Y-58.291 E7.8330
G1 X-51.785 Y-58.840 E7.8882
G1 X-51.783 Y-58.849 E7.8891
G1 X-51.307 Y-60.716 E8.0794
G1 X-51.305 Y-60.725 E8.0804
G1 X-51.137 Y-61.258 E8.1356
G1 X-51.134 Y-61.268 E8.1366
G1 X-50.457 Y-63.071 E8.3268
G1 X-50.454 Y-63.080 E8.3278
G1 X-50.229 Y-63.592 E8.3830
G1 X-50.225 Y-63.601 E8.3840
G1 X-49.355 Y-65.319 E8.5743
G1 X-49.350 Y-65.328 E8.5752
G1 X-49.071 Y-65.812 E8.6304
G1 X-49.065 Y-65.820 E8.6314
G1 X-48.012 Y-67.433 E8.8217
G1 X-48.007 Y-67.441 E8.8226
G1 X-47.676 Y-67.891 E8.8778
G1 X-47.670 Y-67.899 E8.8788
G1 X-46.447 Y-69.387 E9.0691
G1 X-46.440 Y-69.394 E9.0701
G1 X-46.062 Y-69.806 E9.1252
G1 X-46.055 Y-69.813 E9.1262
G1 X-44.676 Y-71.158 E9.3165
G1 X-44.669 Y-71.165 E9.3175
G1 X-44.248 Y-71.532 E9.3726
G1 X-44.241 Y-71.538 E9.3736
G1 X-42.723 Y-72.724 E9.5639
G1 X-42.715 Y-72.730 E9.5649
G1 X-42.257 Y-73.049 E9.6201
G1 X-42.248 Y-73.055 E9.6210
G1 X-40.610 Y-74.067 E9.8113
G1 X-40.601 Y-74.072 E9.8123
G1 X-40.111 Y-74.340 E9.8675
G1 X-40.102 Y-74.344 E9.8685
G1 X-38.362 Y-75.171 E10.0587
G1 X-38.353 Y-75.175 E10.0597
G1 X-37.836 Y-75.387 E10.1149
G1 X-37.827 Y-75.390 E10.1159
G1 X-36.007 Y-76.022 E10.3061
G1 X-35.998 Y-76.025 E10.3071
G1 X-35.461 Y-76.179 E10.3623
G1 X-35.451 Y-76.182 E10.3633
G1 X-33.573 Y-76.610 E10.5536
G1 X-33.564 Y-76.612 E10.5545
G1 X-33.013 Y-76.706 E10.6097
G1 X-33.003 Y-76.708 E10.6107
G1 X-31.090 Y-76.928 E10.8010
G1 X-31.080 Y-76.929 E10.8020
G1 X-30.522 Y-76.962 E10.8571
G1 X-30.512 Y-76.963 E10.8581
G1 X-28.586 Y-76.972 E11.0484
G1 X-28.576 Y-76.972 E11.0494
G1 X-28.018 Y-76.944 E11.1045
G1 X-28.008 Y-76.944 E11.1055
G1 X-26.093 Y-76.742 E11.2958
G1 X-26.083 Y-76.741 E11.2968
G1 X-25.531 Y-76.652 E11.3520
G1 X-25.522 Y-76.650 E11.3529
G1 X-23.667 Y-76.246 E11.5404
G1 X-22.919 Y-77.646 E11.6972
G1 X-22.910 Y-77.661 E11.6990
G1 X-22.354 Y-78.493 E11.7978
G1 X-22.344 Y-78.507 E11.7995
G1 X-20.612 Y-80.617 E12.0691
G1 X-20.600 Y-80.630 E12.0709
G1 X-19.893 Y-81.337 E12.1697
G1 X-19.880 Y-81.349 E12.1714
G1 X-17.770 Y-83.081 E12.4410
G1 X-17.756 Y-83.091 E12.4428
G1 X-16.924 Y-83.647 E12.5416
G1 X-16.909 Y-83.656 E12.5433
G1 X-14.502 Y-84.942 E12.8129
G1 X-14.486 Y-84.950 E12.8147
G1 X-13.562 Y-85.333 E12.9134
G1 X-13.546 Y-85.339 E12.9152
G1 X-10.934 Y-86.131 E13.1848
G1 X-10.917 Y-86.135 E13.1865
G1 X-9.936 Y-86.330 E13.2854
G1 X-9.918 Y-86.333 E13.2871
G1 X-7.202 Y-86.600 E13.5567
G1 X-7.184 Y-86.601 E13.5585
G1 X-6.184 Y-86.601 E13.6572
G1 X-6.167 Y-86.600 E13.6590
G1 X-3.451 Y-86.333 E13.9286
G1 X-3.433 Y-86.330 E13.9303
G1 X-2.452 Y-86.135 E14.0292
G1 X-2.435 Y-86.131 E14.0309
G1 X-2.393 Y-86.118 E14.0352
G1 X-2.080 Y-86.874 E14.1160
G1 X-2.073 Y-86.890 E14.1177
G1 X-1.245 Y-88.439 E14.2913
G1 X-1.235 Y-88.455 E14.2930
G1 X-0.680 Y-89.286 E14.3918
G1 X-0.669 Y-89.301 E14.3936
G1 X0.446 Y-90.659 E14.5672
G1 X0.457 Y-90.672 E14.5689
G1 X1.165 Y-91.379 E14.6677
G1 X1.178 Y-91.391 E14.6695
G1 X2.530 Y-92.501 E14.8422
G1 X2.544 Y-92.511 E14.8440
G1 X3.370 Y-93.064 E14.9422
G1 X3.385 Y-93.073 E14.9439
G1 X4.938 Y-93.905 E15.1179
G1 X4.954 Y-93.913 E15.1197
G1 X5.884 Y-94.299 E15.2191
G1 X5.900 Y-94.305 E15.2209
G1 X7.585 Y-94.816 E15.3947
G1 X7.602 Y-94.820 E15.3965
G1 X8.583 Y-95.015 E15.4953
G1 X8.600 Y-95.018 E15.4970
G1 X10.349 Y-95.190 E15.6706
G1 X10.367 Y-95.191 E15.6724
G1 X11.367 Y-95.191 E15.7712
G1 X11.384 Y-95.190 E15.7729
G1 X13.133 Y-95.018 E15.9465
G1 X13.151 Y-95.015 E15.9482
G1 X14.132 Y-94.820 E16.0470
G1 X14.149 Y-94.816 E16.0488
G1 X15.830 Y-94.306 E16.2223
G1 X15.847 Y-94.300 E16.2241
G1 X16.771 Y-93.917 E16.3229
G1 X16.787 Y-93.909 E16.3246
G1 X18.337 Y-93.081 E16.4982
G1 X18.352 Y-93.072 E16.5000
G1 X19.183 Y-92.516 E16.5988
G1 X19.198 Y-92.506 E16.6005
G1 X20.556 Y-91.391 E16.7741
G1 X20.569 Y-91.379 E16.7758
G1 X21.276 Y-90.672 E16.8746
G1 X21.288 Y-90.659 E16.8764
G1 X22.403 Y-89.300 E17.0500
G1 X22.413 Y-89.286 E17.0517
G1 X22.969 Y-88.455 E17.1505
G1 X22.978 Y-88.440 E17.1522
G1 X23.806 Y-86.890 E17.3258
G1 X23.814 Y-86.874 E17.3276
G1 X24.197 Y-85.950 E17.4264
G1 X24.203 Y-85.933 E17.4281
G1 X24.710 Y-84.259 E17.6009
G1 X24.715 Y-84.242 E17.6027
G1 X24.909 Y-83.267 E17.7009
G1 X24.912 Y-83.250 E17.7026
G1 X25.087 Y-81.497 E17.8766
G1 X25.087 Y-81.479 E17.8784
G1 X25.088 Y-80.473 E17.9778
G1 X25.087 Y-80.455 E17.9795
G1 X24.916 Y-78.721 E18.1517
G1 X24.914 Y-78.703 E18.1534
G1 X24.723 Y-77.735 E18.2509
G1 X24.718 Y-77.718 E18.2526
G1 X24.210 Y-76.026 E18.4272
G1 X24.204 Y-76.009 E18.4290
G1 X23.954 Y-75.403 E18.4937
G1 X23.989 Y-75.390 E18.4975
G1 X23.999 Y-75.387 E18.4984
G1 X24.515 Y-75.175 E18.5536
G1 X24.525 Y-75.171 E18.5546
G1 X26.264 Y-74.344 E18.7449
G1 X26.273 Y-74.340 E18.7458
G1 X26.764 Y-74.072 E18.8010
G1 X26.772 Y-74.067 E18.8020
G1 X28.411 Y-73.055 E18.9923
G1 X28.419 Y-73.049 E18.9933
G1 X28.877 Y-72.730 E19.0484
G1 X28.885 Y-72.724 E19.0494
G1 X30.403 Y-71.538 E19.2397
G1 X30.411 Y-71.532 E19.2407
G1 X30.832 Y-71.165 E19.2958
G1 X30.839 Y-71.158 E19.2968
G1 X32.218 Y-69.813 E19.4871
G1 X32.225 Y-69.806 E19.4881
G1 X32.603 Y-69.394 E19.5433
G1 X32.609 Y-69.387 E19.5442
G1 X33.832 Y-67.899 E19.7345
G1 X33.839 Y-67.891 E19.7355
G1 X34.169 Y-67.441 E19.7907
G1 X34.175 Y-67.433 E19.7916
G1 X35.228 Y-65.820 E19.9819
G1 X35.233 Y-65.812 E19.9829
G1 X35.512 Y-65.328 E20.0381
G1 X35.517 Y-65.319 E20.0391
G1 X36.387 Y-63.601 E20.2294
G1 X36.391 Y-63.592 E20.2303
G1 X36.616 Y-63.080 E20.2855
G1 X36.620 Y-63.071 E20.2865
G1 X37.297 Y-61.268 E20.4768
G1 X37.300 Y-61.258 E20.4777
G1 X37.467 Y-60.725 E20.5329
G1 X37.470 Y-60.716 E20.5339
G1 X37.945 Y-58.849 E20.7242
G1 X37.947 Y-58.840 E20.7251
G1 X38.055 Y-58.292 E20.7803
G1 X38.057 Y-58.282 E20.7813
G1 X38.325 Y-56.374 E20.9716
G1 X38.326 Y-56.364 E20.9726
G1 X38.373 Y-55.808 E21.0277
G1 X38.374 Y-55.798 E21.0287
G1 X38.432 Y-53.873 E21.2190
G1 X38.432 Y-53.863 E21.2200
G1 X38.418 Y-53.304 E21.2752
G1 X38.417 Y-53.294 E21.2761
G1 X38.264 Y-51.374 E21.4664
G1 X38.263 Y-51.364 E21.4674
G1 X38.188 Y-50.811 E21.5226
G1 X38.186 Y-50.801 E21.5235
G1 X37.823 Y-48.909 E21.7138
G1 X37.821 Y-48.900 E21.7148
G1 X37.686 Y-48.358 E21.7700
G1 X37.683 Y-48.348 E21.7710
G1 X37.116 Y-46.507 E21.9612
G1 X37.112 Y-46.498 E21.9622
G1 X36.919 Y-45.974 E22.0174
G1 X36.915 Y-45.965 E22.0184
G1 X36.149 Y-44.198 E22.2087
G1 X36.145 Y-44.189 E22.2096
G1 X35.895 Y-43.689 E22.2648
G1 X35.890 Y-43.680 E22.2658
G1 X34.936 Y-42.007 E22.4561
G1 X34.930 Y-41.999 E22.4570
G1 X34.627 Y-41.530 E22.5122
G1 X34.622 Y-41.522 E22.5132
G1 X33.490 Y-39.963 E22.7035
G1 X33.484 Y-39.955 E22.7045
G1 X33.131 Y-39.522 E22.7596
G1 X33.125 Y-39.515 E22.7606
G1 X32.488 Y-38.815 E22.8541
G1 X32.501 Y-38.799 E22.8561
G1 X32.511 Y-38.785 E22.8578
G1 X33.067 Y-37.953 E22.9566
G1 X33.076 Y-37.938 E22.9584
G1 X34.363 Y-35.531 E23.2280
G1 X34.370 Y-35.515 E23.2297
G1 X34.753 Y-34.591 E23.3285
G1 X34.759 Y-34.574 E23.3303
G1 X35.551 Y-31.963 E23.5999
G1 X35.555 Y-31.945 E23.6016
G1 X35.751 Y-30.964 E23.7004
G1 X35.753 Y-30.947 E23.7022
G1 X36.021 Y-28.231 E23.9718
G1 X36.022 Y-28.213 E23.9735
G1 X36.022 Y-27.213 E24.0723
G1 X36.021 Y-27.195 E24.0741
G1 X35.753 Y-24.479 E24.3437
G1 X35.751 Y-24.462 E24.3454
G1 X35.555 Y-23.481 E24.4442
G1 X35.551 Y-23.464 E24.4460
G1 X34.759 Y-20.852 E24.7156
G1 X34.753 Y-20.835 E24.7173
G1 X34.370 Y-19.911 E24.8161
G1 X34.363 Y-19.895 E24.8178
