; G-Code generated by Simplify3D(R) Version 3.1.1
; Dec 25, 2016 at 5:51:14 PM
; Settings Summary
;   processName,Process1
;   applyToModels,Spinner,ConcaveCap(2)(2),FlatCap(5),FlatCap(2),FlatCap(4),FlatCap(3),FlatCap(6),FlatCap,ConcaveCap(2)(2)(2)
;   profileName,Rostock MAX v2 (modified)
;   profileVersion,2015-05-01 08:00:00
;   baseProfile,
;   printMaterial,Iron PLA
;   printQuality,Medium
;   printExtruders,
;   extruderName,Primary Extruder
;   extruderToolheadNumber,0
;   extruderDiameter,0.6
;   extruderAutoWidth,1
;   extruderWidth,0.72
;   extrusionMultiplier,1.1
;   extruderUseRetract,1
;   extruderRetractionDistance,2
;   extruderExtraRestartDistance,-0.2
;   extruderRetractionZLift,0
;   extruderRetractionSpeed,1800
;   extruderUseCoasting,1
;   extruderCoastingDistance,0.5
;   extruderUseWipe,0
;   extruderWipeDistance,5
;   primaryExtruder,0
;   layerHeight,0.3
;   topSolidLayers,3
;   bottomSolidLayers,3
;   perimeterOutlines,3
;   printPerimetersInsideOut,1
;   startPointOption,2
;   startPointOriginX,0
;   startPointOriginY,0
;   startPointOriginZ,300
;   sequentialIslands,0
;   spiralVaseMode,0
;   firstLayerHeightPercentage,25
;   firstLayerWidthPercentage,100
;   firstLayerUnderspeed,0.4
;   useRaft,0
;   raftExtruder,0
;   raftLayers,3
;   raftOffset,15
;   raftSeparationDistance,0.14
;   raftInfill,85
;   disableRaftBaseLayers,0
;   useSkirt,1
;   skirtExtruder,0
;   skirtLayers,1
;   skirtOutlines,1
;   skirtOffset,10
;   usePrimePillar,0
;   primePillarExtruder,999
;   primePillarWidth,12
;   primePillarLocation,7
;   primePillarSpeedMultiplier,1
;   useOozeShield,0
;   oozeShieldExtruder,999
;   oozeShieldOffset,2
;   oozeShieldOutlines,1
;   oozeShieldSidewallShape,1
;   oozeShieldSidewallAngle,30
;   oozeShieldSpeedMultiplier,1
;   infillExtruder,0
;   internalInfillPattern,Rectilinear
;   externalInfillPattern,Rectilinear
;   infillPercentage,85
;   outlineOverlapPercentage,40
;   infillExtrusionWidthPercentage,100
;   minInfillLength,3
;   infillLayerInterval,1
;   infillAngles,45,-45
;   overlapInfillAngles,0
;   generateSupport,1
;   supportExtruder,0
;   supportInfillPercentage,40
;   supportExtraInflation,0
;   denseSupportLayers,0
;   denseSupportInfillPercentage,70
;   supportLayerInterval,1
;   supportHorizontalPartOffset,0.5
;   supportUpperSeparationLayers,1
;   supportLowerSeparationLayers,1
;   supportType,0
;   supportGridSpacing,3
;   maxOverhangAngle,70
;   supportAngles,0
;   temperatureName,Primary Extruder,Heated Bed
;   temperatureNumber,0,1
;   temperatureSetpointCount,1,1
;   temperatureSetpointLayers,1,1
;   temperatureSetpointTemperatures,205,60
;   temperatureStabilizeAtStartup,1,1
;   temperatureHeatedBed,0,1
;   temperatureRelayBetweenLayers,0,0
;   temperatureRelayBetweenLoops,0,0
;   fanLayers,1,2
;   fanSpeeds,0,80
;   blipFanToFullPower,1
;   adjustSpeedForCooling,1
;   minSpeedLayerTime,5
;   minCoolingSpeedSlowdown,80
;   increaseFanForCooling,0
;   minFanLayerTime,60
;   maxCoolingFanSpeed,100
;   increaseFanForBridging,0
;   bridgingFanSpeed,100
;   use5D,1
;   relativeEdistances,0
;   allowEaxisZeroing,1
;   independentExtruderAxes,0
;   includeM10123,0
;   stickySupport,1
;   applyToolheadOffsets,0
;   gcodeXoffset,0
;   gcodeYoffset,0
;   gcodeZoffset,0
;   overrideMachineDefinition,1
;   machineTypeOverride,1
;   strokeXoverride,197
;   strokeYoverride,197
;   strokeZoverride,375
;   originOffsetXoverride,98.5
;   originOffsetYoverride,98.5
;   originOffsetZoverride,0
;   homeXdirOverride,0
;   homeYdirOverride,0
;   homeZdirOverride,1
;   flipXoverride,1
;   flipYoverride,-1
;   flipZoverride,1
;   toolheadOffsets,0,0|0,0|0,0|0,0|0,0|0,0
;   overrideFirmwareConfiguration,1
;   firmwareTypeOverride,RepRap (Marlin/Repetier/Sprinter)
;   GPXconfigOverride,r2
;   baudRateOverride,115200
;   overridePrinterModels,1
;   printerModelsOverride
;   startingGcode,G28 ; home all axes
;   layerChangeGcode,
;   retractionGcode,
;   toolChangeGcode,
;   endingGcode,M104 S0 ; turn off extruder,M140 S0 ; turn off bed,G28 ; home axes,M84 ; disable motors
;   exportFileFormat,gcode
;   celebration,0
;   celebrationSong,Random Song
;   postProcessing,
;   defaultSpeed,1000
;   outlineUnderspeed,0.5
;   solidInfillUnderspeed,0.8
;   supportUnderspeed,0.8
;   rapidXYspeed,9000
;   rapidZspeed,1200
;   minBridgingArea,50
;   bridgingExtraInflation,0
;   bridgingExtrusionMultiplier,0.8
;   bridgingSpeedMultiplier,1.25
;   filamentDiameter,1.75
;   filamentPricePerKg,22
;   filamentDensity,1.25
;   useMinPrintHeight,0
;   minPrintHeight,0.05
;   useMaxPrintHeight,0
;   maxPrintHeight,0
;   useDiaphragm,0
;   diaphragmLayerInterval,20
;   robustSlicing,1
;   mergeAllIntoSolid,0
;   onlyRetractWhenCrossingOutline,0
;   retractBetweenLayers,0
;   useRetractionMinTravel,0
;   retractionMinTravel,3
;   retractWhileWiping,1
;   onlyWipeOutlines,1
;   avoidCrossingOutline,1
;   maxMovementDetourFactor,1.5
;   toolChangeRetractionDistance,12
;   toolChangeExtraRestartDistance,-0.5
;   toolChangeRetractionSpeed,600
;   allowThinWallGapFill,0
;   thinWallAllowedOverlapPercentage,10
;   horizontalSizeCompensation,0
G90
M82
M106 S0
M140 S60
M190 S60
M104 S205 T0
M109 S205 T0
G28 ; home all axes
G92 E0
G1 E-2.0000 F1800
G1 Z0.075 F1200
; layer 1, Z = 0.075
T0
; tool H0.300 W0.720
; skirt
G1 X39.403 Y2.329 F9000
G1 E-0.2000 F540
G92 E0
G1 X39.942 Y3.135 E0.0957 F400
G1 X39.951 Y3.150 E0.0975
G1 X41.237 Y5.557 E0.3671
G1 X41.245 Y5.573 E0.3688
G1 X41.628 Y6.497 E0.4676
G1 X41.634 Y6.513 E0.4694
G1 X42.426 Y9.125 E0.7390
G1 X42.430 Y9.142 E0.7407
G1 X42.625 Y10.123 E0.8395
G1 X42.628 Y10.141 E0.8413
G1 X42.895 Y12.857 E1.1109
G1 X42.896 Y12.875 E1.1126
G1 X42.896 Y13.875 E1.2114
G1 X42.895 Y13.892 E1.2132
G1 X42.628 Y16.609 E1.4828
G1 X42.625 Y16.626 E1.4845
G1 X42.430 Y17.607 E1.5833
G1 X42.426 Y17.624 E1.5851
G1 X41.634 Y20.236 E1.8547
G1 X41.628 Y20.253 E1.8564
G1 X41.245 Y21.177 E1.9552
G1 X41.237 Y21.193 E1.9569
G1 X39.951 Y23.600 E2.2265
G1 X39.942 Y23.615 E2.2283
G1 X39.386 Y24.446 E2.3271
G1 X39.376 Y24.461 E2.3288
G1 X37.644 Y26.570 E2.5984
G1 X37.632 Y26.583 E2.6002
G1 X36.925 Y27.291 E2.6990
G1 X36.912 Y27.303 E2.7007
G1 X34.802 Y29.034 E2.9703
G1 X34.788 Y29.044 E2.9721
G1 X33.956 Y29.600 E3.0709
G1 X33.941 Y29.609 E3.0726
G1 X31.534 Y30.896 E3.3422
G1 X31.518 Y30.903 E3.3440
G1 X30.594 Y31.286 E3.4428
G1 X30.578 Y31.292 E3.4445
G1 X27.966 Y32.084 E3.7141
G1 X27.949 Y32.089 E3.7159
G1 X26.968 Y32.284 E3.8147
G1 X26.950 Y32.286 E3.8164
G1 X24.234 Y32.554 E4.0860
G1 X24.216 Y32.555 E4.0878
G1 X23.216 Y32.555 E4.1866
G1 X23.199 Y32.554 E4.1883
G1 X22.004 Y32.436 E4.3069
G1 X21.553 Y33.847 E4.4532
G1 X21.550 Y33.857 E4.4542
G1 X21.351 Y34.379 E4.5094
G1 X21.348 Y34.388 E4.5103
G1 X20.559 Y36.159 E4.7019
G1 X20.554 Y36.168 E4.7029
G1 X20.300 Y36.665 E4.7581
G1 X20.295 Y36.674 E4.7591
G1 X19.317 Y38.349 E4.9506
G1 X19.312 Y38.357 E4.9516
G1 X19.004 Y38.823 E5.0068
G1 X18.998 Y38.832 E5.0078
G1 X17.843 Y40.389 E5.1993
G1 X17.837 Y40.397 E5.2003
G1 X17.480 Y40.826 E5.2555
G1 X17.473 Y40.834 E5.2565
G1 X16.154 Y42.255 E5.4480
G1 X16.147 Y42.263 E5.4490
G1 X15.745 Y42.651 E5.5042
G1 X15.738 Y42.657 E5.5052
G1 X14.271 Y43.926 E5.6968
G1 X14.264 Y43.932 E5.6977
G1 X13.822 Y44.274 E5.7529
G1 X13.814 Y44.280 E5.7539
G1 X12.217 Y45.380 E5.9455
G1 X12.208 Y45.386 E5.9464
G1 X11.732 Y45.677 E6.0016
G1 X11.723 Y45.682 E6.0026
G1 X10.015 Y46.601 E6.1942
G1 X10.007 Y46.605 E6.1952
G1 X9.501 Y46.843 E6.2503
G1 X9.492 Y46.847 E6.2513
G1 X7.694 Y47.573 E6.4429
G1 X7.684 Y47.576 E6.4439
G1 X7.156 Y47.757 E6.4990
G1 X7.147 Y47.760 E6.5000
G1 X5.280 Y48.285 E6.6916
G1 X5.270 Y48.288 E6.6925
G1 X4.725 Y48.409 E6.7477
G1 X4.715 Y48.411 E6.7487
G1 X2.802 Y48.729 E6.9403
G1 X2.792 Y48.730 E6.9413
G1 X2.237 Y48.791 E6.9964
G1 X2.227 Y48.792 E6.9974
G1 X0.291 Y48.898 E7.1890
G1 X0.281 Y48.899 E7.1900
G1 X-0.278 Y48.899 E7.2451
G1 X-0.288 Y48.898 E7.2461
G1 X-2.224 Y48.792 E7.4377
G1 X-2.234 Y48.791 E7.4387
G1 X-2.789 Y48.730 E7.4938
G1 X-2.799 Y48.729 E7.4948
G1 X-4.712 Y48.411 E7.6864
G1 X-4.722 Y48.409 E7.6874
G1 X-5.267 Y48.288 E7.7426
G1 X-5.277 Y48.285 E7.7435
G1 X-7.144 Y47.760 E7.9351
G1 X-7.153 Y47.757 E7.9361
G1 X-7.681 Y47.576 E7.9913
G1 X-7.691 Y47.573 E7.9922
G1 X-9.489 Y46.847 E8.1838
G1 X-9.498 Y46.843 E8.1848
G1 X-10.004 Y46.605 E8.2400
G1 X-10.012 Y46.601 E8.2409
G1 X-11.720 Y45.682 E8.4325
G1 X-11.729 Y45.677 E8.4335
G1 X-12.205 Y45.386 E8.4887
G1 X-12.214 Y45.380 E8.4896
G1 X-13.399 Y44.563 E8.6318
G1 X-13.795 Y45.156 E8.7023
G1 X-13.806 Y45.170 E8.7040
G1 X-14.915 Y46.523 E8.8768
G1 X-14.927 Y46.536 E8.8786
G1 X-15.635 Y47.243 E8.9774
G1 X-15.648 Y47.255 E8.9791
G1 X-17.000 Y48.365 E9.1519
G1 X-17.014 Y48.375 E9.1537
G1 X-17.846 Y48.931 E9.2525
G1 X-17.861 Y48.940 E9.2542
G1 X-19.404 Y49.765 E9.4271
G1 X-19.420 Y49.772 E9.4288
G1 X-20.344 Y50.155 E9.5276
G1 X-20.361 Y50.161 E9.5294
G1 X-22.035 Y50.669 E9.7022
G1 X-22.052 Y50.673 E9.7039
G1 X-23.033 Y50.868 E9.8027
G1 X-23.050 Y50.871 E9.8045
G1 X-24.791 Y51.043 E9.9773
G1 X-24.809 Y51.043 E9.9790
G1 X-25.809 Y51.043 E10.0778
G1 X-25.827 Y51.043 E10.0796
G1 X-27.568 Y50.871 E10.2524
G1 X-27.586 Y50.868 E10.2541
G1 X-28.566 Y50.673 E10.3529
G1 X-28.584 Y50.669 E10.3547
G1 X-30.258 Y50.161 E10.5275
G1 X-30.274 Y50.155 E10.5292
G1 X-31.198 Y49.772 E10.6280
G1 X-31.214 Y49.765 E10.6298
G1 X-32.757 Y48.940 E10.8026
G1 X-32.772 Y48.931 E10.8043
G1 X-33.604 Y48.375 E10.9032
G1 X-33.618 Y48.365 E10.9049
G1 X-34.971 Y47.255 E11.0777
G1 X-34.984 Y47.243 E11.0795
G1 X-35.691 Y46.536 E11.1783
G1 X-35.703 Y46.523 E11.1800
G1 X-36.810 Y45.173 E11.3525
G1 X-36.821 Y45.159 E11.3542
G1 X-37.375 Y44.330 E11.4527
G1 X-37.384 Y44.315 E11.4545
G1 X-38.211 Y42.771 E11.6275
G1 X-38.218 Y42.755 E11.6292
G1 X-38.603 Y41.828 E11.7283
G1 X-38.609 Y41.811 E11.7301
G1 X-39.115 Y40.141 E11.9025
G1 X-39.119 Y40.124 E11.9042
G1 X-39.314 Y39.148 E12.0025
G1 X-39.317 Y39.131 E12.0043
G1 X-39.490 Y37.386 E12.1774
G1 X-39.491 Y37.369 E12.1792
G1 X-39.491 Y36.364 E12.2785
G1 X-39.491 Y36.346 E12.2802
G1 X-39.319 Y34.603 E12.4533
G1 X-39.316 Y34.585 E12.4550
G1 X-39.121 Y33.604 E12.5538
G1 X-39.117 Y33.587 E12.5556
G1 X-38.609 Y31.913 E12.7284
G1 X-38.603 Y31.896 E12.7301
G1 X-38.220 Y30.972 E12.8289
G1 X-38.213 Y30.956 E12.8307
G1 X-37.388 Y29.413 E13.0035
G1 X-37.379 Y29.398 E13.0052
G1 X-36.823 Y28.566 E13.1040
G1 X-36.813 Y28.552 E13.1058
G1 X-36.177 Y27.778 E13.2048
G1 X-36.721 Y27.332 E13.2742
G1 X-36.734 Y27.320 E13.2760
G1 X-37.441 Y26.613 E13.3748
G1 X-37.453 Y26.599 E13.3765
G1 X-39.184 Y24.490 E13.6461
G1 X-39.195 Y24.475 E13.6479
G1 X-39.751 Y23.644 E13.7467
G1 X-39.760 Y23.629 E13.7484
G1 X-41.046 Y21.222 E14.0180
G1 X-41.054 Y21.206 E14.0198
G1 X-41.437 Y20.282 E14.1186
G1 X-41.443 Y20.265 E14.1203
G1 X-42.235 Y17.653 E14.3899
G1 X-42.239 Y17.636 E14.3917
G1 X-42.434 Y16.655 E14.4905
G1 X-42.437 Y16.638 E14.4922
G1 X-42.704 Y13.922 E14.7618
G1 X-42.705 Y13.904 E14.7636
G1 X-42.705 Y12.904 E14.8624
G1 X-42.704 Y12.886 E14.8641
G1 X-42.437 Y10.170 E15.1337
G1 X-42.434 Y10.152 E15.1355
G1 X-42.239 Y9.172 E15.2343
G1 X-42.235 Y9.154 E15.2360
G1 X-41.443 Y6.543 E15.5056
G1 X-41.437 Y6.526 E15.5073
G1 X-41.054 Y5.602 E15.6062
G1 X-41.046 Y5.586 E15.6079
G1 X-39.760 Y3.179 E15.8775
G1 X-39.751 Y3.164 E15.8792
G1 X-39.281 Y2.461 E15.9628
G1 X-40.351 Y1.284 E16.1199
G1 X-40.357 Y1.276 E16.1209
G1 X-40.710 Y0.843 E16.1761
G1 X-40.716 Y0.835 E16.1770
G1 X-41.856 Y-0.734 E16.3686
G1 X-41.862 Y-0.742 E16.3696
G1 X-42.165 Y-1.211 E16.4248
G1 X-42.170 Y-1.219 E16.4257
G1 X-43.131 Y-2.904 E16.6173
G1 X-43.136 Y-2.913 E16.6183
G1 X-43.385 Y-3.412 E16.6735
G1 X-43.390 Y-3.421 E16.6744
G1 X-44.161 Y-5.201 E16.8660
G1 X-44.164 Y-5.210 E16.8670
G1 X-44.358 Y-5.734 E16.9222
G1 X-44.361 Y-5.743 E16.9231
G1 X-44.933 Y-7.596 E17.1147
G1 X-44.936 Y-7.606 E17.1157
G1 X-45.071 Y-8.148 E17.1709
G1 X-45.073 Y-8.157 E17.1719
G1 X-45.438 Y-10.062 E17.3634
G1 X-45.440 Y-10.072 E17.3644
G1 X-45.515 Y-10.625 E17.4196
G1 X-45.516 Y-10.635 E17.4206
G1 X-45.670 Y-12.568 E17.6121
G1 X-45.671 Y-12.578 E17.6131
G1 X-45.685 Y-13.137 E17.6683
G1 X-45.685 Y-13.146 E17.6693
G1 X-45.627 Y-15.085 E17.8609
G1 X-45.626 Y-15.095 E17.8618
G1 X-45.579 Y-15.651 E17.9170
G1 X-45.578 Y-15.661 E17.9180
G1 X-45.308 Y-17.582 E18.1096
G1 X-45.306 Y-17.591 E18.1105
G1 X-45.198 Y-18.139 E18.1657
G1 X-45.196 Y-18.149 E18.1667
G1 X-44.718 Y-20.029 E18.3583
G1 X-44.715 Y-20.038 E18.3592
G1 X-44.548 Y-20.571 E18.4144
G1 X-44.544 Y-20.580 E18.4154
G1 X-43.863 Y-22.396 E18.6070
G1 X-43.859 Y-22.405 E18.6080
G1 X-43.635 Y-22.917 E18.6631
G1 X-43.630 Y-22.925 E18.6641
G1 X-42.754 Y-24.656 E18.8557
G1 X-42.749 Y-24.664 E18.8566
G1 X-42.470 Y-25.148 E18.9118
G1 X-42.465 Y-25.157 E18.9128
G1 X-41.405 Y-26.780 E19.1044
G1 X-41.399 Y-26.789 E19.1054
G1 X-41.068 Y-27.239 E19.1605
G1 X-41.062 Y-27.247 E19.1615
G1 X-39.831 Y-28.745 E19.3531
G1 X-39.824 Y-28.752 E19.3541
G1 X-39.446 Y-29.163 E19.4092
G1 X-39.439 Y-29.170 E19.4102
G1 X-38.051 Y-30.525 E19.6018
G1 X-38.044 Y-30.531 E19.6028
G1 X-37.623 Y-30.899 E19.6579
G1 X-37.616 Y-30.905 E19.6589
G1 X-36.087 Y-32.099 E19.8505
G1 X-36.079 Y-32.105 E19.8515
G1 X-35.621 Y-32.424 E19.9067
G1 X-35.613 Y-32.430 E19.9076
G1 X-33.963 Y-33.449 E20.0992
G1 X-33.954 Y-33.454 E20.1002
G1 X-33.464 Y-33.721 E20.1554
G1 X-33.455 Y-33.726 E20.1563
G1 X-31.704 Y-34.558 E20.3479
G1 X-31.695 Y-34.562 E20.3489
G1 X-31.178 Y-34.774 E20.4041
G1 X-31.169 Y-34.778 E20.4050
G1 X-29.336 Y-35.414 E20.5966
G1 X-29.327 Y-35.417 E20.5976
G1 X-28.790 Y-35.571 E20.6528
G1 X-28.780 Y-35.573 E20.6537
G1 X-26.890 Y-36.005 E20.8453
G1 X-26.880 Y-36.007 E20.8463
G1 X-26.329 Y-36.101 E20.9015
G1 X-26.320 Y-36.102 E20.9024
G1 X-24.393 Y-36.324 E21.0940
G1 X-24.383 Y-36.325 E21.0950
G1 X-23.826 Y-36.359 E21.1502
G1 X-23.816 Y-36.359 E21.1512
G1 X-21.876 Y-36.369 E21.3427
G1 X-21.866 Y-36.368 E21.3437
G1 X-21.309 Y-36.340 E21.3989
G1 X-21.299 Y-36.340 E21.3999
G1 X-19.370 Y-36.137 E21.5914
G1 X-19.360 Y-36.136 E21.5924
G1 X-18.809 Y-36.047 E21.6476
G1 X-18.799 Y-36.045 E21.6486
G1 X-17.315 Y-35.722 E21.7986
G1 X-16.594 Y-37.070 E21.9496
G1 X-16.585 Y-37.085 E21.9514
G1 X-16.029 Y-37.917 E22.0502
G1 X-16.019 Y-37.931 E22.0519
G1 X-14.287 Y-40.041 E22.3215
G1 X-14.276 Y-40.054 E22.3233
G1 X-13.568 Y-40.761 E22.4221
G1 X-13.555 Y-40.773 E22.4238
G1 X-11.446 Y-42.505 E22.6934
G1 X-11.431 Y-42.515 E22.6952
G1 X-10.600 Y-43.071 E22.7940
G1 X-10.584 Y-43.080 E22.7957
G1 X-8.178 Y-44.367 E23.0653
G1 X-8.162 Y-44.374 E23.0671
G1 X-7.238 Y-44.757 E23.1659
G1 X-7.221 Y-44.763 E23.1676
G1 X-4.609 Y-45.555 E23.4372
G1 X-4.592 Y-45.559 E23.4390
G1 X-3.611 Y-45.755 E23.5378
G1 X-3.593 Y-45.757 E23.5395
G1 X-0.877 Y-46.025 E23.8091
G1 X-0.860 Y-46.025 E23.8109
G1 X0.140 Y-46.025 E23.9097
G1 X0.158 Y-46.025 E23.9114
G1 X2.874 Y-45.757 E24.1810
G1 X2.892 Y-45.755 E24.1828
G1 X3.873 Y-45.559 E24.2816
G1 X3.890 Y-45.555 E24.2833
G1 X4.621 Y-45.333 E24.3588
G1 X4.876 Y-45.948 E24.4246
G1 X4.884 Y-45.964 E24.4263
G1 X5.708 Y-47.507 E24.5991
G1 X5.717 Y-47.522 E24.6009
G1 X6.273 Y-48.354 E24.6997
G1 X6.283 Y-48.368 E24.7014
G1 X7.393 Y-49.720 E24.8742
G1 X7.405 Y-49.734 E24.8760
G1 X8.113 Y-50.441 E24.9748
G1 X8.126 Y-50.453 E24.9766
G1 X9.472 Y-51.558 E25.1486
G1 X9.486 Y-51.568 E25.1503
G1 X10.312 Y-52.121 E25.2485
G1 X10.327 Y-52.130 E25.2502
G1 X11.873 Y-52.959 E25.4235
G1 X11.889 Y-52.966 E25.4253
G1 X12.819 Y-53.352 E25.5247
G1 X12.835 Y-53.358 E25.5264
G1 X14.513 Y-53.867 E25.6996
G1 X14.530 Y-53.871 E25.7013
G1 X15.511 Y-54.066 E25.8001
G1 X15.528 Y-54.069 E25.8019
G1 X17.269 Y-54.240 E25.9747
G1 X17.287 Y-54.241 E25.9764
G1 X18.287 Y-54.241 E26.0752
G1 X18.305 Y-54.240 E26.0770
G1 X20.046 Y-54.069 E26.2498
G1 X20.063 Y-54.066 E26.2515
G1 X21.044 Y-53.871 E26.3503
G1 X21.061 Y-53.867 E26.3521
G1 X22.736 Y-53.359 E26.5249
G1 X22.752 Y-53.353 E26.5267
G1 X23.676 Y-52.970 E26.6255
G1 X23.692 Y-52.963 E26.6272
G1 X25.235 Y-52.138 E26.8000
G1 X25.250 Y-52.129 E26.8018
G1 X26.082 Y-51.573 E26.9006
