; G-Code generated by Simplify3D(R) Version 3.1.1
; Dec 25, 2016 at 12:12:39 AM
; Settings Summary
;   processName,Process1
;   applyToModels,Spinner,FlatCap(6),ConcaveCap(2)(2)(2),FlatCap(3),FlatCap(5),FlatCap(2),FlatCap(4),FlatCap,ConcaveCap(2)(2)
;   profileName,Rostock MAX v2 (modified)
;   profileVersion,2015-05-01 08:00:00
;   baseProfile,
;   printMaterial,Iron PLA
;   printQuality,Medium
;   printExtruders,
;   extruderName,Primary Extruder
;   extruderToolheadNumber,0
;   extruderDiameter,0.6
;   extruderAutoWidth,1
;   extruderWidth,0.72
;   extrusionMultiplier,1.1
;   extruderUseRetract,1
;   extruderRetractionDistance,2
;   extruderExtraRestartDistance,-0.2
;   extruderRetractionZLift,0
;   extruderRetractionSpeed,1800
;   extruderUseCoasting,1
;   extruderCoastingDistance,0.5
;   extruderUseWipe,0
;   extruderWipeDistance,5
;   primaryExtruder,0
;   layerHeight,0.3
;   topSolidLayers,3
;   bottomSolidLayers,3
;   perimeterOutlines,3
;   printPerimetersInsideOut,1
;   startPointOption,2
;   startPointOriginX,0
;   startPointOriginY,0
;   startPointOriginZ,300
;   sequentialIslands,0
;   spiralVaseMode,0
;   firstLayerHeightPercentage,25
;   firstLayerWidthPercentage,100
;   firstLayerUnderspeed,0.4
;   useRaft,0
;   raftExtruder,0
;   raftLayers,3
;   raftOffset,15
;   raftSeparationDistance,0.14
;   raftInfill,85
;   disableRaftBaseLayers,0
;   useSkirt,1
;   skirtExtruder,0
;   skirtLayers,1
;   skirtOutlines,1
;   skirtOffset,10
;   usePrimePillar,0
;   primePillarExtruder,999
;   primePillarWidth,12
;   primePillarLocation,7
;   primePillarSpeedMultiplier,1
;   useOozeShield,0
;   oozeShieldExtruder,999
;   oozeShieldOffset,2
;   oozeShieldOutlines,1
;   oozeShieldSidewallShape,1
;   oozeShieldSidewallAngle,30
;   oozeShieldSpeedMultiplier,1
;   infillExtruder,0
;   internalInfillPattern,Rectilinear
;   externalInfillPattern,Rectilinear
;   infillPercentage,85
;   outlineOverlapPercentage,40
;   infillExtrusionWidthPercentage,100
;   minInfillLength,3
;   infillLayerInterval,1
;   infillAngles,45,-45
;   overlapInfillAngles,0
;   generateSupport,1
;   supportExtruder,0
;   supportInfillPercentage,40
;   supportExtraInflation,0
;   denseSupportLayers,0
;   denseSupportInfillPercentage,70
;   supportLayerInterval,1
;   supportHorizontalPartOffset,0.5
;   supportUpperSeparationLayers,1
;   supportLowerSeparationLayers,1
;   supportType,0
;   supportGridSpacing,3
;   maxOverhangAngle,70
;   supportAngles,0
;   temperatureName,Primary Extruder,Heated Bed
;   temperatureNumber,0,1
;   temperatureSetpointCount,1,1
;   temperatureSetpointLayers,1,1
;   temperatureSetpointTemperatures,225,60
;   temperatureStabilizeAtStartup,1,1
;   temperatureHeatedBed,0,1
;   temperatureRelayBetweenLayers,0,0
;   temperatureRelayBetweenLoops,0,0
;   fanLayers,1,2
;   fanSpeeds,0,80
;   blipFanToFullPower,1
;   adjustSpeedForCooling,1
;   minSpeedLayerTime,5
;   minCoolingSpeedSlowdown,80
;   increaseFanForCooling,0
;   minFanLayerTime,60
;   maxCoolingFanSpeed,100
;   increaseFanForBridging,0
;   bridgingFanSpeed,100
;   use5D,1
;   relativeEdistances,0
;   allowEaxisZeroing,1
;   independentExtruderAxes,0
;   includeM10123,0
;   stickySupport,1
;   applyToolheadOffsets,0
;   gcodeXoffset,0
;   gcodeYoffset,0
;   gcodeZoffset,0
;   overrideMachineDefinition,1
;   machineTypeOverride,1
;   strokeXoverride,197
;   strokeYoverride,197
;   strokeZoverride,375
;   originOffsetXoverride,98.5
;   originOffsetYoverride,98.5
;   originOffsetZoverride,0
;   homeXdirOverride,0
;   homeYdirOverride,0
;   homeZdirOverride,1
;   flipXoverride,1
;   flipYoverride,-1
;   flipZoverride,1
;   toolheadOffsets,0,0|0,0|0,0|0,0|0,0|0,0
;   overrideFirmwareConfiguration,1
;   firmwareTypeOverride,RepRap (Marlin/Repetier/Sprinter)
;   GPXconfigOverride,r2
;   baudRateOverride,115200
;   overridePrinterModels,1
;   printerModelsOverride
;   startingGcode,G28 ; home all axes
;   layerChangeGcode,
;   retractionGcode,
;   toolChangeGcode,
;   endingGcode,M104 S0 ; turn off extruder,M140 S0 ; turn off bed,G28 ; home axes,M84 ; disable motors
;   exportFileFormat,gcode
;   celebration,0
;   celebrationSong,Random Song
;   postProcessing,
;   defaultSpeed,1000
;   outlineUnderspeed,0.5
;   solidInfillUnderspeed,0.8
;   supportUnderspeed,0.8
;   rapidXYspeed,9000
;   rapidZspeed,1200
;   minBridgingArea,50
;   bridgingExtraInflation,0
;   bridgingExtrusionMultiplier,0.8
;   bridgingSpeedMultiplier,1.25
;   filamentDiameter,1.75
;   filamentPricePerKg,22
;   filamentDensity,1.25
;   useMinPrintHeight,0
;   minPrintHeight,0.05
;   useMaxPrintHeight,0
;   maxPrintHeight,0
;   useDiaphragm,0
;   diaphragmLayerInterval,20
;   robustSlicing,1
;   mergeAllIntoSolid,0
;   onlyRetractWhenCrossingOutline,0
;   retractBetweenLayers,0
;   useRetractionMinTravel,0
;   retractionMinTravel,3
;   retractWhileWiping,1
;   onlyWipeOutlines,1
;   avoidCrossingOutline,1
;   maxMovementDetourFactor,1.5
;   toolChangeRetractionDistance,12
;   toolChangeExtraRestartDistance,-0.5
;   toolChangeRetractionSpeed,600
;   allowThinWallGapFill,0
;   thinWallAllowedOverlapPercentage,10
;   horizontalSizeCompensation,0
G90
M82
M106 S0
M140 S60
M190 S60
M104 S225 T0
M109 S225 T0
G28 ; home all axes
G92 E0
G1 E-2.0000 F1800
G1 Z0.075 F1200
; layer 1, Z = 0.075
T0
; tool H0.300 W0.720
; skirt
G1 X-38.723 Y2.844 F9000
G1 E-0.2000 F540
G92 E0
G1 X-38.739 Y2.828 E0.0022 F400
G1 X-38.746 Y2.821 E0.0032
G1 X-40.042 Y1.396 E0.1935
G1 X-40.048 Y1.389 E0.1945
G1 X-40.401 Y0.955 E0.2497
G1 X-40.407 Y0.948 E0.2506
G1 X-41.539 Y-0.611 E0.4409
G1 X-41.545 Y-0.619 E0.4419
G1 X-41.848 Y-1.088 E0.4971
G1 X-41.853 Y-1.097 E0.4981
G1 X-42.808 Y-2.770 E0.6883
G1 X-42.812 Y-2.778 E0.6893
G1 X-43.062 Y-3.278 E0.7445
G1 X-43.066 Y-3.287 E0.7455
G1 X-43.832 Y-5.054 E0.9358
G1 X-43.836 Y-5.064 E0.9367
G1 X-44.030 Y-5.587 E0.9919
G1 X-44.033 Y-5.597 E0.9929
G1 X-44.601 Y-7.437 E1.1832
G1 X-44.603 Y-7.447 E1.1841
G1 X-44.738 Y-7.989 E1.2393
G1 X-44.741 Y-7.999 E1.2403
G1 X-45.103 Y-9.890 E1.4306
G1 X-45.105 Y-9.900 E1.4316
G1 X-45.180 Y-10.454 E1.4867
G1 X-45.181 Y-10.463 E1.4877
G1 X-45.335 Y-12.384 E1.6780
G1 X-45.335 Y-12.394 E1.6790
G1 X-45.349 Y-12.952 E1.7341
G1 X-45.349 Y-12.962 E1.7351
G1 X-45.291 Y-14.887 E1.9254
G1 X-45.291 Y-14.897 E1.9264
G1 X-45.243 Y-15.454 E1.9816
G1 X-45.242 Y-15.463 E1.9825
G1 X-44.974 Y-17.371 E2.1728
G1 X-44.973 Y-17.381 E2.1738
G1 X-44.865 Y-17.929 E2.2290
G1 X-44.862 Y-17.939 E2.2299
G1 X-44.387 Y-19.805 E2.4202
G1 X-44.384 Y-19.815 E2.4212
G1 X-44.217 Y-20.348 E2.4764
G1 X-44.214 Y-20.357 E2.4773
G1 X-43.537 Y-22.160 E2.6676
G1 X-43.533 Y-22.170 E2.6686
G1 X-43.309 Y-22.681 E2.7238
G1 X-43.305 Y-22.690 E2.7248
G1 X-42.434 Y-24.408 E2.9151
G1 X-42.430 Y-24.417 E2.9160
G1 X-42.150 Y-24.901 E2.9712
G1 X-42.145 Y-24.909 E2.9722
G1 X-41.092 Y-26.522 E3.1625
G1 X-41.086 Y-26.530 E3.1634
G1 X-40.756 Y-26.981 E3.2186
G1 X-40.750 Y-26.988 E3.2196
G1 X-39.526 Y-28.476 E3.4099
G1 X-39.520 Y-28.484 E3.4109
G1 X-39.142 Y-28.895 E3.4660
G1 X-39.135 Y-28.902 E3.4670
G1 X-37.756 Y-30.247 E3.6573
G1 X-37.749 Y-30.254 E3.6583
G1 X-37.328 Y-30.621 E3.7134
G1 X-37.321 Y-30.628 E3.7144
G1 X-35.803 Y-31.814 E3.9047
G1 X-35.795 Y-31.819 E3.9057
G1 X-35.336 Y-32.139 E3.9609
G1 X-35.328 Y-32.144 E3.9618
G1 X-33.689 Y-33.157 E4.1521
G1 X-33.681 Y-33.162 E4.1531
G1 X-33.190 Y-33.429 E4.2083
G1 X-33.182 Y-33.433 E4.2092
G1 X-31.442 Y-34.260 E4.3995
G1 X-31.433 Y-34.264 E4.4005
G1 X-30.916 Y-34.476 E4.4557
G1 X-30.907 Y-34.480 E4.4567
G1 X-29.087 Y-35.111 E4.6469
G1 X-29.077 Y-35.114 E4.6479
G1 X-28.541 Y-35.268 E4.7031
G1 X-28.531 Y-35.271 E4.7041
G1 X-26.653 Y-35.700 E4.8944
G1 X-26.643 Y-35.701 E4.8953
G1 X-26.093 Y-35.796 E4.9505
G1 X-26.083 Y-35.797 E4.9515
G1 X-24.169 Y-36.018 E5.1418
G1 X-24.159 Y-36.018 E5.1428
G1 X-23.602 Y-36.052 E5.1979
G1 X-23.592 Y-36.052 E5.1989
G1 X-21.666 Y-36.062 E5.3892
G1 X-21.656 Y-36.062 E5.3902
G1 X-21.098 Y-36.034 E5.4453
G1 X-21.088 Y-36.033 E5.4463
G1 X-19.172 Y-35.832 E5.6366
G1 X-19.163 Y-35.830 E5.6376
G1 X-18.611 Y-35.741 E5.6927
G1 X-18.601 Y-35.740 E5.6937
G1 X-16.747 Y-35.336 E5.8812
G1 X-15.999 Y-36.736 E6.0380
G1 X-15.990 Y-36.751 E6.0398
G1 X-15.434 Y-37.582 E6.1386
G1 X-15.423 Y-37.597 E6.1403
G1 X-13.692 Y-39.706 E6.4099
G1 X-13.680 Y-39.719 E6.4117
G1 X-12.973 Y-40.427 E6.5105
G1 X-12.960 Y-40.438 E6.5122
G1 X-10.850 Y-42.170 E6.7818
G1 X-10.836 Y-42.180 E6.7836
G1 X-10.004 Y-42.736 E6.8824
G1 X-9.989 Y-42.745 E6.8841
G1 X-7.582 Y-44.032 E7.1537
G1 X-7.566 Y-44.039 E7.1555
G1 X-6.642 Y-44.422 E7.2542
G1 X-6.625 Y-44.428 E7.2560
G1 X-4.014 Y-45.220 E7.5256
G1 X-3.996 Y-45.225 E7.5273
G1 X-3.015 Y-45.420 E7.6262
G1 X-2.998 Y-45.422 E7.6279
G1 X-0.282 Y-45.690 E7.8975
G1 X-0.264 Y-45.691 E7.8992
G1 X0.736 Y-45.691 E7.9980
G1 X0.754 Y-45.690 E7.9998
G1 X3.470 Y-45.422 E8.2694
G1 X3.487 Y-45.420 E8.2711
G1 X4.468 Y-45.225 E8.3699
G1 X4.485 Y-45.220 E8.3717
G1 X4.527 Y-45.208 E8.3760
G1 X4.840 Y-45.963 E8.4568
G1 X4.848 Y-45.979 E8.4585
G1 X5.676 Y-47.529 E8.6321
G1 X5.685 Y-47.544 E8.6338
G1 X6.241 Y-48.376 E8.7326
G1 X6.251 Y-48.390 E8.7344
G1 X7.366 Y-49.748 E8.9080
G1 X7.378 Y-49.761 E8.9097
G1 X8.085 Y-50.468 E9.0085
G1 X8.098 Y-50.480 E9.0102
G1 X9.450 Y-51.590 E9.1830
G1 X9.464 Y-51.600 E9.1848
G1 X10.290 Y-52.153 E9.2830
G1 X10.305 Y-52.162 E9.2847
G1 X11.858 Y-52.995 E9.4587
G1 X11.874 Y-53.002 E9.4605
G1 X12.804 Y-53.388 E9.5599
G1 X12.821 Y-53.394 E9.5617
G1 X14.505 Y-53.905 E9.7355
G1 X14.522 Y-53.909 E9.7373
G1 X15.503 Y-54.104 E9.8361
G1 X15.521 Y-54.107 E9.8378
G1 X17.269 Y-54.279 E10.0114
G1 X17.287 Y-54.280 E10.0132
G1 X18.287 Y-54.280 E10.1120
G1 X18.305 Y-54.279 E10.1137
G1 X20.053 Y-54.107 E10.2873
G1 X20.071 Y-54.104 E10.2890
G1 X21.052 Y-53.909 E10.3878
G1 X21.069 Y-53.905 E10.3896
G1 X22.750 Y-53.395 E10.5631
G1 X22.767 Y-53.389 E10.5649
G1 X23.691 Y-53.006 E10.6637
G1 X23.707 Y-52.999 E10.6654
G1 X25.257 Y-52.170 E10.8390
G1 X25.272 Y-52.161 E10.8408
G1 X26.104 Y-51.606 E10.9396
G1 X26.118 Y-51.595 E10.9413
G1 X27.476 Y-50.480 E11.1149
G1 X27.489 Y-50.468 E11.1166
G1 X28.196 Y-49.761 E11.2154
G1 X28.208 Y-49.748 E11.2172
G1 X29.323 Y-48.390 E11.3907
G1 X29.334 Y-48.376 E11.3925
G1 X29.889 Y-47.544 E11.4913
G1 X29.898 Y-47.529 E11.4930
G1 X30.727 Y-45.979 E11.6666
G1 X30.734 Y-45.963 E11.6684
G1 X31.117 Y-45.039 E11.7672
G1 X31.123 Y-45.023 E11.7689
G1 X31.631 Y-43.348 E11.9417
G1 X31.635 Y-43.331 E11.9435
G1 X31.830 Y-42.356 E12.0417
G1 X31.832 Y-42.339 E12.0434
G1 X32.007 Y-40.586 E12.2174
G1 X32.008 Y-40.568 E12.2192
G1 X32.008 Y-39.562 E12.3186
G1 X32.008 Y-39.544 E12.3203
G1 X31.837 Y-37.810 E12.4925
G1 X31.834 Y-37.793 E12.4942
G1 X31.643 Y-36.825 E12.5917
G1 X31.639 Y-36.808 E12.5934
G1 X31.130 Y-35.115 E12.7680
G1 X31.124 Y-35.098 E12.7698
G1 X30.874 Y-34.492 E12.8345
G1 X30.910 Y-34.480 E12.8383
G1 X30.919 Y-34.476 E12.8392
G1 X31.436 Y-34.264 E12.8944
G1 X31.445 Y-34.260 E12.8954
G1 X33.185 Y-33.433 E13.0857
G1 X33.193 Y-33.429 E13.0866
G1 X33.684 Y-33.162 E13.1418
G1 X33.692 Y-33.157 E13.1428
G1 X35.331 Y-32.144 E13.3331
G1 X35.339 Y-32.139 E13.3341
G1 X35.798 Y-31.819 E13.3892
G1 X35.806 Y-31.814 E13.3902
G1 X37.324 Y-30.628 E13.5805
G1 X37.331 Y-30.621 E13.5815
G1 X37.752 Y-30.254 E13.6366
G1 X37.759 Y-30.247 E13.6376
G1 X39.138 Y-28.902 E13.8279
G1 X39.145 Y-28.895 E13.8289
G1 X39.523 Y-28.484 E13.8841
G1 X39.529 Y-28.476 E13.8850
G1 X40.753 Y-26.988 E14.0753
G1 X40.759 Y-26.980 E14.0763
G1 X41.089 Y-26.530 E14.1315
G1 X41.095 Y-26.522 E14.1324
G1 X42.148 Y-24.909 E14.3227
G1 X42.153 Y-24.901 E14.3237
G1 X42.433 Y-24.417 E14.3789
G1 X42.437 Y-24.408 E14.3799
G1 X43.308 Y-22.690 E14.5701
G1 X43.312 Y-22.681 E14.5711
G1 X43.536 Y-22.170 E14.6263
G1 X43.540 Y-22.160 E14.6273
G1 X44.217 Y-20.357 E14.8176
G1 X44.220 Y-20.348 E14.8185
G1 X44.387 Y-19.815 E14.8737
G1 X44.390 Y-19.805 E14.8747
G1 X44.865 Y-17.939 E15.0650
G1 X44.868 Y-17.929 E15.0659
G1 X44.976 Y-17.381 E15.1211
G1 X44.977 Y-17.371 E15.1221
G1 X45.245 Y-15.463 E15.3124
G1 X45.246 Y-15.454 E15.3134
G1 X45.294 Y-14.897 E15.3685
G1 X45.294 Y-14.887 E15.3695
G1 X45.352 Y-12.962 E15.5598
G1 X45.352 Y-12.952 E15.5608
G1 X45.338 Y-12.394 E15.6159
G1 X45.338 Y-12.384 E15.6169
G1 X45.184 Y-10.464 E15.8072
G1 X45.183 Y-10.454 E15.8082
G1 X45.108 Y-9.900 E15.8634
G1 X45.106 Y-9.890 E15.8643
G1 X44.744 Y-7.999 E16.0546
G1 X44.741 Y-7.989 E16.0556
G1 X44.606 Y-7.447 E16.1108
G1 X44.604 Y-7.437 E16.1117
G1 X44.036 Y-5.597 E16.3020
G1 X44.033 Y-5.587 E16.3030
G1 X43.839 Y-5.064 E16.3582
G1 X43.835 Y-5.054 E16.3592
G1 X43.069 Y-3.287 E16.5494
G1 X43.065 Y-3.278 E16.5504
G1 X42.815 Y-2.778 E16.6056
G1 X42.811 Y-2.770 E16.6066
G1 X41.856 Y-1.097 E16.7969
G1 X41.851 Y-1.088 E16.7978
G1 X41.548 Y-0.619 E16.8530
G1 X41.542 Y-0.611 E16.8540
G1 X40.410 Y0.948 E17.0443
G1 X40.404 Y0.955 E17.0453
G1 X40.051 Y1.389 E17.1004
G1 X40.045 Y1.396 E17.1014
G1 X39.408 Y2.096 E17.1949
G1 X39.421 Y2.112 E17.1969
G1 X39.432 Y2.126 E17.1986
G1 X39.987 Y2.958 E17.2974
G1 X39.996 Y2.973 E17.2992
G1 X41.283 Y5.380 E17.5688
G1 X41.290 Y5.396 E17.5705
G1 X41.673 Y6.320 E17.6693
G1 X41.679 Y6.336 E17.6711
G1 X42.471 Y8.948 E17.9407
G1 X42.476 Y8.965 E17.9424
G1 X42.671 Y9.946 E18.0412
G1 X42.673 Y9.964 E18.0430
G1 X42.941 Y12.680 E18.3126
G1 X42.942 Y12.697 E18.3143
G1 X42.942 Y13.698 E18.4131
G1 X42.941 Y13.715 E18.4148
G1 X42.673 Y16.431 E18.6844
G1 X42.671 Y16.449 E18.6862
G1 X42.476 Y17.430 E18.7850
G1 X42.471 Y17.447 E18.7868
G1 X41.679 Y20.059 E19.0563
G1 X41.673 Y20.075 E19.0581
G1 X41.290 Y20.999 E19.1569
G1 X41.283 Y21.015 E19.1586
G1 X39.996 Y23.422 E19.4282
G1 X39.987 Y23.438 E19.4300
G1 X39.432 Y24.269 E19.5288
G1 X39.421 Y24.283 E19.5305
G1 X37.690 Y26.393 E19.8001
G1 X37.678 Y26.406 E19.8019
G1 X36.971 Y27.114 E19.9007
G1 X36.957 Y27.125 E19.9024
G1 X34.848 Y28.857 E20.1720
G1 X34.833 Y28.867 E20.1738
G1 X34.002 Y29.423 E20.2726
G1 X33.987 Y29.432 E20.2743
G1 X31.580 Y30.719 E20.5439
G1 X31.564 Y30.726 E20.5457
G1 X30.640 Y31.109 E20.6445
G1 X30.623 Y31.115 E20.6462
G1 X28.011 Y31.907 E20.9158
G1 X27.994 Y31.912 E20.9176
G1 X27.013 Y32.107 E21.0164
G1 X26.996 Y32.109 E21.0181
G1 X24.280 Y32.377 E21.2877
G1 X24.262 Y32.378 E21.2895
G1 X23.262 Y32.378 E21.3883
G1 X23.244 Y32.377 E21.3900
G1 X21.881 Y32.242 E21.5253
G1 X21.442 Y33.617 E21.6679
G1 X21.439 Y33.627 E21.6689
G1 X21.240 Y34.149 E21.7240
G1 X21.236 Y34.158 E21.7250
G1 X20.452 Y35.918 E21.9153
G1 X20.448 Y35.927 E21.9163
G1 X20.193 Y36.424 E21.9715
G1 X20.189 Y36.432 E21.9724
G1 X19.217 Y38.096 E22.1627
G1 X19.212 Y38.104 E22.1637
G1 X18.904 Y38.570 E22.2189
G1 X18.899 Y38.578 E22.2198
G1 X17.751 Y40.125 E22.4101
G1 X17.745 Y40.133 E22.4111
G1 X17.388 Y40.563 E22.4663
G1 X17.381 Y40.570 E22.4673
G1 X16.071 Y41.982 E22.6576
G1 X16.064 Y41.989 E22.6585
G1 X15.662 Y42.377 E22.7137
G1 X15.655 Y42.384 E22.7147
G1 X14.198 Y43.644 E22.9050
G1 X14.191 Y43.650 E22.9059
G1 X13.749 Y43.992 E22.9611
G1 X13.741 Y43.998 E22.9621
G1 X12.155 Y45.091 E23.1524
G1 X12.146 Y45.096 E23.1533
G1 X11.670 Y45.388 E23.2085
G1 X11.661 Y45.393 E23.2095
G1 X9.965 Y46.305 E23.3998
G1 X9.956 Y46.310 E23.4008
G1 X9.450 Y46.547 E23.4559
G1 X9.441 Y46.551 E23.4569
G1 X7.655 Y47.273 E23.6472
G1 X7.646 Y47.276 E23.6482
G1 X7.117 Y47.457 E23.7033
G1 X7.108 Y47.460 E23.7043
G1 X5.254 Y47.981 E23.8946
G1 X5.244 Y47.984 E23.8956
G1 X4.699 Y48.105 E23.9508
G1 X4.689 Y48.107 E23.9517
G1 X2.789 Y48.423 E24.1420
G1 X2.779 Y48.424 E24.1430
G1 X2.224 Y48.485 E24.1982
G1 X2.214 Y48.486 E24.1991
G1 X0.291 Y48.592 E24.3894
G1 X0.281 Y48.592 E24.3904
G1 X-0.278 Y48.592 E24.4456
G1 X-0.288 Y48.592 E24.4466
G1 X-2.211 Y48.486 E24.6369
G1 X-2.221 Y48.485 E24.6378
G1 X-2.776 Y48.424 E24.6930
G1 X-2.786 Y48.423 E24.6940
G1 X-4.686 Y48.107 E24.8843
G1 X-4.696 Y48.105 E24.8852
G1 X-5.241 Y47.984 E24.9404
G1 X-5.251 Y47.981 E24.9414
G1 X-7.105 Y47.460 E25.1317
G1 X-7.114 Y47.457 E25.1327
G1 X-7.643 Y47.276 E25.1878
G1 X-7.652 Y47.273 E25.1888
G1 X-9.438 Y46.551 E25.3791
G1 X-9.447 Y46.547 E25.3801
G1 X-9.953 Y46.310 E25.4352
G1 X-9.962 Y46.305 E25.4362
