; G-Code generated by Simplify3D(R) Version 3.1.1
; Dec 14, 2016 at 3:31:48 PM
; Settings Summary
;   processName,Process1
;   applyToModels,Spinner
;   profileName,Rostock MAX v2 (modified)
;   profileVersion,2015-05-01 08:00:00
;   baseProfile,
;   printMaterial,Iron PLA
;   printQuality,Medium
;   printExtruders,
;   extruderName,Primary Extruder
;   extruderToolheadNumber,0
;   extruderDiameter,0.6
;   extruderAutoWidth,1
;   extruderWidth,0.72
;   extrusionMultiplier,1.1
;   extruderUseRetract,1
;   extruderRetractionDistance,2
;   extruderExtraRestartDistance,-0.2
;   extruderRetractionZLift,0
;   extruderRetractionSpeed,1800
;   extruderUseCoasting,1
;   extruderCoastingDistance,0.5
;   extruderUseWipe,0
;   extruderWipeDistance,5
;   primaryExtruder,0
;   layerHeight,0.3
;   topSolidLayers,3
;   bottomSolidLayers,3
;   perimeterOutlines,3
;   printPerimetersInsideOut,1
;   startPointOption,2
;   startPointOriginX,0
;   startPointOriginY,0
;   startPointOriginZ,300
;   sequentialIslands,0
;   spiralVaseMode,0
;   firstLayerHeightPercentage,25
;   firstLayerWidthPercentage,100
;   firstLayerUnderspeed,0.4
;   useRaft,0
;   raftExtruder,0
;   raftLayers,3
;   raftOffset,15
;   raftSeparationDistance,0.14
;   raftInfill,85
;   disableRaftBaseLayers,0
;   useSkirt,1
;   skirtExtruder,0
;   skirtLayers,1
;   skirtOutlines,2
;   skirtOffset,5
;   usePrimePillar,0
;   primePillarExtruder,999
;   primePillarWidth,12
;   primePillarLocation,7
;   primePillarSpeedMultiplier,1
;   useOozeShield,0
;   oozeShieldExtruder,999
;   oozeShieldOffset,2
;   oozeShieldOutlines,1
;   oozeShieldSidewallShape,1
;   oozeShieldSidewallAngle,30
;   oozeShieldSpeedMultiplier,1
;   infillExtruder,0
;   internalInfillPattern,Rectilinear
;   externalInfillPattern,Rectilinear
;   infillPercentage,85
;   outlineOverlapPercentage,40
;   infillExtrusionWidthPercentage,100
;   minInfillLength,3
;   infillLayerInterval,1
;   infillAngles,45,-45
;   overlapInfillAngles,0
;   generateSupport,0
;   supportExtruder,0
;   supportInfillPercentage,30
;   supportExtraInflation,0
;   denseSupportLayers,0
;   denseSupportInfillPercentage,70
;   supportLayerInterval,1
;   supportHorizontalPartOffset,0.3
;   supportUpperSeparationLayers,1
;   supportLowerSeparationLayers,1
;   supportType,0
;   supportGridSpacing,4
;   maxOverhangAngle,70
;   supportAngles,0
;   temperatureName,Primary Extruder,Heated Bed
;   temperatureNumber,0,1
;   temperatureSetpointCount,1,1
;   temperatureSetpointLayers,1,1
;   temperatureSetpointTemperatures,225,60
;   temperatureStabilizeAtStartup,1,1
;   temperatureHeatedBed,0,1
;   temperatureRelayBetweenLayers,0,0
;   temperatureRelayBetweenLoops,0,0
;   fanLayers,1,2
;   fanSpeeds,0,100
;   blipFanToFullPower,1
;   adjustSpeedForCooling,1
;   minSpeedLayerTime,5
;   minCoolingSpeedSlowdown,80
;   increaseFanForCooling,0
;   minFanLayerTime,60
;   maxCoolingFanSpeed,100
;   increaseFanForBridging,0
;   bridgingFanSpeed,100
;   use5D,1
;   relativeEdistances,0
;   allowEaxisZeroing,1
;   independentExtruderAxes,0
;   includeM10123,0
;   stickySupport,1
;   applyToolheadOffsets,0
;   gcodeXoffset,0
;   gcodeYoffset,0
;   gcodeZoffset,0
;   overrideMachineDefinition,1
;   machineTypeOverride,1
;   strokeXoverride,197
;   strokeYoverride,197
;   strokeZoverride,375
;   originOffsetXoverride,98.5
;   originOffsetYoverride,98.5
;   originOffsetZoverride,0
;   homeXdirOverride,0
;   homeYdirOverride,0
;   homeZdirOverride,1
;   flipXoverride,1
;   flipYoverride,-1
;   flipZoverride,1
;   toolheadOffsets,0,0|0,0|0,0|0,0|0,0|0,0
;   overrideFirmwareConfiguration,1
;   firmwareTypeOverride,RepRap (Marlin/Repetier/Sprinter)
;   GPXconfigOverride,r2
;   baudRateOverride,115200
;   overridePrinterModels,1
;   printerModelsOverride
;   startingGcode,G28 ; home all axes
;   layerChangeGcode,
;   retractionGcode,
;   toolChangeGcode,
;   endingGcode,M104 S0 ; turn off extruder,M140 S0 ; turn off bed,G28 ; home axes,M84 ; disable motors
;   exportFileFormat,gcode
;   celebration,0
;   celebrationSong,Random Song
;   postProcessing,
;   defaultSpeed,1000
;   outlineUnderspeed,0.5
;   solidInfillUnderspeed,0.8
;   supportUnderspeed,0.8
;   rapidXYspeed,9000
;   rapidZspeed,1200
;   minBridgingArea,50
;   bridgingExtraInflation,0
;   bridgingExtrusionMultiplier,0.8
;   bridgingSpeedMultiplier,1.25
;   filamentDiameter,1.75
;   filamentPricePerKg,22
;   filamentDensity,1.25
;   useMinPrintHeight,0
;   minPrintHeight,0.05
;   useMaxPrintHeight,0
;   maxPrintHeight,0
;   useDiaphragm,0
;   diaphragmLayerInterval,20
;   robustSlicing,1
;   mergeAllIntoSolid,0
;   onlyRetractWhenCrossingOutline,0
;   retractBetweenLayers,0
;   useRetractionMinTravel,0
;   retractionMinTravel,3
;   retractWhileWiping,1
;   onlyWipeOutlines,1
;   avoidCrossingOutline,1
;   maxMovementDetourFactor,1.5
;   toolChangeRetractionDistance,12
;   toolChangeExtraRestartDistance,-0.5
;   toolChangeRetractionSpeed,600
;   allowThinWallGapFill,0
;   thinWallAllowedOverlapPercentage,10
;   horizontalSizeCompensation,0
G90
M82
M106 S0
M140 S60
M190 S60
M104 S225 T0
M109 S225 T0
G28 ; home all axes
G92 E0
G1 E-2.0000 F1800
G1 Z0.075 F1200
; layer 1, Z = 0.075
T0
; tool H0.300 W0.720
; skirt
G1 X-15.130 Y4.595 F9000
G1 E-0.2000 F540
G92 E0
G1 X-15.366 Y3.845 E0.0777 F400
G1 X-15.682 Y3.124 E0.1554
G1 X-16.075 Y2.443 E0.2332
G1 X-16.541 Y1.809 E0.3109
G1 X-17.073 Y1.229 E0.3886
G1 X-17.666 Y0.712 E0.4663
G1 X-18.311 Y0.262 E0.5441
G1 X-19.003 Y-0.114 E0.6218
G1 X-19.731 Y-0.413 E0.6995
G1 X-20.487 Y-0.630 E0.7772
G1 X-21.259 Y-0.762 E0.8546
G1 X-24.061 Y-0.926 E1.1319
G1 X-24.092 Y-0.929 E1.1349
G1 X-24.411 Y-0.966 E1.1667
G1 X-24.442 Y-0.971 E1.1698
G1 X-26.071 Y-1.258 E1.3332
G1 X-26.100 Y-1.264 E1.3361
G1 X-26.396 Y-1.333 E1.3661
G1 X-26.425 Y-1.340 E1.3691
G1 X-28.004 Y-1.802 E1.5316
G1 X-28.033 Y-1.811 E1.5345
G1 X-28.319 Y-1.912 E1.5646
G1 X-28.347 Y-1.923 E1.5675
G1 X-29.866 Y-2.554 E1.7300
G1 X-29.893 Y-2.566 E1.7330
G1 X-30.167 Y-2.698 E1.7630
G1 X-30.194 Y-2.712 E1.7659
G1 X-31.635 Y-3.506 E1.9285
G1 X-31.660 Y-3.521 E1.9314
G1 X-31.918 Y-3.682 E1.9614
G1 X-31.943 Y-3.699 E1.9644
G1 X-33.288 Y-4.646 E2.1269
G1 X-33.312 Y-4.664 E2.1298
G1 X-33.551 Y-4.852 E2.1599
G1 X-33.573 Y-4.871 E2.1628
G1 X-34.807 Y-5.960 E2.3253
G1 X-34.829 Y-5.980 E2.3283
G1 X-35.045 Y-6.193 E2.3583
G1 X-35.066 Y-6.215 E2.3612
G1 X-36.173 Y-7.432 E2.5238
G1 X-36.193 Y-7.454 E2.5267
G1 X-36.384 Y-7.690 E2.5567
G1 X-36.402 Y-7.714 E2.5597
G1 X-37.370 Y-9.045 E2.7222
G1 X-37.386 Y-9.069 E2.7251
G1 X-37.551 Y-9.325 E2.7552
G1 X-37.567 Y-9.350 E2.7581
G1 X-38.382 Y-10.779 E2.9206
G1 X-38.396 Y-10.805 E2.9236
G1 X-38.532 Y-11.077 E2.9536
G1 X-38.545 Y-11.104 E2.9565
G1 X-39.199 Y-12.614 E3.1191
G1 X-39.210 Y-12.641 E3.1220
G1 X-39.316 Y-12.927 E3.1520
G1 X-39.325 Y-12.955 E3.1549
G1 X-39.810 Y-14.527 E3.3175
G1 X-39.818 Y-14.556 E3.3204
G1 X-39.892 Y-14.851 E3.3505
G1 X-39.898 Y-14.879 E3.3534
G1 X-40.208 Y-16.495 E3.5159
G1 X-40.213 Y-16.525 E3.5189
G1 X-40.253 Y-16.826 E3.5489
G1 X-40.257 Y-16.855 E3.5518
G1 X-40.388 Y-18.496 E3.7144
G1 X-40.389 Y-18.525 E3.7173
G1 X-40.397 Y-18.829 E3.7473
G1 X-40.397 Y-18.859 E3.7502
G1 X-40.348 Y-20.504 E3.9128
G1 X-40.346 Y-20.533 E3.9157
G1 X-40.320 Y-20.836 E3.9457
G1 X-40.317 Y-20.866 E3.9487
G1 X-40.088 Y-22.495 E4.1112
G1 X-40.083 Y-22.524 E4.1142
G1 X-40.024 Y-22.823 E4.1442
G1 X-40.018 Y-22.851 E4.1471
G1 X-39.612 Y-24.446 E4.3097
G1 X-39.604 Y-24.475 E4.3126
G1 X-39.513 Y-24.765 E4.3426
G1 X-39.503 Y-24.793 E4.3455
G1 X-38.925 Y-26.333 E4.5081
G1 X-38.913 Y-26.361 E4.5110
G1 X-38.791 Y-26.639 E4.5410
G1 X-38.779 Y-26.666 E4.5440
G1 X-38.035 Y-28.134 E4.7065
G1 X-38.021 Y-28.160 E4.7094
G1 X-37.869 Y-28.423 E4.7395
G1 X-37.854 Y-28.448 E4.7424
G1 X-36.954 Y-29.826 E4.9049
G1 X-36.937 Y-29.851 E4.9079
G1 X-36.757 Y-30.096 E4.9379
G1 X-36.739 Y-30.119 E4.9408
G1 X-35.694 Y-31.390 E5.1034
G1 X-35.674 Y-31.412 E5.1063
G1 X-35.469 Y-31.636 E5.1363
G1 X-35.448 Y-31.657 E5.1393
G1 X-34.270 Y-32.806 E5.3018
G1 X-34.248 Y-32.827 E5.3047
G1 X-34.020 Y-33.027 E5.3348
G1 X-33.997 Y-33.045 E5.3377
G1 X-32.700 Y-34.059 E5.5002
G1 X-32.676 Y-34.076 E5.5032
G1 X-32.427 Y-34.250 E5.5332
G1 X-32.402 Y-34.266 E5.5361
G1 X-31.002 Y-35.131 E5.6987
G1 X-30.976 Y-35.146 E5.7016
G1 X-30.710 Y-35.291 E5.7316
G1 X-30.683 Y-35.305 E5.7346
G1 X-29.197 Y-36.011 E5.8971
G1 X-29.170 Y-36.023 E5.9000
G1 X-28.889 Y-36.139 E5.9301
G1 X-28.861 Y-36.149 E5.9330
G1 X-27.306 Y-36.689 E6.0955
G1 X-27.278 Y-36.698 E6.0985
G1 X-26.986 Y-36.781 E6.1285
G1 X-26.957 Y-36.789 E6.1314
G1 X-25.353 Y-37.155 E6.2940
G1 X-25.324 Y-37.161 E6.2969
G1 X-25.024 Y-37.212 E6.3269
G1 X-24.995 Y-37.216 E6.3298
G1 X-23.360 Y-37.405 E6.4924
G1 X-23.331 Y-37.407 E6.4953
G1 X-23.027 Y-37.425 E6.5254
G1 X-22.998 Y-37.426 E6.5283
G1 X-21.352 Y-37.435 E6.6908
G1 X-21.322 Y-37.434 E6.6938
G1 X-21.019 Y-37.419 E6.7238
G1 X-20.989 Y-37.416 E6.7267
G1 X-19.353 Y-37.244 E6.8893
G1 X-19.323 Y-37.241 E6.8922
G1 X-19.023 Y-37.192 E6.9222
G1 X-18.994 Y-37.187 E6.9251
G1 X-17.386 Y-36.837 E7.0877
G1 X-17.358 Y-36.830 E7.0906
G1 X-17.065 Y-36.749 E7.1206
G1 X-17.036 Y-36.740 E7.1236
G1 X-15.476 Y-36.216 E7.2861
G1 X-15.449 Y-36.206 E7.2891
G1 X-15.166 Y-36.093 E7.3191
G1 X-15.139 Y-36.082 E7.3220
G1 X-13.646 Y-35.390 E7.4846
G1 X-13.619 Y-35.377 E7.4875
G1 X-13.351 Y-35.234 E7.5175
G1 X-13.325 Y-35.219 E7.5204
G1 X-11.917 Y-34.368 E7.6830
G1 X-11.892 Y-34.352 E7.6859
G1 X-11.641 Y-34.181 E7.7159
G1 X-11.617 Y-34.164 E7.7189
G1 X-10.310 Y-33.164 E7.8814
G1 X-10.287 Y-33.145 E7.8843
G1 X-10.056 Y-32.947 E7.9144
G1 X-10.034 Y-32.927 E7.9173
G1 X-8.845 Y-31.790 E8.0799
G1 X-8.824 Y-31.769 E8.0828
G1 X-8.616 Y-31.547 E8.1128
G1 X-8.596 Y-31.525 E8.1157
G1 X-7.533 Y-30.258 E8.2791
G1 X-7.514 Y-30.233 E8.2822
G1 X-7.322 Y-29.976 E8.3140
G1 X-7.304 Y-29.950 E8.3171
G1 X-5.760 Y-27.606 E8.5943
G1 X-5.260 Y-27.003 E8.6717
G1 X-4.694 Y-26.457 E8.7494
G1 X-4.072 Y-25.975 E8.8271
G1 X-3.400 Y-25.565 E8.9049
G1 X-2.688 Y-25.231 E8.9826
G1 X-1.944 Y-24.976 E9.0603
G1 X-1.175 Y-24.805 E9.1380
G1 X-0.393 Y-24.719 E9.2158
G1 X0.393 Y-24.719 E9.2935
G1 X1.175 Y-24.805 E9.3712
G1 X1.944 Y-24.976 E9.4489
G1 X2.688 Y-25.231 E9.5266
G1 X3.400 Y-25.565 E9.6044
G1 X4.072 Y-25.975 E9.6821
G1 X4.694 Y-26.457 E9.7598
G1 X5.260 Y-27.003 E9.8375
G1 X5.760 Y-27.605 E9.9149
G1 X7.304 Y-29.950 E10.1922
G1 X7.322 Y-29.976 E10.1952
G1 X7.514 Y-30.233 E10.2270
G1 X7.533 Y-30.258 E10.2301
G1 X8.596 Y-31.525 E10.3935
G1 X8.616 Y-31.547 E10.3964
G1 X8.824 Y-31.769 E10.4264
G1 X8.845 Y-31.790 E10.4294
G1 X10.034 Y-32.927 E10.5919
G1 X10.056 Y-32.947 E10.5948
G1 X10.287 Y-33.145 E10.6249
G1 X10.310 Y-33.164 E10.6278
G1 X11.617 Y-34.164 E10.7904
G1 X11.641 Y-34.181 E10.7933
G1 X11.892 Y-34.352 E10.8233
G1 X11.917 Y-34.368 E10.8262
G1 X13.325 Y-35.219 E10.9888
G1 X13.351 Y-35.234 E10.9917
G1 X13.619 Y-35.377 E11.0217
G1 X13.646 Y-35.390 E11.0247
G1 X15.139 Y-36.082 E11.1872
G1 X15.166 Y-36.093 E11.1901
G1 X15.449 Y-36.206 E11.2202
G1 X15.476 Y-36.216 E11.2231
G1 X17.036 Y-36.740 E11.3856
G1 X17.065 Y-36.749 E11.3886
G1 X17.358 Y-36.830 E11.4186
G1 X17.386 Y-36.837 E11.4215
G1 X18.994 Y-37.187 E11.5841
G1 X19.023 Y-37.192 E11.5870
G1 X19.323 Y-37.241 E11.6170
G1 X19.353 Y-37.244 E11.6200
G1 X20.989 Y-37.416 E11.7825
G1 X21.019 Y-37.419 E11.7854
G1 X21.322 Y-37.434 E11.8155
G1 X21.352 Y-37.435 E11.8184
G1 X22.998 Y-37.426 E11.9809
G1 X23.027 Y-37.425 E11.9839
G1 X23.331 Y-37.407 E12.0139
G1 X23.360 Y-37.405 E12.0168
G1 X24.995 Y-37.216 E12.1794
G1 X25.024 Y-37.212 E12.1823
G1 X25.324 Y-37.161 E12.2123
G1 X25.353 Y-37.155 E12.2152
G1 X26.957 Y-36.789 E12.3778
G1 X26.986 Y-36.781 E12.3807
G1 X27.278 Y-36.698 E12.4108
G1 X27.306 Y-36.689 E12.4137
G1 X28.861 Y-36.149 E12.5762
G1 X28.889 Y-36.139 E12.5792
G1 X29.170 Y-36.023 E12.6092
G1 X29.197 Y-36.011 E12.6121
G1 X30.683 Y-35.305 E12.7747
G1 X30.710 Y-35.291 E12.7776
G1 X30.976 Y-35.146 E12.8076
G1 X31.002 Y-35.131 E12.8105
G1 X32.402 Y-34.266 E12.9731
G1 X32.427 Y-34.250 E12.9760
G1 X32.676 Y-34.076 E13.0061
G1 X32.700 Y-34.058 E13.0090
G1 X33.997 Y-33.045 E13.1715
G1 X34.019 Y-33.027 E13.1745
G1 X34.248 Y-32.827 E13.2045
G1 X34.270 Y-32.806 E13.2074
G1 X35.448 Y-31.657 E13.3700
G1 X35.469 Y-31.636 E13.3729
G1 X35.674 Y-31.412 E13.4029
G1 X35.694 Y-31.390 E13.4058
G1 X36.739 Y-30.119 E13.5684
G1 X36.757 Y-30.096 E13.5713
G1 X36.937 Y-29.851 E13.6013
G1 X36.954 Y-29.826 E13.6043
G1 X37.854 Y-28.448 E13.7668
G1 X37.869 Y-28.423 E13.7697
G1 X38.021 Y-28.160 E13.7998
G1 X38.035 Y-28.134 E13.8027
G1 X38.779 Y-26.666 E13.9653
G1 X38.791 Y-26.639 E13.9682
G1 X38.913 Y-26.361 E13.9982
G1 X38.925 Y-26.333 E14.0011
G1 X39.503 Y-24.793 E14.1637
G1 X39.513 Y-24.765 E14.1666
G1 X39.604 Y-24.475 E14.1966
G1 X39.612 Y-24.446 E14.1996
G1 X40.018 Y-22.851 E14.3621
G1 X40.024 Y-22.823 E14.3650
G1 X40.083 Y-22.524 E14.3951
G1 X40.088 Y-22.495 E14.3980
G1 X40.317 Y-20.866 E14.5605
G1 X40.320 Y-20.836 E14.5635
G1 X40.346 Y-20.533 E14.5935
G1 X40.348 Y-20.504 E14.5964
G1 X40.397 Y-18.859 E14.7590
G1 X40.397 Y-18.829 E14.7619
G1 X40.389 Y-18.525 E14.7919
G1 X40.388 Y-18.496 E14.7949
G1 X40.257 Y-16.855 E14.9574
G1 X40.253 Y-16.826 E14.9603
G1 X40.213 Y-16.525 E14.9904
G1 X40.208 Y-16.495 E14.9933
G1 X39.898 Y-14.879 E15.1558
G1 X39.892 Y-14.851 E15.1588
G1 X39.818 Y-14.556 E15.1888
G1 X39.810 Y-14.527 E15.1917
G1 X39.325 Y-12.955 E15.3543
G1 X39.316 Y-12.927 E15.3572
G1 X39.210 Y-12.641 E15.3872
G1 X39.199 Y-12.614 E15.3902
G1 X38.545 Y-11.104 E15.5527
G1 X38.532 Y-11.077 E15.5556
G1 X38.396 Y-10.805 E15.5857
G1 X38.382 Y-10.779 E15.5886
G1 X37.567 Y-9.350 E15.7511
G1 X37.551 Y-9.325 E15.7541
G1 X37.386 Y-9.069 E15.7841
G1 X37.370 Y-9.045 E15.7870
G1 X36.402 Y-7.714 E15.9496
G1 X36.384 Y-7.690 E15.9525
G1 X36.193 Y-7.454 E15.9825
G1 X36.173 Y-7.432 E15.9854
G1 X35.066 Y-6.215 E16.1480
G1 X35.045 Y-6.193 E16.1509
G1 X34.829 Y-5.980 E16.1810
G1 X34.807 Y-5.960 E16.1839
G1 X33.573 Y-4.871 E16.3464
G1 X33.551 Y-4.852 E16.3494
G1 X33.312 Y-4.664 E16.3794
G1 X33.288 Y-4.646 E16.3823
G1 X31.943 Y-3.699 E16.5449
G1 X31.918 Y-3.682 E16.5478
G1 X31.660 Y-3.521 E16.5778
G1 X31.635 Y-3.506 E16.5807
G1 X30.194 Y-2.712 E16.7433
G1 X30.167 Y-2.698 E16.7462
G1 X29.893 Y-2.566 E16.7762
G1 X29.866 Y-2.554 E16.7792
G1 X28.347 Y-1.923 E16.9417
G1 X28.319 Y-1.912 E16.9447
G1 X28.033 Y-1.811 E16.9747
G1 X28.004 Y-1.802 E16.9776
G1 X26.425 Y-1.340 E17.1402
G1 X26.396 Y-1.333 E17.1431
G1 X26.100 Y-1.264 E17.1731
G1 X26.071 Y-1.258 E17.1760
G1 X24.442 Y-0.971 E17.3394
G1 X24.411 Y-0.966 E17.3425
G1 X24.092 Y-0.929 E17.3743
G1 X24.061 Y-0.926 E17.3774
G1 X21.259 Y-0.762 E17.6547
G1 X20.487 Y-0.630 E17.7320
G1 X19.731 Y-0.413 E17.8097
G1 X19.003 Y-0.114 E17.8874
G1 X18.312 Y0.262 E17.9652
G1 X17.666 Y0.712 E18.0429
G1 X17.073 Y1.229 E18.1206
G1 X16.541 Y1.809 E18.1983
G1 X16.075 Y2.443 E18.2761
G1 X15.682 Y3.124 E18.3538
G1 X15.366 Y3.845 E18.4315
G1 X15.130 Y4.595 E18.5092
G1 X14.978 Y5.367 E18.5869
G1 X14.911 Y6.151 E18.6647
G1 X14.931 Y6.938 E18.7424
G1 X15.036 Y7.718 E18.8201
G1 X15.227 Y8.481 E18.8978
G1 X15.498 Y9.216 E18.9752
G1 X16.757 Y11.724 E19.2525
G1 X16.770 Y11.753 E19.2555
G1 X16.897 Y12.048 E19.2873
G1 X16.909 Y12.077 E19.2904
G1 X17.475 Y13.631 E19.4538
G1 X17.484 Y13.659 E19.4567
G1 X17.572 Y13.950 E19.4867
G1 X17.580 Y13.979 E19.4897
G1 X17.970 Y15.578 E19.6522
G1 X17.976 Y15.607 E19.6551
G1 X18.032 Y15.905 E19.6852
G1 X18.037 Y15.935 E19.6881
G1 X18.250 Y17.566 E19.8507
G1 X18.253 Y17.596 E19.8536
G1 X18.275 Y17.899 E19.8836
G1 X18.277 Y17.929 E19.8865
G1 X18.310 Y19.574 E20.0491
G1 X18.309 Y19.603 E20.0520
G1 X18.299 Y19.907 E20.0820
G1 X18.297 Y19.937 E20.0850
G1 X18.149 Y21.576 E20.2475
G1 X18.146 Y21.605 E20.2504
G1 X18.102 Y21.906 E20.2805
G1 X18.097 Y21.935 E20.2834
G1 X17.771 Y23.548 E20.4460
G1 X17.764 Y23.577 E20.4489
G1 X17.688 Y23.871 E20.4789
G1 X17.680 Y23.900 E20.4818
G1 X17.179 Y25.467 E20.6444
G1 X17.169 Y25.495 E20.6473
G1 X17.061 Y25.779 E20.6773
G1 X17.050 Y25.806 E20.6803
G1 X16.380 Y27.310 E20.8428
