; G-Code generated by Simplify3D(R) Version 3.1.0
; Jul 23, 2016 at 10:57:56 AM
; Settings Summary
;   processName,Process1
;   applyToModels,DUT Strut
;   profileName,Rostock MAX v2 (modified)
;   profileVersion,2015-05-01 08:00:00
;   baseProfile,
;   printMaterial,semiflex
;   printQuality,Medium
;   printExtruders,
;   extruderName,Primary Extruder
;   extruderToolheadNumber,0
;   extruderDiameter,0.4
;   extruderAutoWidth,1
;   extruderWidth,0.48
;   extrusionMultiplier,1.1
;   extruderUseRetract,1
;   extruderRetractionDistance,6
;   extruderExtraRestartDistance,0
;   extruderRetractionZLift,0.3
;   extruderRetractionSpeed,6600
;   extruderUseCoasting,0
;   extruderCoastingDistance,1
;   extruderUseWipe,1
;   extruderWipeDistance,5
;   primaryExtruder,0
;   layerHeight,0.2
;   topSolidLayers,3
;   bottomSolidLayers,3
;   perimeterOutlines,3
;   printPerimetersInsideOut,1
;   startPointOption,2
;   startPointOriginX,0
;   startPointOriginY,0
;   startPointOriginZ,300
;   sequentialIslands,0
;   spiralVaseMode,0
;   firstLayerHeightPercentage,25
;   firstLayerWidthPercentage,100
;   firstLayerUnderspeed,0.4
;   useRaft,0
;   raftExtruder,0
;   raftLayers,3
;   raftOffset,3
;   raftSeparationDistance,0.14
;   raftInfill,85
;   disableRaftBaseLayers,0
;   useSkirt,1
;   skirtExtruder,0
;   skirtLayers,1
;   skirtOutlines,3
;   skirtOffset,5
;   usePrimePillar,0
;   primePillarExtruder,999
;   primePillarWidth,12
;   primePillarLocation,7
;   primePillarSpeedMultiplier,1
;   useOozeShield,0
;   oozeShieldExtruder,999
;   oozeShieldOffset,2
;   oozeShieldOutlines,1
;   oozeShieldSidewallShape,1
;   oozeShieldSidewallAngle,30
;   oozeShieldSpeedMultiplier,1
;   infillExtruder,0
;   internalInfillPattern,Rectilinear
;   externalInfillPattern,Rectilinear
;   infillPercentage,100
;   outlineOverlapPercentage,25
;   infillExtrusionWidthPercentage,150
;   minInfillLength,5
;   infillLayerInterval,1
;   infillAngles,45,-45
;   overlapInfillAngles,0
;   generateSupport,0
;   supportExtruder,0
;   supportInfillPercentage,30
;   supportExtraInflation,0
;   denseSupportLayers,0
;   denseSupportInfillPercentage,70
;   supportLayerInterval,1
;   supportHorizontalPartOffset,0.3
;   supportUpperSeparationLayers,1
;   supportLowerSeparationLayers,1
;   supportType,0
;   supportGridSpacing,4
;   maxOverhangAngle,45
;   supportAngles,0
;   temperatureName,Primary Extruder,Heated Bed
;   temperatureNumber,0,1
;   temperatureSetpointCount,1,1
;   temperatureSetpointLayers,1,1
;   temperatureSetpointTemperatures,220,40
;   temperatureStabilizeAtStartup,1,1
;   temperatureHeatedBed,0,1
;   temperatureRelayBetweenLayers,0,0
;   temperatureRelayBetweenLoops,0,0
;   fanLayers,1,2
;   fanSpeeds,0,100
;   blipFanToFullPower,1
;   adjustSpeedForCooling,1
;   minSpeedLayerTime,15
;   minCoolingSpeedSlowdown,20
;   increaseFanForCooling,0
;   minFanLayerTime,60
;   maxCoolingFanSpeed,100
;   increaseFanForBridging,0
;   bridgingFanSpeed,100
;   use5D,1
;   relativeEdistances,0
;   allowEaxisZeroing,1
;   independentExtruderAxes,0
;   includeM10123,0
;   stickySupport,1
;   applyToolheadOffsets,0
;   gcodeXoffset,0
;   gcodeYoffset,0
;   gcodeZoffset,0
;   overrideMachineDefinition,1
;   machineTypeOverride,1
;   strokeXoverride,197
;   strokeYoverride,197
;   strokeZoverride,375
;   originOffsetXoverride,98.5
;   originOffsetYoverride,98.5
;   originOffsetZoverride,0
;   homeXdirOverride,0
;   homeYdirOverride,0
;   homeZdirOverride,1
;   flipXoverride,1
;   flipYoverride,-1
;   flipZoverride,1
;   toolheadOffsets,0,0|0,0|0,0|0,0|0,0|0,0
;   overrideFirmwareConfiguration,1
;   firmwareTypeOverride,RepRap (Marlin/Repetier/Sprinter)
;   GPXconfigOverride,r2
;   baudRateOverride,115200
;   overridePrinterModels,1
;   printerModelsOverride
;   startingGcode,G28 ; home all axes
;   layerChangeGcode,
;   retractionGcode,
;   toolChangeGcode,
;   endingGcode,M104 S0 ; turn off extruder,M140 S0 ; turn off bed,G28 ; home axes,M84 ; disable motors
;   exportFileFormat,gcode
;   celebration,0
;   celebrationSong,Random Song
;   postProcessing,
;   defaultSpeed,750
;   outlineUnderspeed,0.5
;   solidInfillUnderspeed,0.8
;   supportUnderspeed,0.8
;   rapidXYspeed,9000
;   rapidZspeed,1200
;   minBridgingArea,50
;   bridgingExtraInflation,0
;   bridgingExtrusionMultiplier,0.95
;   bridgingSpeedMultiplier,0.7
;   filamentDiameter,1.7
;   filamentPricePerKg,33.98
;   filamentDensity,1.25
;   useMinPrintHeight,0
;   minPrintHeight,0
;   useMaxPrintHeight,0
;   maxPrintHeight,0
;   useDiaphragm,0
;   diaphragmLayerInterval,20
;   robustSlicing,1
;   mergeAllIntoSolid,0
;   onlyRetractWhenCrossingOutline,1
;   retractBetweenLayers,1
;   useRetractionMinTravel,0
;   retractionMinTravel,3
;   retractWhileWiping,0
;   onlyWipeOutlines,1
;   avoidCrossingOutline,1
;   maxMovementDetourFactor,1
;   toolChangeRetractionDistance,12
;   toolChangeExtraRestartDistance,-0.5
;   toolChangeRetractionSpeed,600
;   allowThinWallGapFill,0
;   thinWallAllowedOverlapPercentage,10
;   horizontalSizeCompensation,0
G90
M82
M106 S0
M140 S40
M190 S40
M104 S220 T0
M109 S220 T0
G28 ; home all axes
G92 E0
G1 E-6.0000 F6600
G1 Z0.350 F1200
; layer 1, Z = 0.05
T0
; tool H0.200 W0.480
; skirt
G1 X2.371 Y10.266 F9000
G1 Z0.050 F1200
G1 E0.0000 F1980
G92 E0
G1 X2.324 Y10.276 E0.0022 F150
G1 X1.189 Y10.471 E0.0558
G1 X1.139 Y10.477 E0.0582
G1 X0.665 Y10.518 E0.0803
G1 X0.614 Y10.520 E0.0827
G1 X-0.619 Y10.520 E0.1400
G1 X-0.671 Y10.518 E0.1425
G1 X-1.157 Y10.475 E0.1651
G1 X-1.208 Y10.469 E0.1675
G1 X-2.420 Y10.256 E0.2248
G1 X-2.470 Y10.245 E0.2272
G1 X-2.934 Y10.121 E0.2495
G1 X-2.983 Y10.106 E0.2519
G1 X-4.119 Y9.698 E0.3080
G1 X-4.164 Y9.679 E0.3103
G1 X-4.579 Y9.491 E0.3315
G1 X-4.622 Y9.469 E0.3338
G1 X-5.682 Y8.879 E0.3902
G1 X-5.727 Y8.851 E0.3927
G1 X-6.138 Y8.572 E0.4158
G1 X-6.180 Y8.540 E0.4182
G1 X-7.116 Y7.776 E0.4744
G1 X-7.153 Y7.743 E0.4767
G1 X-7.483 Y7.424 E0.4981
G1 X-7.517 Y7.389 E0.5004
G1 X-8.068 Y6.764 E0.5391
G1 X-8.075 Y6.755 E0.5397
G1 X-8.142 Y6.676 E0.5445
G1 X-8.149 Y6.668 E0.5450
G1 X-8.439 Y6.312 E0.5663
G1 X-8.463 Y6.281 E0.5682
G1 X-8.679 Y5.977 E0.5855
G1 X-8.701 Y5.944 E0.5874
G1 X-9.000 Y5.459 E0.6139
G1 X-9.318 Y5.976 E0.6421
G1 X-9.345 Y6.015 E0.6444
G1 X-9.608 Y6.375 E0.6651
G1 X-9.638 Y6.413 E0.6673
G1 X-10.447 Y7.352 E0.7250
G1 X-10.483 Y7.390 E0.7275
G1 X-10.834 Y7.732 E0.7502
G1 X-10.873 Y7.767 E0.7526
G1 X-11.820 Y8.540 E0.8095
G1 X-11.862 Y8.572 E0.8120
G1 X-12.273 Y8.851 E0.8351
G1 X-12.318 Y8.879 E0.8376
G1 X-13.378 Y9.469 E0.8940
G1 X-13.421 Y9.491 E0.8963
G1 X-13.836 Y9.679 E0.9175
G1 X-13.881 Y9.698 E0.9197
G1 X-15.017 Y10.106 E0.9759
G1 X-15.066 Y10.121 E0.9783
G1 X-15.530 Y10.245 E1.0006
G1 X-15.580 Y10.256 E1.0030
G1 X-16.792 Y10.469 E1.0602
G1 X-16.843 Y10.475 E1.0627
G1 X-17.329 Y10.518 E1.0853
G1 X-17.381 Y10.520 E1.0877
G1 X-18.619 Y10.520 E1.1454
G1 X-18.671 Y10.518 E1.1478
G1 X-19.157 Y10.475 E1.1705
G1 X-19.208 Y10.469 E1.1729
G1 X-20.420 Y10.256 E1.2301
G1 X-20.470 Y10.245 E1.2325
G1 X-20.934 Y10.121 E1.2549
G1 X-20.983 Y10.106 E1.2572
G1 X-22.133 Y9.693 E1.3141
G1 X-22.181 Y9.673 E1.3165
G1 X-22.621 Y9.470 E1.3391
G1 X-22.668 Y9.446 E1.3415
G1 X-23.763 Y8.821 E1.4001
G1 X-23.805 Y8.795 E1.4025
G1 X-24.191 Y8.530 E1.4242
G1 X-24.231 Y8.499 E1.4266
G1 X-25.117 Y7.775 E1.4798
G1 X-25.154 Y7.742 E1.4821
G1 X-25.484 Y7.424 E1.5034
G1 X-25.518 Y7.389 E1.5057
G1 X-26.068 Y6.764 E1.5445
G1 X-26.075 Y6.755 E1.5450
G1 X-26.142 Y6.676 E1.5498
G1 X-26.149 Y6.668 E1.5503
G1 X-26.439 Y6.312 E1.5717
G1 X-26.464 Y6.280 E1.5735
G1 X-26.679 Y5.977 E1.5908
G1 X-26.701 Y5.944 E1.5927
G1 X-27.000 Y5.459 E1.6192
G1 X-27.318 Y5.976 E1.6474
G1 X-27.345 Y6.015 E1.6497
G1 X-27.608 Y6.375 E1.6704
G1 X-27.638 Y6.413 E1.6726
G1 X-28.447 Y7.352 E1.7303
G1 X-28.483 Y7.390 E1.7328
G1 X-28.834 Y7.732 E1.7555
G1 X-28.873 Y7.767 E1.7580
G1 X-29.820 Y8.540 E1.8149
G1 X-29.862 Y8.572 E1.8173
G1 X-30.273 Y8.851 E1.8404
G1 X-30.318 Y8.879 E1.8429
G1 X-31.378 Y9.469 E1.8993
G1 X-31.421 Y9.491 E1.9016
G1 X-31.836 Y9.679 E1.9228
G1 X-31.881 Y9.698 E1.9251
G1 X-33.017 Y10.106 E1.9812
G1 X-33.066 Y10.121 E1.9836
G1 X-33.530 Y10.245 E2.0059
G1 X-33.580 Y10.256 E2.0083
G1 X-34.792 Y10.469 E2.0655
G1 X-34.843 Y10.475 E2.0680
G1 X-35.329 Y10.518 E2.0906
G1 X-35.381 Y10.520 E2.0931
G1 X-36.619 Y10.520 E2.1507
G1 X-36.671 Y10.518 E2.1531
G1 X-37.157 Y10.475 E2.1758
G1 X-37.208 Y10.469 E2.1782
G1 X-38.420 Y10.256 E2.2354
G1 X-38.470 Y10.245 E2.2378
G1 X-38.934 Y10.121 E2.2602
G1 X-38.983 Y10.106 E2.2626
G1 X-40.133 Y9.693 E2.3194
G1 X-40.181 Y9.673 E2.3218
G1 X-40.621 Y9.470 E2.3444
G1 X-40.668 Y9.446 E2.3468
G1 X-41.763 Y8.821 E2.4055
G1 X-41.805 Y8.795 E2.4078
G1 X-42.191 Y8.529 E2.4296
G1 X-42.231 Y8.499 E2.4319
G1 X-43.117 Y7.775 E2.4852
G1 X-43.154 Y7.742 E2.4874
G1 X-43.484 Y7.424 E2.5087
G1 X-43.518 Y7.389 E2.5110
G1 X-44.068 Y6.764 E2.5498
G1 X-44.075 Y6.755 E2.5503
G1 X-44.142 Y6.676 E2.5551
G1 X-44.149 Y6.668 E2.5556
G1 X-44.439 Y6.312 E2.5770
G1 X-44.463 Y6.280 E2.5788
G1 X-44.679 Y5.977 E2.5961
G1 X-44.701 Y5.944 E2.5980
G1 X-45.277 Y5.008 E2.6491
G1 X-45.301 Y4.966 E2.6514
G1 X-45.508 Y4.559 E2.6726
G1 X-45.528 Y4.514 E2.6749
G1 X-45.969 Y3.438 E2.7290
G1 X-45.987 Y3.390 E2.7314
G1 X-46.130 Y2.932 E2.7537
G1 X-46.143 Y2.882 E2.7561
G1 X-46.418 Y1.643 E2.8152
G1 X-46.427 Y1.591 E2.8176
G1 X-46.491 Y1.103 E2.8405
G1 X-46.495 Y1.050 E2.8430
G1 X-46.547 Y-0.174 E2.9000
G1 X-46.547 Y-0.225 E2.9024
G1 X-46.527 Y-0.699 E2.9244
G1 X-46.522 Y-0.750 E2.9268
G1 X-46.369 Y-1.947 E2.9830
G1 X-46.360 Y-1.998 E2.9854
G1 X-46.259 Y-2.466 E3.0077
G1 X-46.246 Y-2.516 E3.0100
G1 X-45.881 Y-3.703 E3.0678
G1 X-45.864 Y-3.752 E3.0702
G1 X-45.682 Y-4.200 E3.0927
G1 X-45.661 Y-4.248 E3.0951
G1 X-45.122 Y-5.305 E3.1503
G1 X-45.099 Y-5.347 E3.1526
G1 X-44.860 Y-5.734 E3.1737
G1 X-44.833 Y-5.774 E3.1760
G1 X-44.119 Y-6.748 E3.2322
G1 X-44.085 Y-6.789 E3.2347
G1 X-43.760 Y-7.159 E3.2576
G1 X-43.724 Y-7.197 E3.2600
G1 X-42.855 Y-8.026 E3.3159
G1 X-42.819 Y-8.058 E3.3181
G1 X-42.467 Y-8.343 E3.3392
G1 X-42.428 Y-8.372 E3.3415
G1 X-41.438 Y-9.050 E3.3973
G1 X-41.394 Y-9.077 E3.3997
G1 X-40.978 Y-9.312 E3.4219
G1 X-40.932 Y-9.335 E3.4243
G1 X-39.782 Y-9.862 E3.4832
G1 X-39.726 Y-9.884 E3.4859
G1 X-39.198 Y-10.065 E3.5119
G1 X-39.140 Y-10.082 E3.5147
G1 X-37.612 Y-10.439 E3.5878
G1 X-37.544 Y-10.451 E3.5910
G1 X-36.903 Y-10.525 E3.6209
G1 X-36.835 Y-10.529 E3.6242
G1 X-35.223 Y-10.529 E3.6991
G1 X-35.167 Y-10.526 E3.7018
G1 X-34.641 Y-10.477 E3.7263
G1 X-34.585 Y-10.469 E3.7290
G1 X-33.877 Y-10.334 E3.7625
G1 X-33.858 Y-10.329 E3.7634
G1 X-33.677 Y-10.289 E3.7720
G1 X-33.658 Y-10.284 E3.7729
G1 X-32.746 Y-10.047 E3.8168
G1 X-32.696 Y-10.031 E3.8192
G1 X-32.235 Y-9.867 E3.8420
G1 X-32.187 Y-9.848 E3.8444
G1 X-31.068 Y-9.335 E3.9017
G1 X-31.022 Y-9.312 E3.9040
G1 X-30.606 Y-9.077 E3.9263
G1 X-30.562 Y-9.050 E3.9287
G1 X-29.572 Y-8.372 E3.9845
G1 X-29.533 Y-8.343 E3.9867
G1 X-29.181 Y-8.058 E4.0078
G1 X-29.145 Y-8.026 E4.0101
G1 X-28.276 Y-7.197 E4.0659
G1 X-28.240 Y-7.159 E4.0684
G1 X-27.914 Y-6.789 E4.0913
G1 X-27.881 Y-6.748 E4.0938
G1 X-27.167 Y-5.774 E4.1500
G1 X-27.140 Y-5.734 E4.1522
G1 X-27.000 Y-5.507 E4.1646
G1 X-26.860 Y-5.734 E4.1770
G1 X-26.833 Y-5.774 E4.1792
G1 X-26.119 Y-6.748 E4.2354
G1 X-26.086 Y-6.789 E4.2379
G1 X-25.760 Y-7.159 E4.2608
G1 X-25.724 Y-7.197 E4.2633
G1 X-24.855 Y-8.026 E4.3191
G1 X-24.819 Y-8.058 E4.3214
G1 X-24.467 Y-8.343 E4.3425
G1 X-24.428 Y-8.372 E4.3447
G1 X-23.438 Y-9.050 E4.4005
G1 X-23.394 Y-9.077 E4.4029
G1 X-22.978 Y-9.312 E4.4252
G1 X-22.932 Y-9.335 E4.4275
G1 X-21.782 Y-9.862 E4.4864
G1 X-21.726 Y-9.884 E4.4892
G1 X-21.197 Y-10.065 E4.5152
G1 X-21.140 Y-10.082 E4.5180
G1 X-19.612 Y-10.439 E4.5910
G1 X-19.544 Y-10.451 E4.5942
G1 X-18.903 Y-10.525 E4.6242
G1 X-18.835 Y-10.529 E4.6274
G1 X-17.223 Y-10.529 E4.7024
G1 X-17.167 Y-10.526 E4.7050
G1 X-16.641 Y-10.477 E4.7296
G1 X-16.585 Y-10.469 E4.7322
G1 X-15.877 Y-10.334 E4.7657
G1 X-15.858 Y-10.329 E4.7666
G1 X-15.677 Y-10.289 E4.7753
G1 X-15.658 Y-10.284 E4.7762
G1 X-14.746 Y-10.047 E4.8200
G1 X-14.696 Y-10.031 E4.8225
G1 X-14.235 Y-9.867 E4.8452
G1 X-14.187 Y-9.848 E4.8477
G1 X-13.068 Y-9.335 E4.9049
G1 X-13.022 Y-9.312 E4.9073
G1 X-12.606 Y-9.077 E4.9295
G1 X-12.562 Y-9.050 E4.9319
G1 X-11.572 Y-8.372 E4.9877
G1 X-11.533 Y-8.343 E4.9900
G1 X-11.181 Y-8.058 E5.0111
G1 X-11.145 Y-8.026 E5.0133
G1 X-10.276 Y-7.197 E5.0692
G1 X-10.240 Y-7.159 E5.0716
G1 X-9.914 Y-6.789 E5.0945
G1 X-9.881 Y-6.748 E5.0970
G1 X-9.167 Y-5.774 E5.1532
G1 X-9.140 Y-5.734 E5.1555
G1 X-9.000 Y-5.507 E5.1678
G1 X-8.860 Y-5.734 E5.1802
G1 X-8.833 Y-5.774 E5.1825
G1 X-8.114 Y-6.754 E5.2390
G1 X-8.080 Y-6.796 E5.2416
G1 X-7.744 Y-7.176 E5.2651
G1 X-7.707 Y-7.215 E5.2677
G1 X-6.793 Y-8.078 E5.3261
G1 X-6.756 Y-8.110 E5.3284
G1 X-6.401 Y-8.394 E5.3495
G1 X-6.362 Y-8.423 E5.3518
G1 X-5.414 Y-9.064 E5.4050
G1 X-5.372 Y-9.090 E5.4073
G1 X-4.969 Y-9.316 E5.4288
G1 X-4.925 Y-9.339 E5.4312
G1 X-3.782 Y-9.862 E5.4897
G1 X-3.726 Y-9.884 E5.4924
G1 X-3.198 Y-10.065 E5.5184
G1 X-3.140 Y-10.082 E5.5212
G1 X-1.612 Y-10.439 E5.5942
G1 X-1.544 Y-10.451 E5.5975
G1 X-0.903 Y-10.525 E5.6274
G1 X-0.835 Y-10.529 E5.6306
G1 X0.777 Y-10.529 E5.7056
G1 X0.833 Y-10.526 E5.7082
G1 X1.359 Y-10.477 E5.7328
G1 X1.415 Y-10.469 E5.7355
G1 X2.123 Y-10.334 E5.7690
G1 X2.142 Y-10.329 E5.7699
G1 X2.323 Y-10.289 E5.7785
G1 X2.342 Y-10.284 E5.7794
G1 X3.254 Y-10.047 E5.8233
G1 X3.304 Y-10.031 E5.8257
G1 X3.765 Y-9.867 E5.8485
G1 X3.813 Y-9.848 E5.8509
G1 X4.932 Y-9.335 E5.9081
G1 X4.978 Y-9.312 E5.9105
G1 X5.394 Y-9.077 E5.9328
G1 X5.438 Y-9.050 E5.9352
G1 X6.428 Y-8.372 E5.9910
G1 X6.467 Y-8.343 E5.9932
G1 X6.819 Y-8.058 E6.0143
G1 X6.855 Y-8.026 E6.0166
G1 X7.724 Y-7.197 E6.0724
G1 X7.760 Y-7.159 E6.0749
G1 X8.085 Y-6.789 E6.0978
G1 X8.119 Y-6.748 E6.1002
G1 X8.833 Y-5.774 E6.1564
G1 X8.860 Y-5.734 E6.1587
G1 X9.000 Y-5.507 E6.1711
G1 X9.140 Y-5.734 E6.1835
G1 X9.167 Y-5.774 E6.1857
G1 X9.886 Y-6.754 E6.2423
G1 X9.920 Y-6.796 E6.2448
G1 X10.256 Y-7.176 E6.2684
G1 X10.293 Y-7.215 E6.2709
G1 X11.207 Y-8.078 E6.3294
G1 X11.244 Y-8.110 E6.3316
G1 X11.599 Y-8.394 E6.3528
G1 X11.638 Y-8.423 E6.3551
G1 X12.585 Y-9.064 E6.4083
G1 X12.628 Y-9.090 E6.4106
G1 X13.031 Y-9.316 E6.4321
G1 X13.075 Y-9.339 E6.4344
G1 X14.218 Y-9.862 E6.4929
G1 X14.274 Y-9.884 E6.4957
G1 X14.802 Y-10.065 E6.5217
G1 X14.860 Y-10.082 E6.5245
G1 X16.388 Y-10.439 E6.5975
G1 X16.456 Y-10.451 E6.6007
G1 X17.097 Y-10.525 E6.6307
G1 X17.165 Y-10.529 E6.6339
G1 X18.777 Y-10.529 E6.7088
G1 X18.833 Y-10.526 E6.7115
G1 X19.359 Y-10.477 E6.7361
G1 X19.415 Y-10.469 E6.7387
G1 X20.123 Y-10.334 E6.7722
G1 X20.142 Y-10.329 E6.7731
G1 X20.323 Y-10.289 E6.7817
G1 X20.342 Y-10.284 E6.7827
G1 X21.254 Y-10.047 E6.8265
G1 X21.304 Y-10.031 E6.8289
G1 X21.765 Y-9.867 E6.8517
G1 X21.813 Y-9.848 E6.8541
G1 X22.932 Y-9.335 E6.9114
G1 X22.978 Y-9.312 E6.9138
G1 X23.394 Y-9.077 E6.9360
G1 X23.438 Y-9.050 E6.9384
G1 X24.428 Y-8.372 E6.9942
G1 X24.467 Y-8.343 E6.9965
G1 X24.819 Y-8.058 E7.0176
G1 X24.855 Y-8.026 E7.0198
G1 X25.724 Y-7.197 E7.0756
G1 X25.760 Y-7.159 E7.0781
G1 X26.085 Y-6.789 E7.1010
G1 X26.119 Y-6.748 E7.1035
G1 X26.833 Y-5.774 E7.1597
G1 X26.860 Y-5.734 E7.1619
G1 X27.000 Y-5.507 E7.1743
G1 X27.140 Y-5.734 E7.1867
G1 X27.167 Y-5.774 E7.1890
G1 X27.886 Y-6.754 E7.2455
G1 X27.920 Y-6.796 E7.2480
G1 X28.256 Y-7.176 E7.2716
G1 X28.293 Y-7.215 E7.2742
G1 X29.207 Y-8.078 E7.3326
G1 X29.244 Y-8.110 E7.3349
G1 X29.599 Y-8.394 E7.3560
G1 X29.638 Y-8.423 E7.3583
G1 X30.586 Y-9.064 E7.4115
G1 X30.628 Y-9.090 E7.4138
G1 X31.031 Y-9.316 E7.4353
G1 X31.075 Y-9.339 E7.4376
G1 X32.218 Y-9.862 E7.4961
G1 X32.274 Y-9.884 E7.4989
G1 X32.802 Y-10.065 E7.5249
G1 X32.860 Y-10.081 E7.5277
G1 X34.384 Y-10.438 E7.6005
G1 X34.452 Y-10.450 E7.6037
G1 X35.090 Y-10.524 E7.6336
G1 X35.159 Y-10.528 E7.6368
G1 X36.767 Y-10.529 E7.7116
G1 X36.823 Y-10.527 E7.7143
G1 X37.346 Y-10.478 E7.7387
G1 X37.402 Y-10.470 E7.7413
G1 X38.114 Y-10.335 E7.7750
G1 X38.134 Y-10.331 E7.7760
G1 X38.320 Y-10.290 E7.7848
G1 X38.339 Y-10.285 E7.7858
