; G-Code generated by Simplify3D(R) Version 3.1.1
; Dec 21, 2016 at 1:11:58 AM
; Settings Summary
;   processName,Process1
;   applyToModels,NozzleHolder
;   profileName,Rostock MAX v2 (modified)
;   profileVersion,2015-05-01 08:00:00
;   baseProfile,
;   printMaterial,Iron PLA
;   printQuality,Medium
;   printExtruders,
;   extruderName,Primary Extruder
;   extruderToolheadNumber,0
;   extruderDiameter,0.6
;   extruderAutoWidth,1
;   extruderWidth,0.72
;   extrusionMultiplier,1.1
;   extruderUseRetract,1
;   extruderRetractionDistance,2
;   extruderExtraRestartDistance,-0.2
;   extruderRetractionZLift,0
;   extruderRetractionSpeed,1800
;   extruderUseCoasting,1
;   extruderCoastingDistance,0.5
;   extruderUseWipe,0
;   extruderWipeDistance,5
;   primaryExtruder,0
;   layerHeight,0.3
;   topSolidLayers,3
;   bottomSolidLayers,3
;   perimeterOutlines,3
;   printPerimetersInsideOut,1
;   startPointOption,2
;   startPointOriginX,0
;   startPointOriginY,0
;   startPointOriginZ,300
;   sequentialIslands,0
;   spiralVaseMode,0
;   firstLayerHeightPercentage,25
;   firstLayerWidthPercentage,100
;   firstLayerUnderspeed,0.4
;   useRaft,0
;   raftExtruder,0
;   raftLayers,3
;   raftOffset,15
;   raftSeparationDistance,0.14
;   raftInfill,85
;   disableRaftBaseLayers,0
;   useSkirt,1
;   skirtExtruder,0
;   skirtLayers,1
;   skirtOutlines,2
;   skirtOffset,5
;   usePrimePillar,0
;   primePillarExtruder,999
;   primePillarWidth,12
;   primePillarLocation,7
;   primePillarSpeedMultiplier,1
;   useOozeShield,0
;   oozeShieldExtruder,999
;   oozeShieldOffset,2
;   oozeShieldOutlines,1
;   oozeShieldSidewallShape,1
;   oozeShieldSidewallAngle,30
;   oozeShieldSpeedMultiplier,1
;   infillExtruder,0
;   internalInfillPattern,Rectilinear
;   externalInfillPattern,Rectilinear
;   infillPercentage,85
;   outlineOverlapPercentage,40
;   infillExtrusionWidthPercentage,100
;   minInfillLength,3
;   infillLayerInterval,1
;   infillAngles,45,-45
;   overlapInfillAngles,0
;   generateSupport,0
;   supportExtruder,0
;   supportInfillPercentage,30
;   supportExtraInflation,0
;   denseSupportLayers,0
;   denseSupportInfillPercentage,70
;   supportLayerInterval,1
;   supportHorizontalPartOffset,0.3
;   supportUpperSeparationLayers,1
;   supportLowerSeparationLayers,1
;   supportType,0
;   supportGridSpacing,4
;   maxOverhangAngle,70
;   supportAngles,0
;   temperatureName,Primary Extruder,Heated Bed
;   temperatureNumber,0,1
;   temperatureSetpointCount,1,1
;   temperatureSetpointLayers,1,1
;   temperatureSetpointTemperatures,225,60
;   temperatureStabilizeAtStartup,1,1
;   temperatureHeatedBed,0,1
;   temperatureRelayBetweenLayers,0,0
;   temperatureRelayBetweenLoops,0,0
;   fanLayers,1,2
;   fanSpeeds,0,100
;   blipFanToFullPower,1
;   adjustSpeedForCooling,1
;   minSpeedLayerTime,5
;   minCoolingSpeedSlowdown,80
;   increaseFanForCooling,0
;   minFanLayerTime,60
;   maxCoolingFanSpeed,100
;   increaseFanForBridging,0
;   bridgingFanSpeed,100
;   use5D,1
;   relativeEdistances,0
;   allowEaxisZeroing,1
;   independentExtruderAxes,0
;   includeM10123,0
;   stickySupport,1
;   applyToolheadOffsets,0
;   gcodeXoffset,0
;   gcodeYoffset,0
;   gcodeZoffset,0
;   overrideMachineDefinition,1
;   machineTypeOverride,1
;   strokeXoverride,197
;   strokeYoverride,197
;   strokeZoverride,375
;   originOffsetXoverride,98.5
;   originOffsetYoverride,98.5
;   originOffsetZoverride,0
;   homeXdirOverride,0
;   homeYdirOverride,0
;   homeZdirOverride,1
;   flipXoverride,1
;   flipYoverride,-1
;   flipZoverride,1
;   toolheadOffsets,0,0|0,0|0,0|0,0|0,0|0,0
;   overrideFirmwareConfiguration,1
;   firmwareTypeOverride,RepRap (Marlin/Repetier/Sprinter)
;   GPXconfigOverride,r2
;   baudRateOverride,115200
;   overridePrinterModels,1
;   printerModelsOverride
;   startingGcode,G28 ; home all axes
;   layerChangeGcode,
;   retractionGcode,
;   toolChangeGcode,
;   endingGcode,M104 S0 ; turn off extruder,M140 S0 ; turn off bed,G28 ; home axes,M84 ; disable motors
;   exportFileFormat,gcode
;   celebration,0
;   celebrationSong,Random Song
;   postProcessing,
;   defaultSpeed,1000
;   outlineUnderspeed,0.5
;   solidInfillUnderspeed,0.8
;   supportUnderspeed,0.8
;   rapidXYspeed,9000
;   rapidZspeed,1200
;   minBridgingArea,50
;   bridgingExtraInflation,0
;   bridgingExtrusionMultiplier,0.8
;   bridgingSpeedMultiplier,1.25
;   filamentDiameter,1.75
;   filamentPricePerKg,22
;   filamentDensity,1.25
;   useMinPrintHeight,0
;   minPrintHeight,0.05
;   useMaxPrintHeight,0
;   maxPrintHeight,0
;   useDiaphragm,0
;   diaphragmLayerInterval,20
;   robustSlicing,1
;   mergeAllIntoSolid,0
;   onlyRetractWhenCrossingOutline,0
;   retractBetweenLayers,0
;   useRetractionMinTravel,0
;   retractionMinTravel,3
;   retractWhileWiping,1
;   onlyWipeOutlines,1
;   avoidCrossingOutline,1
;   maxMovementDetourFactor,1.5
;   toolChangeRetractionDistance,12
;   toolChangeExtraRestartDistance,-0.5
;   toolChangeRetractionSpeed,600
;   allowThinWallGapFill,0
;   thinWallAllowedOverlapPercentage,10
;   horizontalSizeCompensation,0
G90
M82
M106 S0
M140 S60
M190 S60
M104 S225 T0
M109 S225 T0
G28 ; home all axes
G92 E0
G1 E-2.0000 F1800
G1 Z0.075 F1200
; layer 1, Z = 0.075
T0
; tool H0.300 W0.720
; skirt
G1 X-3.873 Y9.284 F9000
G1 E-0.2000 F540
G92 E0
G1 X-3.066 Y10.209 E0.1213 F400
G1 X-2.993 Y10.316 E0.1341
G1 X-2.257 Y11.736 E0.2920
G1 X-2.212 Y11.857 E0.3048
G1 X-1.896 Y13.147 E0.4360
G1 X-1.881 Y13.275 E0.4487
G1 X-1.879 Y15.819 E0.7000
G1 X-1.883 Y15.884 E0.7064
G1 X-1.962 Y16.545 E0.7722
G1 X-1.974 Y16.609 E0.7786
G1 X-2.169 Y17.408 E0.8598
G1 X-2.185 Y17.461 E0.8653
G1 X-2.376 Y17.997 E0.9216
G1 X-2.397 Y18.048 E0.9270
G1 X-2.730 Y18.747 E1.0035
G1 X-2.756 Y18.796 E1.0090
G1 X-3.053 Y19.282 E1.0652
G1 X-3.084 Y19.328 E1.0707
G1 X-3.553 Y19.944 E1.1472
G1 X-3.588 Y19.987 E1.1527
G1 X-3.977 Y20.402 E1.2089
G1 X-4.017 Y20.440 E1.2144
G1 X-4.602 Y20.948 E1.2908
G1 X-4.645 Y20.982 E1.2963
G1 X-5.111 Y21.310 E1.3526
G1 X-5.158 Y21.339 E1.3580
G1 X-5.834 Y21.717 E1.4345
G1 X-5.883 Y21.742 E1.4400
G1 X-6.406 Y21.967 E1.4962
G1 X-6.458 Y21.987 E1.5017
G1 X-7.197 Y22.219 E1.5782
G1 X-7.250 Y22.233 E1.5837
G1 X-7.808 Y22.347 E1.6399
G1 X-7.863 Y22.356 E1.6454
G1 X-8.728 Y22.442 E1.7313
G1 X-8.802 Y22.444 E1.7386
G1 X-9.561 Y22.416 E1.8136
G1 X-9.635 Y22.408 E1.8209
G1 X-16.623 Y21.176 E2.5219
G1 X-16.655 Y21.169 E2.5251
G1 X-16.984 Y21.090 E2.5585
G1 X-17.016 Y21.081 E2.5618
G1 X-17.893 Y20.813 E2.6525
G1 X-17.916 Y20.806 E2.6548
G1 X-18.144 Y20.725 E2.6787
G1 X-18.166 Y20.717 E2.6810
G1 X-18.778 Y20.469 E2.7462
G1 X-18.800 Y20.460 E2.7486
G1 X-19.020 Y20.360 E2.7725
G1 X-19.041 Y20.350 E2.7748
G1 X-19.859 Y19.933 E2.8655
G1 X-19.888 Y19.917 E2.8687
G1 X-20.180 Y19.745 E2.9022
G1 X-20.208 Y19.728 E2.9054
G1 X-21.163 Y19.084 E3.0192
G1 X-21.185 Y19.068 E3.0220
G1 X-21.417 Y18.893 E3.0506
G1 X-21.439 Y18.875 E3.0534
G1 X-21.964 Y18.435 E3.1211
G1 X-21.982 Y18.420 E3.1234
G1 X-22.160 Y18.257 E3.1473
G1 X-22.177 Y18.240 E3.1496
G1 X-22.809 Y17.608 E3.2379
G1 X-22.829 Y17.588 E3.2407
G1 X-23.023 Y17.372 E3.2694
G1 X-23.041 Y17.351 E3.2722
G1 X-23.619 Y16.637 E3.3629
G1 X-23.636 Y16.615 E3.3657
G1 X-23.807 Y16.380 E3.3943
G1 X-23.823 Y16.356 E3.3971
G1 X-24.337 Y15.565 E3.4903
G1 X-24.354 Y15.537 E3.4936
G1 X-24.521 Y15.242 E3.5270
G1 X-24.536 Y15.213 E3.5303
G1 X-25.051 Y14.157 E3.6463
G1 X-25.065 Y14.127 E3.6496
G1 X-25.194 Y13.815 E3.6830
G1 X-25.206 Y13.784 E3.6862
G1 X-25.521 Y12.871 E3.7817
G1 X-25.531 Y12.839 E3.7850
G1 X-25.621 Y12.513 E3.8184
G1 X-25.629 Y12.481 E3.8217
G1 X-25.874 Y11.331 E3.9378
G1 X-25.879 Y11.298 E3.9411
G1 X-25.930 Y10.964 E3.9745
G1 X-25.933 Y10.931 E3.9778
G1 X-26.014 Y10.016 E4.0684
G1 X-26.015 Y9.993 E4.0708
G1 X-26.026 Y9.751 E4.0946
G1 X-26.026 Y9.728 E4.0970
G1 X-26.030 Y-8.450 E5.8926
G1 X-26.030 Y-8.469 E5.8945
G1 X-26.023 Y-8.662 E5.9136
G1 X-26.022 Y-8.681 E5.9155
G1 X-25.924 Y-10.083 E6.0543
G1 X-25.920 Y-10.120 E6.0580
G1 X-25.866 Y-10.503 E6.0962
G1 X-25.860 Y-10.540 E6.0999
G1 X-25.548 Y-12.010 E6.2484
G1 X-25.538 Y-12.047 E6.2521
G1 X-25.432 Y-12.419 E6.2903
G1 X-25.420 Y-12.455 E6.2940
G1 X-24.923 Y-13.822 E6.4377
G1 X-24.913 Y-13.848 E6.4405
G1 X-24.799 Y-14.115 E6.4692
G1 X-24.787 Y-14.141 E6.4720
G1 X-24.426 Y-14.883 E6.5536
G1 X-24.415 Y-14.904 E6.5559
G1 X-24.299 Y-15.117 E6.5798
G1 X-24.288 Y-15.138 E6.5821
G1 X-23.707 Y-16.104 E6.6935
G1 X-23.689 Y-16.132 E6.6968
G1 X-23.497 Y-16.411 E6.7302
G1 X-23.478 Y-16.437 E6.7335
G1 X-22.583 Y-17.582 E6.8770
G1 X-22.562 Y-17.608 E6.8803
G1 X-22.338 Y-17.861 E6.9137
G1 X-22.315 Y-17.885 E6.9169
G1 X-21.501 Y-18.699 E7.0307
G1 X-21.481 Y-18.719 E7.0335
G1 X-21.265 Y-18.913 E7.0621
G1 X-21.244 Y-18.931 E7.0649
G1 X-20.368 Y-19.641 E7.1763
G1 X-20.345 Y-19.658 E7.1791
G1 X-20.111 Y-19.829 E7.2078
G1 X-20.087 Y-19.845 E7.2105
G1 X-19.162 Y-20.446 E7.3195
G1 X-19.142 Y-20.458 E7.3219
G1 X-18.933 Y-20.581 E7.3458
G1 X-18.913 Y-20.593 E7.3481
G1 X-18.226 Y-20.958 E7.4249
G1 X-18.210 Y-20.966 E7.4268
G1 X-18.036 Y-21.051 E7.4459
G1 X-18.019 Y-21.059 E7.4478
G1 X-17.311 Y-21.374 E7.5243
G1 X-17.289 Y-21.384 E7.5266
G1 X-17.065 Y-21.472 E7.5504
G1 X-17.043 Y-21.480 E7.5528
G1 X-16.000 Y-21.840 E7.6617
G1 X-15.973 Y-21.848 E7.6645
G1 X-15.694 Y-21.928 E7.6932
G1 X-15.666 Y-21.935 E7.6960
G1 X-14.568 Y-22.189 E7.8074
G1 X-14.540 Y-22.195 E7.8102
G1 X-14.254 Y-22.245 E7.8388
G1 X-14.226 Y-22.249 E7.8416
G1 X-13.131 Y-22.384 E7.9506
G1 X-13.108 Y-22.386 E7.9529
G1 X-12.867 Y-22.405 E7.9768
G1 X-12.843 Y-22.407 E7.9791
G1 X-12.116 Y-22.432 E8.0511
G1 X-12.106 Y-22.432 E8.0520
G1 X-12.008 Y-22.434 E8.0617
G1 X-11.999 Y-22.434 E8.0626
G1 X12.374 Y-22.429 E10.4702
G1 X12.402 Y-22.428 E10.4730
G1 X12.691 Y-22.413 E10.5015
G1 X12.719 Y-22.411 E10.5043
G1 X14.165 Y-22.259 E10.6480
G1 X14.202 Y-22.254 E10.6517
G1 X14.583 Y-22.187 E10.6899
G1 X14.620 Y-22.179 E10.6936
G1 X16.032 Y-21.828 E10.8373
G1 X16.059 Y-21.820 E10.8401
G1 X16.336 Y-21.735 E10.8688
G1 X16.363 Y-21.726 E10.8716
G1 X17.160 Y-21.436 E10.9554
G1 X17.187 Y-21.426 E10.9582
G1 X17.454 Y-21.312 E10.9868
G1 X17.480 Y-21.301 E10.9896
G1 X18.744 Y-20.684 E11.1285
G1 X18.769 Y-20.671 E11.1313
G1 X19.023 Y-20.531 E11.1600
G1 X19.047 Y-20.516 E11.1628
G1 X19.746 Y-20.080 E11.2442
G1 X19.766 Y-20.067 E11.2465
G1 X19.965 Y-19.930 E11.2704
G1 X19.984 Y-19.916 E11.2728
G1 X20.865 Y-19.252 E11.3817
G1 X20.888 Y-19.235 E11.3845
G1 X21.110 Y-19.048 E11.4132
G1 X21.131 Y-19.030 E11.4160
G1 X21.956 Y-18.261 E11.5274
G1 X21.976 Y-18.241 E11.5302
G1 X22.177 Y-18.032 E11.5588
G1 X22.197 Y-18.011 E11.5616
G1 X22.921 Y-17.179 E11.6706
G1 X22.936 Y-17.161 E11.6729
G1 X23.086 Y-16.972 E11.6968
G1 X23.100 Y-16.953 E11.6991
G1 X23.557 Y-16.325 E11.7758
G1 X23.567 Y-16.310 E11.7777
G1 X23.676 Y-16.149 E11.7968
G1 X23.686 Y-16.133 E11.7986
G1 X24.097 Y-15.475 E11.8753
G1 X24.109 Y-15.455 E11.8776
G1 X24.228 Y-15.245 E11.9015
G1 X24.239 Y-15.224 E11.9038
G1 X24.741 Y-14.241 E12.0128
G1 X24.753 Y-14.216 E12.0156
G1 X24.871 Y-13.951 E12.0443
G1 X24.882 Y-13.924 E12.0470
G1 X25.286 Y-12.872 E12.1584
G1 X25.295 Y-12.845 E12.1612
G1 X25.385 Y-12.569 E12.1899
G1 X25.393 Y-12.542 E12.1927
G1 X25.685 Y-11.453 E12.3041
G1 X25.692 Y-11.426 E12.3068
G1 X25.752 Y-11.142 E12.3355
G1 X25.757 Y-11.114 E12.3383
G1 X25.934 Y-10.000 E12.4497
G1 X25.937 Y-9.972 E12.4525
G1 X25.968 Y-9.684 E12.4811
G1 X25.970 Y-9.656 E12.4839
G1 X26.025 Y-8.602 E12.5882
G1 X26.026 Y-8.588 E12.5896
G1 X26.030 Y-8.441 E12.6040
G1 X26.030 Y-8.427 E12.6054
G1 X26.026 Y9.701 E14.3962
G1 X26.026 Y9.720 E14.3980
G1 X26.019 Y9.912 E14.4170
G1 X26.018 Y9.931 E14.4189
G1 X25.972 Y10.589 E14.4841
G1 X25.970 Y10.617 E14.4869
G1 X25.934 Y10.905 E14.5156
G1 X25.930 Y10.933 E14.5184
G1 X25.735 Y12.044 E14.6297
G1 X25.729 Y12.071 E14.6325
G1 X25.664 Y12.354 E14.6612
G1 X25.657 Y12.381 E14.6640
G1 X25.461 Y13.063 E14.7340
G1 X25.453 Y13.090 E14.7368
G1 X25.358 Y13.364 E14.7654
G1 X25.349 Y13.391 E14.7682
G1 X24.908 Y14.481 E14.8844
G1 X24.893 Y14.515 E14.8881
G1 X24.723 Y14.863 E14.9263
G1 X24.706 Y14.896 E14.9300
G1 X24.106 Y15.935 E15.0485
G1 X24.089 Y15.963 E15.0518
G1 X23.902 Y16.246 E15.0852
G1 X23.883 Y16.273 E15.0885
G1 X23.316 Y17.025 E15.1816
G1 X23.298 Y17.048 E15.1844
G1 X23.112 Y17.270 E15.2130
G1 X23.093 Y17.291 E15.2158
G1 X22.467 Y17.963 E15.3065
G1 X22.447 Y17.983 E15.3093
G1 X22.239 Y18.184 E15.3380
G1 X22.218 Y18.204 E15.3408
G1 X21.507 Y18.822 E15.4339
G1 X21.481 Y18.843 E15.4371
G1 X21.212 Y19.049 E15.4706
G1 X21.186 Y19.068 E15.4738
G1 X20.211 Y19.726 E15.5900
G1 X20.183 Y19.743 E15.5932
G1 X19.892 Y19.915 E15.6266
G1 X19.863 Y19.931 E15.6299
G1 X19.045 Y20.348 E15.7206
G1 X19.024 Y20.358 E15.7229
G1 X18.804 Y20.459 E15.7468
G1 X18.782 Y20.468 E15.7491
G1 X18.169 Y20.715 E15.8144
G1 X18.147 Y20.724 E15.8167
G1 X17.919 Y20.804 E15.8406
G1 X17.897 Y20.812 E15.8429
G1 X17.020 Y21.080 E15.9335
G1 X16.988 Y21.089 E15.9368
G1 X16.661 Y21.168 E15.9700
G1 X16.629 Y21.174 E15.9733
G1 X9.627 Y22.415 E16.6757
G1 X9.544 Y22.423 E16.6840
G1 X8.687 Y22.441 E16.7686
G1 X8.604 Y22.436 E16.7768
G1 X7.371 Y22.271 E16.8997
G1 X7.281 Y22.251 E16.9088
G1 X6.375 Y21.966 E17.0027
G1 X6.289 Y21.931 E17.0118
G1 X5.142 Y21.340 E17.1393
G1 X5.063 Y21.291 E17.1485
G1 X4.305 Y20.719 E17.2423
G1 X4.236 Y20.657 E17.2514
G1 X3.354 Y19.715 E17.3789
G1 X3.296 Y19.642 E17.3881
G1 X2.774 Y18.849 E17.4819
G1 X2.730 Y18.767 E17.4911
G1 X2.253 Y17.672 E17.6091
G1 X2.228 Y17.602 E17.6165
G1 X2.023 Y16.871 E17.6915
G1 X2.007 Y16.798 E17.6988
G1 X1.901 Y16.029 E17.7755
G1 X1.898 Y15.992 E17.7792
G1 X1.872 Y15.609 E17.8171
G1 X1.870 Y15.571 E17.8208
G1 X1.873 Y13.551 E18.0204
G1 X1.880 Y13.467 E18.0287
G1 X2.016 Y12.610 E18.1144
G1 X2.036 Y12.528 E18.1227
G1 X2.384 Y11.457 E18.2340
G1 X2.421 Y11.370 E18.2433
G1 X2.876 Y10.514 E18.3390
G1 X2.927 Y10.435 E18.3484
G1 X3.549 Y9.638 E18.4482
G1 X3.600 Y9.582 E18.4557
G1 X3.880 Y9.311 E18.4942
G1 X3.878 Y-0.280 E19.4417
G1 X-3.872 Y-0.289 E20.2073
G1 X-3.873 Y8.784 E21.1035
G1 X-3.873 Y9.284 F400
G92 E0
G1 E-2.0000 F1800
G1 X-4.593 Y9.609 F9000
G1 E-0.2000 F1800
G92 E0
G1 X-4.486 Y9.684 E0.0129 F400
G1 X-4.454 Y9.713 E0.0171
G1 X-3.636 Y10.650 E0.1400
G1 X-3.612 Y10.686 E0.1443
G1 X-2.916 Y12.029 E0.2937
G1 X-2.901 Y12.069 E0.2980
G1 X-2.606 Y13.276 E0.4207
G1 X-2.601 Y13.319 E0.4250
G1 X-2.599 Y15.798 E0.6698
G1 X-2.600 Y15.819 E0.6720
G1 X-2.675 Y16.438 E0.7335
G1 X-2.678 Y16.459 E0.7356
G1 X-2.864 Y17.219 E0.8129
G1 X-2.869 Y17.237 E0.8147
G1 X-3.048 Y17.738 E0.8673
G1 X-3.055 Y17.755 E0.8691
G1 X-3.372 Y18.421 E0.9420
G1 X-3.381 Y18.437 E0.9438
G1 X-3.658 Y18.892 E0.9964
G1 X-3.668 Y18.907 E0.9982
G1 X-4.115 Y19.494 E1.0710
G1 X-4.126 Y19.508 E1.0729
G1 X-4.490 Y19.896 E1.1254
G1 X-4.504 Y19.909 E1.1272
G1 X-5.060 Y20.393 E1.2001
G1 X-5.075 Y20.404 E1.2019
G1 X-5.510 Y20.710 E1.2545
G1 X-5.526 Y20.720 E1.2563
G1 X-6.169 Y21.080 E1.3291
G1 X-6.186 Y21.088 E1.3310
G1 X-6.674 Y21.299 E1.3835
G1 X-6.692 Y21.305 E1.3854
G1 X-7.395 Y21.527 E1.4582
G1 X-7.413 Y21.531 E1.4600
G1 X-7.934 Y21.638 E1.5126
G1 X-7.953 Y21.641 E1.5144
G1 X-8.775 Y21.723 E1.5961
G1 X-8.800 Y21.724 E1.5985
G1 X-9.510 Y21.697 E1.6687
G1 X-9.534 Y21.694 E1.6711
G1 X-16.487 Y20.468 E2.3685
G1 X-16.498 Y20.466 E2.3696
G1 X-16.805 Y20.392 E2.4008
G1 X-16.816 Y20.390 E2.4019
G1 X-17.676 Y20.127 E2.4907
G1 X-17.683 Y20.124 E2.4915
G1 X-17.896 Y20.049 E2.5139
G1 X-17.903 Y20.046 E2.5146
G1 X-18.501 Y19.805 E2.5783
G1 X-18.509 Y19.802 E2.5791
G1 X-18.714 Y19.708 E2.6014
G1 X-18.721 Y19.704 E2.6022
G1 X-19.523 Y19.296 E2.6910
G1 X-19.532 Y19.291 E2.6921
G1 X-19.805 Y19.130 E2.7234
G1 X-19.814 Y19.125 E2.7245
G1 X-20.752 Y18.492 E2.8362
G1 X-20.760 Y18.487 E2.8371
G1 X-20.977 Y18.324 E2.8639
G1 X-20.984 Y18.318 E2.8649
G1 X-21.495 Y17.889 E2.9308
G1 X-21.501 Y17.884 E2.9316
G1 X-21.668 Y17.731 E2.9539
G1 X-21.674 Y17.725 E2.9547
G1 X-22.294 Y17.106 E3.0413
G1 X-22.300 Y17.099 E3.0422
G1 X-22.482 Y16.897 E3.0690
G1 X-22.488 Y16.890 E3.0699
G1 X-23.054 Y16.191 E3.1588
G1 X-23.060 Y16.184 E3.1597
G1 X-23.219 Y15.964 E3.1865
