; G-Code generated by Simplify3D(R) Version 3.1.0
; Oct 3, 2016 at 9:51:36 PM
; Settings Summary
;   processName,Process1
;   applyToModels,SolderHolder
;   profileName,Rostock MAX v2 (modified)
;   profileVersion,2015-05-01 08:00:00
;   baseProfile,
;   printMaterial,PLA
;   printQuality,Medium
;   printExtruders,
;   extruderName,Primary Extruder
;   extruderToolheadNumber,0
;   extruderDiameter,0.6
;   extruderAutoWidth,1
;   extruderWidth,0.72
;   extrusionMultiplier,1.1
;   extruderUseRetract,1
;   extruderRetractionDistance,2
;   extruderExtraRestartDistance,0
;   extruderRetractionZLift,0
;   extruderRetractionSpeed,1800
;   extruderUseCoasting,1
;   extruderCoastingDistance,1
;   extruderUseWipe,0
;   extruderWipeDistance,5
;   primaryExtruder,0
;   layerHeight,0.3
;   topSolidLayers,3
;   bottomSolidLayers,3
;   perimeterOutlines,4
;   printPerimetersInsideOut,0
;   startPointOption,2
;   startPointOriginX,0
;   startPointOriginY,0
;   startPointOriginZ,300
;   sequentialIslands,0
;   spiralVaseMode,0
;   firstLayerHeightPercentage,25
;   firstLayerWidthPercentage,100
;   firstLayerUnderspeed,0.4
;   useRaft,0
;   raftExtruder,0
;   raftLayers,3
;   raftOffset,15
;   raftSeparationDistance,0.14
;   raftInfill,85
;   disableRaftBaseLayers,0
;   useSkirt,1
;   skirtExtruder,0
;   skirtLayers,1
;   skirtOutlines,2
;   skirtOffset,5
;   usePrimePillar,0
;   primePillarExtruder,999
;   primePillarWidth,12
;   primePillarLocation,7
;   primePillarSpeedMultiplier,1
;   useOozeShield,0
;   oozeShieldExtruder,999
;   oozeShieldOffset,2
;   oozeShieldOutlines,1
;   oozeShieldSidewallShape,1
;   oozeShieldSidewallAngle,30
;   oozeShieldSpeedMultiplier,1
;   infillExtruder,0
;   internalInfillPattern,Rectilinear
;   externalInfillPattern,Rectilinear
;   infillPercentage,100
;   outlineOverlapPercentage,40
;   infillExtrusionWidthPercentage,100
;   minInfillLength,3
;   infillLayerInterval,1
;   infillAngles,45,-45
;   overlapInfillAngles,0
;   generateSupport,0
;   supportExtruder,0
;   supportInfillPercentage,30
;   supportExtraInflation,0
;   denseSupportLayers,0
;   denseSupportInfillPercentage,70
;   supportLayerInterval,1
;   supportHorizontalPartOffset,0.3
;   supportUpperSeparationLayers,1
;   supportLowerSeparationLayers,1
;   supportType,1
;   supportGridSpacing,4
;   maxOverhangAngle,45
;   supportAngles,0
;   temperatureName,Primary Extruder,Heated Bed
;   temperatureNumber,0,1
;   temperatureSetpointCount,1,1
;   temperatureSetpointLayers,1,1
;   temperatureSetpointTemperatures,205,60
;   temperatureStabilizeAtStartup,1,1
;   temperatureHeatedBed,0,1
;   temperatureRelayBetweenLayers,0,0
;   temperatureRelayBetweenLoops,0,0
;   fanLayers,1,2
;   fanSpeeds,0,100
;   blipFanToFullPower,1
;   adjustSpeedForCooling,1
;   minSpeedLayerTime,15
;   minCoolingSpeedSlowdown,20
;   increaseFanForCooling,0
;   minFanLayerTime,60
;   maxCoolingFanSpeed,100
;   increaseFanForBridging,0
;   bridgingFanSpeed,100
;   use5D,1
;   relativeEdistances,0
;   allowEaxisZeroing,1
;   independentExtruderAxes,0
;   includeM10123,0
;   stickySupport,1
;   applyToolheadOffsets,0
;   gcodeXoffset,0
;   gcodeYoffset,0
;   gcodeZoffset,0
;   overrideMachineDefinition,1
;   machineTypeOverride,1
;   strokeXoverride,197
;   strokeYoverride,197
;   strokeZoverride,375
;   originOffsetXoverride,98.5
;   originOffsetYoverride,98.5
;   originOffsetZoverride,0
;   homeXdirOverride,0
;   homeYdirOverride,0
;   homeZdirOverride,1
;   flipXoverride,1
;   flipYoverride,-1
;   flipZoverride,1
;   toolheadOffsets,0,0|0,0|0,0|0,0|0,0|0,0
;   overrideFirmwareConfiguration,1
;   firmwareTypeOverride,RepRap (Marlin/Repetier/Sprinter)
;   GPXconfigOverride,r2
;   baudRateOverride,115200
;   overridePrinterModels,1
;   printerModelsOverride
;   startingGcode,G28 ; home all axes
;   layerChangeGcode,
;   retractionGcode,
;   toolChangeGcode,
;   endingGcode,M104 S0 ; turn off extruder,M140 S0 ; turn off bed,G28 ; home axes,M84 ; disable motors
;   exportFileFormat,gcode
;   celebration,0
;   celebrationSong,Random Song
;   postProcessing,
;   defaultSpeed,3000
;   outlineUnderspeed,0.5
;   solidInfillUnderspeed,0.8
;   supportUnderspeed,0.8
;   rapidXYspeed,9000
;   rapidZspeed,1200
;   minBridgingArea,50
;   bridgingExtraInflation,0
;   bridgingExtrusionMultiplier,0.8
;   bridgingSpeedMultiplier,0.7
;   filamentDiameter,1.75
;   filamentPricePerKg,22
;   filamentDensity,1.25
;   useMinPrintHeight,0
;   minPrintHeight,0.05
;   useMaxPrintHeight,0
;   maxPrintHeight,0
;   useDiaphragm,0
;   diaphragmLayerInterval,20
;   robustSlicing,1
;   mergeAllIntoSolid,0
;   onlyRetractWhenCrossingOutline,0
;   retractBetweenLayers,0
;   useRetractionMinTravel,0
;   retractionMinTravel,3
;   retractWhileWiping,1
;   onlyWipeOutlines,1
;   avoidCrossingOutline,1
;   maxMovementDetourFactor,1.5
;   toolChangeRetractionDistance,12
;   toolChangeExtraRestartDistance,-0.5
;   toolChangeRetractionSpeed,600
;   allowThinWallGapFill,0
;   thinWallAllowedOverlapPercentage,10
;   horizontalSizeCompensation,0
G90
M82
M106 S0
M140 S60
M190 S60
M104 S205 T0
M109 S205 T0
G28 ; home all axes
G92 E0
G1 E-2.0000 F1800
G1 Z0.075 F1200
; layer 1, Z = 0.075
T0
; tool H0.300 W0.720
; skirt
G1 X9.362 Y-11.502 F9000
G1 E0.0000 F540
G92 E0
G1 X9.389 Y-11.481 E0.0034 F1200
G1 X9.656 Y-11.257 E0.0377
G1 X9.681 Y-11.235 E0.0411
G1 X10.730 Y-10.238 E0.1840
G1 X10.754 Y-10.214 E0.1873
G1 X10.990 Y-9.958 E0.2217
G1 X11.013 Y-9.933 E0.2251
G1 X11.928 Y-8.812 E0.3680
G1 X11.949 Y-8.785 E0.3714
G1 X12.152 Y-8.502 E0.4058
G1 X12.171 Y-8.474 E0.4091
G1 X12.939 Y-7.248 E0.5521
G1 X12.956 Y-7.218 E0.5554
G1 X13.122 Y-6.912 E0.5898
G1 X13.137 Y-6.882 E0.5932
G1 X13.745 Y-5.569 E0.7361
G1 X13.758 Y-5.538 E0.7395
G1 X13.885 Y-5.213 E0.7739
G1 X13.896 Y-5.181 E0.7772
G1 X14.335 Y-3.802 E0.9202
G1 X14.344 Y-3.770 E0.9235
G1 X14.428 Y-3.432 E0.9579
G1 X14.436 Y-3.399 E0.9613
G1 X14.698 Y-1.976 E1.1042
G1 X14.703 Y-1.942 E1.1076
G1 X14.745 Y-1.596 E1.1420
G1 X14.748 Y-1.563 E1.1453
G1 X14.830 Y-0.118 E1.2882
G1 X14.831 Y-0.084 E1.2916
G1 X14.829 Y0.264 E1.3260
G1 X14.827 Y0.298 E1.3293
G1 X14.728 Y1.742 E1.4723
G1 X14.724 Y1.775 E1.4756
G1 X14.679 Y2.121 E1.5100
G1 X14.673 Y2.154 E1.5134
G1 X14.393 Y3.574 E1.6563
G1 X14.386 Y3.607 E1.6597
G1 X14.297 Y3.943 E1.6941
G1 X14.287 Y3.976 E1.6974
G1 X13.832 Y5.349 E1.8404
G1 X13.820 Y5.381 E1.8437
G1 X13.690 Y5.704 E1.8781
G1 X13.676 Y5.735 E1.8815
G1 X13.052 Y7.041 E2.0244
G1 X13.037 Y7.071 E2.0278
G1 X12.867 Y7.375 E2.0621
G1 X12.850 Y7.404 E2.0655
G1 X12.067 Y8.621 E2.2084
G1 X12.048 Y8.649 E2.2118
G1 X11.841 Y8.930 E2.2462
G1 X11.820 Y8.957 E2.2496
G1 X10.891 Y10.066 E2.3925
G1 X10.868 Y10.091 E2.3959
G1 X10.629 Y10.344 E2.4303
G1 X10.604 Y10.368 E2.4336
G1 X9.543 Y11.352 E2.5766
G1 X9.518 Y11.374 E2.5799
G1 X9.248 Y11.594 E2.6143
G1 X9.221 Y11.615 E2.6177
G1 X8.046 Y12.458 E2.7606
G1 X8.017 Y12.477 E2.7640
G1 X7.722 Y12.662 E2.7984
G1 X7.693 Y12.679 E2.8017
G1 X6.421 Y13.368 E2.9447
G1 X6.390 Y13.384 E2.9480
G1 X6.074 Y13.530 E2.9824
G1 X6.043 Y13.543 E2.9858
G1 X4.694 Y14.068 E3.1287
G1 X4.662 Y14.079 E3.1320
G1 X4.331 Y14.185 E3.1664
G1 X4.298 Y14.194 E3.1698
G1 X2.894 Y14.545 E3.3127
G1 X2.861 Y14.552 E3.3161
G1 X2.519 Y14.616 E3.3505
G1 X2.485 Y14.621 E3.3538
G1 X1.048 Y14.793 E3.4968
G1 X1.015 Y14.796 E3.5001
G1 X0.667 Y14.816 E3.5345
G1 X0.633 Y14.817 E3.5379
G1 X-0.814 Y14.808 E3.6808
G1 X-0.848 Y14.807 E3.6842
G1 X-1.195 Y14.783 E3.7186
G1 X-1.229 Y14.779 E3.7219
G1 X-2.663 Y14.589 E3.8649
G1 X-2.697 Y14.584 E3.8682
G1 X-3.038 Y14.516 E3.9026
G1 X-3.072 Y14.509 E3.9060
G1 X-4.471 Y14.140 E4.0489
G1 X-4.503 Y14.131 E4.0522
G1 X-4.834 Y14.021 E4.0866
G1 X-4.866 Y14.009 E4.0900
G1 X-6.208 Y13.469 E4.2329
G1 X-6.239 Y13.455 E4.2363
G1 X-6.553 Y13.305 E4.2707
G1 X-6.583 Y13.289 E4.2740
G1 X-7.847 Y12.584 E4.4170
G1 X-7.876 Y12.567 E4.4203
G1 X-8.169 Y12.378 E4.4547
G1 X-8.197 Y12.359 E4.4581
G1 X-9.362 Y11.502 E4.6010
G1 X-9.389 Y11.481 E4.6044
G1 X-9.656 Y11.257 E4.6387
G1 X-9.681 Y11.235 E4.6421
G1 X-10.730 Y10.238 E4.7850
G1 X-10.754 Y10.214 E4.7884
G1 X-10.990 Y9.958 E4.8228
G1 X-11.013 Y9.933 E4.8261
G1 X-11.928 Y8.812 E4.9690
G1 X-11.949 Y8.785 E4.9724
G1 X-12.152 Y8.502 E5.0068
G1 X-12.171 Y8.474 E5.0102
G1 X-12.939 Y7.248 E5.1531
G1 X-12.956 Y7.218 E5.1564
G1 X-13.122 Y6.912 E5.1908
G1 X-13.137 Y6.882 E5.1942
G1 X-13.745 Y5.569 E5.3371
G1 X-13.758 Y5.538 E5.3405
G1 X-13.885 Y5.213 E5.3749
G1 X-13.896 Y5.181 E5.3782
G1 X-14.335 Y3.802 E5.5212
G1 X-14.344 Y3.770 E5.5245
G1 X-14.428 Y3.432 E5.5589
G1 X-14.436 Y3.399 E5.5623
G1 X-14.698 Y1.976 E5.7052
G1 X-14.703 Y1.942 E5.7086
G1 X-14.745 Y1.596 E5.7430
G1 X-14.748 Y1.563 E5.7463
G1 X-14.830 Y0.118 E5.8893
G1 X-14.831 Y0.084 E5.8926
G1 X-14.829 Y-0.264 E5.9270
G1 X-14.827 Y-0.298 E5.9303
G1 X-14.728 Y-1.742 E6.0733
G1 X-14.724 Y-1.775 E6.0766
G1 X-14.679 Y-2.121 E6.1110
G1 X-14.673 Y-2.154 E6.1144
G1 X-14.393 Y-3.574 E6.2573
G1 X-14.386 Y-3.607 E6.2607
G1 X-14.297 Y-3.943 E6.2951
G1 X-14.287 Y-3.976 E6.2984
G1 X-13.832 Y-5.349 E6.4414
G1 X-13.820 Y-5.381 E6.4447
G1 X-13.690 Y-5.704 E6.4791
G1 X-13.676 Y-5.735 E6.4825
G1 X-13.052 Y-7.041 E6.6254
G1 X-13.037 Y-7.071 E6.6288
G1 X-12.867 Y-7.375 E6.6632
G1 X-12.850 Y-7.404 E6.6665
G1 X-12.067 Y-8.621 E6.8094
G1 X-12.048 Y-8.649 E6.8128
G1 X-11.842 Y-8.930 E6.8472
G1 X-11.821 Y-8.956 E6.8505
G1 X-10.891 Y-10.066 E6.9935
G1 X-10.868 Y-10.091 E6.9969
G1 X-10.629 Y-10.344 E7.0313
G1 X-10.604 Y-10.368 E7.0346
G1 X-9.544 Y-11.352 E7.1776
G1 X-9.518 Y-11.374 E7.1809
G1 X-9.248 Y-11.594 E7.2153
G1 X-9.221 Y-11.615 E7.2187
G1 X-8.045 Y-12.458 E7.3616
G1 X-8.017 Y-12.477 E7.3650
G1 X-7.722 Y-12.662 E7.3994
G1 X-7.693 Y-12.679 E7.4027
G1 X-6.421 Y-13.368 E7.5457
G1 X-6.390 Y-13.384 E7.5490
G1 X-6.074 Y-13.530 E7.5834
G1 X-6.043 Y-13.543 E7.5868
G1 X-4.694 Y-14.068 E7.7297
G1 X-4.662 Y-14.079 E7.7331
G1 X-4.331 Y-14.185 E7.7675
G1 X-4.298 Y-14.194 E7.7708
G1 X-2.894 Y-14.545 E7.9137
G1 X-2.861 Y-14.552 E7.9171
G1 X-2.519 Y-14.616 E7.9515
G1 X-2.485 Y-14.621 E7.9548
G1 X-1.048 Y-14.793 E8.0978
G1 X-1.015 Y-14.796 E8.1011
G1 X-0.667 Y-14.816 E8.1355
G1 X-0.633 Y-14.817 E8.1389
G1 X0.814 Y-14.808 E8.2818
G1 X0.848 Y-14.807 E8.2852
G1 X1.195 Y-14.783 E8.3196
G1 X1.229 Y-14.779 E8.3229
G1 X2.663 Y-14.589 E8.4659
G1 X2.697 Y-14.584 E8.4692
G1 X3.038 Y-14.516 E8.5036
G1 X3.072 Y-14.509 E8.5070
G1 X4.471 Y-14.140 E8.6499
G1 X4.503 Y-14.131 E8.6533
G1 X4.834 Y-14.021 E8.6877
G1 X4.866 Y-14.009 E8.6910
G1 X6.208 Y-13.469 E8.8339
G1 X6.239 Y-13.455 E8.8373
G1 X6.553 Y-13.305 E8.8717
G1 X6.583 Y-13.289 E8.8750
G1 X7.847 Y-12.584 E9.0180
G1 X7.876 Y-12.567 E9.0213
G1 X8.169 Y-12.378 E9.0557
G1 X8.197 Y-12.359 E9.0591
G1 X8.557 Y-12.094 E9.1032
G1 X9.362 Y-11.502 F1200
G92 E0
G1 E-2.0000 F1800
G1 X8.926 Y-10.928 F9000
G1 E0.0000 F1800
G92 E0
G1 X8.935 Y-10.921 E0.0011 F1200
G1 X9.185 Y-10.712 E0.0333
G1 X9.193 Y-10.705 E0.0344
G1 X10.226 Y-9.724 E0.1751
G1 X10.233 Y-9.716 E0.1762
G1 X10.455 Y-9.477 E0.2083
G1 X10.462 Y-9.468 E0.2095
G1 X11.364 Y-8.365 E0.3502
G1 X11.370 Y-8.356 E0.3513
G1 X11.560 Y-8.092 E0.3834
G1 X11.567 Y-8.083 E0.3846
G1 X12.322 Y-6.875 E0.5253
G1 X12.328 Y-6.865 E0.5264
G1 X12.483 Y-6.579 E0.5585
G1 X12.488 Y-6.569 E0.5597
G1 X13.087 Y-5.277 E0.7004
G1 X13.091 Y-5.266 E0.7015
G1 X13.209 Y-4.963 E0.7337
G1 X13.213 Y-4.952 E0.7348
G1 X13.645 Y-3.595 E0.8755
G1 X13.648 Y-3.584 E0.8766
G1 X13.727 Y-3.268 E0.9087
G1 X13.730 Y-3.257 E0.9099
G1 X13.988 Y-1.856 E1.0506
G1 X13.990 Y-1.845 E1.0517
G1 X14.029 Y-1.522 E1.0839
G1 X14.030 Y-1.510 E1.0850
G1 X14.110 Y-0.088 E1.2257
G1 X14.111 Y-0.077 E1.2268
G1 X14.109 Y0.248 E1.2590
G1 X14.108 Y0.260 E1.2601
G1 X14.010 Y1.681 E1.4008
G1 X14.009 Y1.692 E1.4019
G1 X13.966 Y2.015 E1.4341
G1 X13.965 Y2.026 E1.4352
G1 X13.689 Y3.423 E1.5759
G1 X13.687 Y3.434 E1.5770
G1 X13.604 Y3.749 E1.6092
G1 X13.600 Y3.760 E1.6103
G1 X13.152 Y5.112 E1.7510
G1 X13.148 Y5.123 E1.7521
G1 X13.027 Y5.425 E1.7843
G1 X13.022 Y5.435 E1.7854
G1 X12.408 Y6.720 E1.9261
G1 X12.402 Y6.730 E1.9272
G1 X12.244 Y7.015 E1.9594
G1 X12.238 Y7.024 E1.9605
G1 X11.468 Y8.222 E2.1012
G1 X11.461 Y8.232 E2.1023
G1 X11.268 Y8.494 E2.1345
G1 X11.261 Y8.503 E2.1356
G1 X10.346 Y9.595 E2.2763
G1 X10.339 Y9.604 E2.2775
G1 X10.114 Y9.840 E2.3096
G1 X10.106 Y9.847 E2.3107
G1 X9.062 Y10.816 E2.4514
G1 X9.054 Y10.824 E2.4526
G1 X8.801 Y11.030 E2.4847
G1 X8.793 Y11.036 E2.4858
G1 X7.635 Y11.867 E2.6265
G1 X7.626 Y11.873 E2.6277
G1 X7.350 Y12.046 E2.6598
G1 X7.340 Y12.051 E2.6609
G1 X6.088 Y12.730 E2.8016
G1 X6.077 Y12.735 E2.8028
G1 X5.782 Y12.872 E2.8349
G1 X5.772 Y12.876 E2.8360
G1 X4.444 Y13.393 E2.9767
G1 X4.433 Y13.396 E2.9779
G1 X4.123 Y13.495 E3.0100
G1 X4.112 Y13.498 E3.0111
G1 X2.730 Y13.844 E3.1518
G1 X2.719 Y13.846 E3.1530
G1 X2.399 Y13.905 E3.1851
G1 X2.388 Y13.907 E3.1862
G1 X0.974 Y14.077 E3.3269
G1 X0.963 Y14.078 E3.3281
G1 X0.638 Y14.097 E3.3602
G1 X0.626 Y14.097 E3.3613
G1 X-0.798 Y14.088 E3.5020
G1 X-0.809 Y14.088 E3.5032
G1 X-1.134 Y14.065 E3.5353
G1 X-1.146 Y14.064 E3.5364
G1 X-2.558 Y13.877 E3.6772
G1 X-2.569 Y13.875 E3.6783
G1 X-2.888 Y13.812 E3.7104
G1 X-2.899 Y13.810 E3.7115
G1 X-4.277 Y13.447 E3.8522
G1 X-4.287 Y13.444 E3.8534
G1 X-4.597 Y13.341 E3.8855
G1 X-4.607 Y13.337 E3.8866
G1 X-5.928 Y12.805 E4.0274
G1 X-5.939 Y12.800 E4.0285
G1 X-6.232 Y12.660 E4.0606
G1 X-6.242 Y12.655 E4.0618
G1 X-7.486 Y11.961 E4.2025
G1 X-7.496 Y11.955 E4.2036
G1 X-7.770 Y11.779 E4.2357
G1 X-7.779 Y11.773 E4.2368
G1 X-8.926 Y10.928 E4.3775
G1 X-8.935 Y10.921 E4.3787
G1 X-9.185 Y10.712 E4.4108
G1 X-9.193 Y10.705 E4.4119
G1 X-10.226 Y9.724 E4.5526
G1 X-10.233 Y9.716 E4.5537
G1 X-10.455 Y9.477 E4.5859
G1 X-10.462 Y9.468 E4.5870
G1 X-11.364 Y8.365 E4.7277
G1 X-11.370 Y8.356 E4.7288
G1 X-11.560 Y8.092 E4.7610
G1 X-11.567 Y8.083 E4.7621
G1 X-12.322 Y6.875 E4.9028
G1 X-12.328 Y6.865 E4.9039
G1 X-12.483 Y6.579 E4.9361
G1 X-12.488 Y6.569 E4.9372
G1 X-13.087 Y5.277 E5.0779
G1 X-13.091 Y5.266 E5.0790
G1 X-13.209 Y4.963 E5.1112
G1 X-13.213 Y4.952 E5.1123
G1 X-13.645 Y3.595 E5.2530
G1 X-13.648 Y3.584 E5.2541
G1 X-13.727 Y3.268 E5.2863
G1 X-13.730 Y3.257 E5.2874
G1 X-13.988 Y1.856 E5.4281
G1 X-13.990 Y1.845 E5.4292
G1 X-14.029 Y1.522 E5.4614
G1 X-14.030 Y1.510 E5.4625
G1 X-14.110 Y0.088 E5.6032
G1 X-14.111 Y0.077 E5.6043
G1 X-14.109 Y-0.248 E5.6365
G1 X-14.108 Y-0.260 E5.6376
G1 X-14.010 Y-1.681 E5.7783
G1 X-14.009 Y-1.692 E5.7794
G1 X-13.966 Y-2.015 E5.8116
G1 X-13.965 Y-2.026 E5.8127
G1 X-13.689 Y-3.423 E5.9534
G1 X-13.687 Y-3.434 E5.9545
G1 X-13.604 Y-3.749 E5.9867
G1 X-13.600 Y-3.760 E5.9878
G1 X-13.152 Y-5.112 E6.1285
G1 X-13.148 Y-5.123 E6.1296
G1 X-13.027 Y-5.425 E6.1618
G1 X-13.022 Y-5.435 E6.1629
G1 X-12.408 Y-6.720 E6.3036
G1 X-12.402 Y-6.730 E6.3048
G1 X-12.244 Y-7.015 E6.3369
G1 X-12.238 Y-7.024 E6.3380
G1 X-11.468 Y-8.222 E6.4787
G1 X-11.461 Y-8.231 E6.4798
G1 X-11.268 Y-8.494 E6.5120
G1 X-11.261 Y-8.503 E6.5131
G1 X-10.346 Y-9.595 E6.6539
G1 X-10.339 Y-9.603 E6.6550
G1 X-10.114 Y-9.839 E6.6872
G1 X-10.106 Y-9.847 E6.6883
G1 X-9.062 Y-10.816 E6.8290
G1 X-9.054 Y-10.824 E6.8301
G1 X-8.801 Y-11.030 E6.8623
G1 X-8.792 Y-11.036 E6.8634
G1 X-7.635 Y-11.867 E7.0041
G1 X-7.626 Y-11.873 E7.0052
G1 X-7.350 Y-12.046 E7.0374
G1 X-7.340 Y-12.051 E7.0385
G1 X-6.088 Y-12.730 E7.1792
G1 X-6.077 Y-12.735 E7.1803
G1 X-5.782 Y-12.872 E7.2125
G1 X-5.772 Y-12.876 E7.2136
G1 X-4.444 Y-13.393 E7.3543
G1 X-4.433 Y-13.396 E7.3554
G1 X-4.123 Y-13.495 E7.3876
G1 X-4.112 Y-13.498 E7.3887
G1 X-2.730 Y-13.844 E7.5294
G1 X-2.719 Y-13.846 E7.5305
G1 X-2.399 Y-13.905 E7.5627
G1 X-2.388 Y-13.907 E7.5638
G1 X-0.974 Y-14.077 E7.7045
G1 X-0.963 Y-14.078 E7.7056
G1 X-0.637 Y-14.097 E7.7378
G1 X-0.626 Y-14.097 E7.7389
G1 X0.798 Y-14.088 E7.8796
G1 X0.810 Y-14.088 E7.8807
G1 X1.134 Y-14.065 E7.9129
G1 X1.145 Y-14.064 E7.9140
G1 X2.558 Y-13.877 E8.0547
G1 X2.569 Y-13.875 E8.0558
G1 X2.888 Y-13.812 E8.0880
G1 X2.899 Y-13.810 E8.0891
G1 X4.277 Y-13.447 E8.2298
G1 X4.288 Y-13.444 E8.2309
G1 X4.597 Y-13.341 E8.2631
G1 X4.607 Y-13.337 E8.2642
G1 X5.928 Y-12.805 E8.4049
G1 X5.939 Y-12.800 E8.4060
