; G-Code generated by Simplify3D(R) Version 3.1.0
; Aug 17, 2016 at 7:31:16 PM
; Settings Summary
;   processName,Process1
;   applyToModels,gecko
;   profileName,Rostock MAX v2 (modified)
;   profileVersion,2015-05-01 08:00:00
;   baseProfile,
;   printMaterial,PLA
;   printQuality,Medium
;   printExtruders,
;   extruderName,Primary Extruder
;   extruderToolheadNumber,0
;   extruderDiameter,0.4
;   extruderAutoWidth,1
;   extruderWidth,0.48
;   extrusionMultiplier,1.1
;   extruderUseRetract,1
;   extruderRetractionDistance,7
;   extruderExtraRestartDistance,0
;   extruderRetractionZLift,0
;   extruderRetractionSpeed,1800
;   extruderUseCoasting,1
;   extruderCoastingDistance,1
;   extruderUseWipe,1
;   extruderWipeDistance,5
;   primaryExtruder,0
;   layerHeight,0.2
;   topSolidLayers,3
;   bottomSolidLayers,3
;   perimeterOutlines,3
;   printPerimetersInsideOut,1
;   startPointOption,2
;   startPointOriginX,0
;   startPointOriginY,0
;   startPointOriginZ,300
;   sequentialIslands,0
;   spiralVaseMode,0
;   firstLayerHeightPercentage,25
;   firstLayerWidthPercentage,100
;   firstLayerUnderspeed,0.4
;   useRaft,0
;   raftExtruder,0
;   raftLayers,3
;   raftOffset,15
;   raftSeparationDistance,0.14
;   raftInfill,85
;   disableRaftBaseLayers,0
;   useSkirt,1
;   skirtExtruder,0
;   skirtLayers,1
;   skirtOutlines,3
;   skirtOffset,10
;   usePrimePillar,0
;   primePillarExtruder,999
;   primePillarWidth,12
;   primePillarLocation,7
;   primePillarSpeedMultiplier,1
;   useOozeShield,0
;   oozeShieldExtruder,999
;   oozeShieldOffset,2
;   oozeShieldOutlines,1
;   oozeShieldSidewallShape,1
;   oozeShieldSidewallAngle,30
;   oozeShieldSpeedMultiplier,1
;   infillExtruder,0
;   internalInfillPattern,Fast Honeycomb
;   externalInfillPattern,Rectilinear
;   infillPercentage,25
;   outlineOverlapPercentage,25
;   infillExtrusionWidthPercentage,150
;   minInfillLength,5
;   infillLayerInterval,1
;   infillAngles,0
;   overlapInfillAngles,0
;   generateSupport,0
;   supportExtruder,0
;   supportInfillPercentage,30
;   supportExtraInflation,0
;   denseSupportLayers,0
;   denseSupportInfillPercentage,70
;   supportLayerInterval,1
;   supportHorizontalPartOffset,0.3
;   supportUpperSeparationLayers,1
;   supportLowerSeparationLayers,1
;   supportType,1
;   supportGridSpacing,4
;   maxOverhangAngle,45
;   supportAngles,0
;   temperatureName,Primary Extruder,Heated Bed
;   temperatureNumber,0,1
;   temperatureSetpointCount,1,1
;   temperatureSetpointLayers,1,1
;   temperatureSetpointTemperatures,205,60
;   temperatureStabilizeAtStartup,1,1
;   temperatureHeatedBed,0,1
;   temperatureRelayBetweenLayers,0,0
;   temperatureRelayBetweenLoops,0,0
;   fanLayers,1,2
;   fanSpeeds,0,100
;   blipFanToFullPower,1
;   adjustSpeedForCooling,1
;   minSpeedLayerTime,15
;   minCoolingSpeedSlowdown,20
;   increaseFanForCooling,0
;   minFanLayerTime,60
;   maxCoolingFanSpeed,100
;   increaseFanForBridging,0
;   bridgingFanSpeed,100
;   use5D,1
;   relativeEdistances,0
;   allowEaxisZeroing,1
;   independentExtruderAxes,0
;   includeM10123,0
;   stickySupport,1
;   applyToolheadOffsets,0
;   gcodeXoffset,0
;   gcodeYoffset,0
;   gcodeZoffset,0
;   overrideMachineDefinition,1
;   machineTypeOverride,1
;   strokeXoverride,197
;   strokeYoverride,197
;   strokeZoverride,375
;   originOffsetXoverride,98.5
;   originOffsetYoverride,98.5
;   originOffsetZoverride,0
;   homeXdirOverride,0
;   homeYdirOverride,0
;   homeZdirOverride,1
;   flipXoverride,1
;   flipYoverride,-1
;   flipZoverride,1
;   toolheadOffsets,0,0|0,0|0,0|0,0|0,0|0,0
;   overrideFirmwareConfiguration,1
;   firmwareTypeOverride,RepRap (Marlin/Repetier/Sprinter)
;   GPXconfigOverride,r2
;   baudRateOverride,115200
;   overridePrinterModels,1
;   printerModelsOverride
;   startingGcode,G28 ; home all axes
;   layerChangeGcode,
;   retractionGcode,
;   toolChangeGcode,
;   endingGcode,M104 S0 ; turn off extruder,M140 S0 ; turn off bed,G28 ; home axes,M84 ; disable motors
;   exportFileFormat,gcode
;   celebration,0
;   celebrationSong,Random Song
;   postProcessing,
;   defaultSpeed,3000
;   outlineUnderspeed,0.5
;   solidInfillUnderspeed,0.8
;   supportUnderspeed,0.8
;   rapidXYspeed,12000
;   rapidZspeed,1200
;   minBridgingArea,50
;   bridgingExtraInflation,0
;   bridgingExtrusionMultiplier,0.95
;   bridgingSpeedMultiplier,0.7
;   filamentDiameter,1.75
;   filamentPricePerKg,22
;   filamentDensity,1.25
;   useMinPrintHeight,0
;   minPrintHeight,0.05
;   useMaxPrintHeight,0
;   maxPrintHeight,0
;   useDiaphragm,0
;   diaphragmLayerInterval,20
;   robustSlicing,1
;   mergeAllIntoSolid,0
;   onlyRetractWhenCrossingOutline,1
;   retractBetweenLayers,0
;   useRetractionMinTravel,0
;   retractionMinTravel,3
;   retractWhileWiping,1
;   onlyWipeOutlines,1
;   avoidCrossingOutline,1
;   maxMovementDetourFactor,2
;   toolChangeRetractionDistance,12
;   toolChangeExtraRestartDistance,-0.5
;   toolChangeRetractionSpeed,600
;   allowThinWallGapFill,1
;   thinWallAllowedOverlapPercentage,10
;   horizontalSizeCompensation,0
G90
M82
M106 S0
M140 S60
M190 S60
M104 S205 T0
M109 S205 T0
G28 ; home all axes
G92 E0
G1 E-7.0000 F1800
G1 Z0.050 F1200
; layer 1, Z = 0.05
T0
; tool H0.200 W0.480
; skirt
G1 X-4.464 Y18.608 F12000
G1 E0.0000 F540
G92 E0
G1 X-4.491 Y18.614 E0.0012 F1200
G1 X-4.969 Y18.710 E0.0226
G1 X-4.996 Y18.715 E0.0238
G1 X-7.274 Y19.064 E0.1250
G1 X-7.310 Y19.068 E0.1266
G1 X-7.943 Y19.127 E0.1545
G1 X-7.979 Y19.129 E0.1561
G1 X-10.358 Y19.205 E0.2606
G1 X-10.391 Y19.206 E0.2621
G1 X-10.984 Y19.192 E0.2881
G1 X-11.018 Y19.190 E0.2896
G1 X-13.311 Y19.007 E0.3906
G1 X-13.341 Y19.003 E0.3919
G1 X-13.864 Y18.935 E0.4150
G1 X-13.893 Y18.931 E0.4164
G1 X-15.631 Y18.616 E0.4939
G1 X-16.692 Y19.591 E0.5572
G1 X-16.729 Y19.622 E0.5593
G1 X-17.405 Y20.150 E0.5969
G1 X-17.444 Y20.178 E0.5990
G1 X-18.699 Y21.003 E0.6650
G1 X-18.738 Y21.027 E0.6670
G1 X-19.442 Y21.417 E0.7023
G1 X-19.483 Y21.438 E0.7043
G1 X-20.827 Y22.054 E0.7693
G1 X-20.870 Y22.072 E0.7713
G1 X-21.373 Y22.257 E0.7948
G1 X-22.188 Y23.196 E0.8494
G1 X-22.300 Y23.297 E0.8560
G1 X-24.482 Y24.813 E0.9727
G1 X-24.615 Y24.882 E0.9793
G1 X-27.732 Y26.047 E1.1254
G1 X-27.934 Y26.086 E1.1344
G1 X-31.584 Y26.146 E1.2947
G1 X-31.787 Y26.114 E1.3037
G1 X-35.530 Y24.854 E1.4771
G1 X-35.722 Y24.747 E1.4868
G1 X-37.922 Y22.931 E1.6120
G1 X-38.868 Y22.455 E1.6585
G1 X-38.977 Y22.384 E1.6642
G1 X-41.158 Y20.607 E1.7877
G1 X-41.275 Y20.480 E1.7953
G1 X-43.008 Y17.945 E1.9301
G1 X-43.084 Y17.790 E1.9377
G1 X-43.974 Y15.028 E2.0651
G1 X-44.001 Y14.894 E2.0711
G1 X-44.205 Y12.481 E2.1774
G1 X-44.201 Y12.344 E2.1834
G1 X-43.899 Y10.248 E2.2764
G1 X-43.880 Y10.161 E2.2803
G1 X-43.614 Y9.279 E2.3208
G1 X-43.612 Y8.378 E2.3603
G1 X-43.580 Y8.186 E2.3689
G1 X-42.615 Y5.331 E2.5012
G1 X-42.583 Y4.835 E2.5230
G1 X-42.525 Y4.614 E2.5330
G1 X-41.126 Y1.676 E2.6759
G1 X-41.173 Y1.457 E2.6857
G1 X-40.910 Y-0.443 E2.7699
G1 X-40.959 Y-0.896 E2.7899
G1 X-40.962 Y-0.967 E2.7931
G1 X-40.933 Y-3.624 E2.9097
G1 X-40.908 Y-3.786 E2.9169
G1 X-40.092 Y-6.581 E3.0447
G1 X-40.025 Y-6.731 E3.0520
G1 X-39.465 Y-7.630 E3.0984
G1 X-38.990 Y-8.792 E3.1536
G1 X-38.886 Y-8.961 E3.1623
G1 X-36.574 Y-11.611 E3.3167
G1 X-36.421 Y-11.737 E3.3254
G1 X-34.755 Y-12.701 E3.4099
G1 X-34.097 Y-15.136 E3.5206
G1 X-34.028 Y-15.296 E3.5283
G1 X-32.522 Y-17.734 E3.6541
G1 X-32.445 Y-17.833 E3.6596
G1 X-30.922 Y-19.432 E3.7565
G1 X-30.849 Y-19.494 E3.7607
G1 X-30.829 Y-19.523 E3.7623
G1 X-28.991 Y-21.547 E3.8823
G1 X-28.897 Y-21.631 E3.8878
G1 X-27.085 Y-22.935 E3.9859
G1 X-26.975 Y-22.997 E3.9914
G1 X-24.784 Y-23.959 E4.0965
G1 X-24.660 Y-23.998 E4.1022
G1 X-23.685 Y-24.194 E4.1459
G1 X-22.328 Y-24.890 E4.2128
G1 X-22.189 Y-24.942 E4.2193
G1 X-19.620 Y-25.534 E4.3351
G1 X-19.472 Y-25.550 E4.3416
G1 X-16.663 Y-25.492 E4.4650
G1 X-16.508 Y-25.468 E4.4718
G1 X-13.848 Y-24.702 E4.5933
G1 X-13.705 Y-24.640 E4.6002
G1 X-11.535 Y-23.339 E4.7113
G1 X-11.445 Y-23.273 E4.7162
G1 X-11.311 Y-24.731 E4.7805
G1 X-11.080 Y-25.161 E4.8019
G1 X-10.530 Y-25.603 E4.8329
G1 X-10.503 Y-25.695 E4.8371
G1 X-10.275 Y-26.015 E4.8543
G1 X-7.653 Y-27.916 E4.9965
G1 X-4.098 Y-30.776 E5.1968
G1 X-3.629 Y-30.909 E5.2182
G1 X-1.751 Y-30.675 E5.3013
G1 X1.175 Y-32.217 E5.4465
G1 X1.589 Y-32.275 E5.4649
G1 X4.696 Y-31.630 E5.6042
G1 X5.209 Y-31.590 E5.6268
G1 X5.309 Y-31.573 E5.6312
G1 X5.418 Y-31.546 E5.6362
G1 X6.136 Y-31.568 E5.6677
G1 X6.423 Y-31.507 E5.6806
G1 X7.260 Y-31.098 E5.7215
G1 X9.032 Y-30.730 E5.8010
G1 X9.389 Y-30.512 E5.8193
G1 X9.987 Y-29.767 E5.8613
G1 X11.139 Y-29.204 E5.9176
G1 X11.364 Y-29.016 E5.9304
G1 X13.580 Y-25.982 E6.0954
G1 X13.637 Y-25.886 E6.1003
G1 X14.489 Y-24.098 E6.1872
G1 X14.527 Y-23.993 E6.1922
G1 X14.556 Y-23.886 E6.1970
G1 X15.393 Y-23.034 E6.2495
G1 X15.444 Y-22.975 E6.2529
G1 X16.276 Y-21.874 E6.3135
G1 X16.319 Y-21.809 E6.3169
G1 X17.301 Y-20.080 E6.4042
G1 X17.349 Y-19.972 E6.4094
G1 X18.009 Y-17.974 E6.5018
G1 X18.035 Y-17.858 E6.5070
G1 X18.308 Y-15.616 E6.6062
G1 X18.312 Y-15.513 E6.6107
G1 X18.281 Y-14.887 E6.6382
G1 X18.495 Y-14.887 E6.6476
G1 X18.557 Y-14.884 E6.6503
G1 X19.142 Y-14.823 E6.6761
G1 X20.616 Y-14.839 E6.7408
G1 X20.642 Y-14.838 E6.7420
G1 X21.117 Y-14.822 E6.7629
G1 X21.144 Y-14.820 E6.7640
G1 X23.496 Y-14.633 E6.8676
G1 X23.524 Y-14.630 E6.8688
G1 X24.017 Y-14.568 E6.8907
G1 X24.044 Y-14.564 E6.8919
G1 X25.591 Y-14.293 E6.9608
G1 X26.247 Y-14.336 E6.9897
G1 X26.457 Y-14.312 E6.9990
G1 X29.934 Y-13.284 E7.1581
G1 X29.961 Y-13.275 E7.1594
G1 X30.443 Y-13.107 E7.1818
G1 X30.470 Y-13.097 E7.1831
G1 X32.904 Y-12.114 E7.2983
G1 X32.929 Y-12.102 E7.2995
G1 X33.380 Y-11.895 E7.3213
G1 X33.406 Y-11.883 E7.3226
G1 X35.834 Y-10.626 E7.4426
G1 X35.862 Y-10.611 E7.4440
G1 X36.341 Y-10.330 E7.4684
G1 X36.367 Y-10.314 E7.4697
G1 X39.148 Y-8.483 E7.6159
G1 X39.170 Y-8.469 E7.6171
G1 X39.540 Y-8.201 E7.6371
G1 X39.560 Y-8.186 E7.6382
G1 X41.788 Y-6.427 E7.7629
G1 X41.804 Y-6.414 E7.7638
G1 X42.078 Y-6.182 E7.7795
G1 X42.094 Y-6.168 E7.7804
G1 X44.133 Y-4.320 E7.9012
G1 X44.149 Y-4.306 E7.9022
G1 X44.419 Y-4.043 E7.9187
G1 X44.434 Y-4.028 E7.9197
G1 X46.493 Y-1.877 E8.0504
G1 X46.515 Y-1.852 E8.0519
G1 X46.903 Y-1.399 E8.0780
G1 X46.924 Y-1.372 E8.0795
G1 X47.948 Y-0.029 E8.1537
G1 X47.971 Y0.004 E8.1555
G1 X48.362 Y0.596 E8.1866
G1 X48.383 Y0.630 E8.1884
G1 X49.190 Y2.048 E8.2600
G1 X49.234 Y2.144 E8.2646
G1 X49.859 Y3.900 E8.3465
G1 X49.885 Y4.002 E8.3511
G1 X50.501 Y7.666 E8.5142
G1 X50.480 Y7.952 E8.5268
G1 X48.922 Y12.838 E8.7519
G1 X48.773 Y13.083 E8.7645
G1 X45.476 Y16.391 E8.9696
G1 X45.285 Y16.520 E8.9797
G1 X41.510 Y18.135 E9.1600
G1 X41.285 Y18.183 E9.1701
G1 X37.854 Y18.257 E9.3207
G1 X37.712 Y18.243 E9.3270
G1 X35.236 Y17.698 E9.4383
G1 X35.101 Y17.651 E9.4446
G1 X33.156 Y16.700 E9.5396
G1 X33.113 Y16.677 E9.5418
G1 X32.370 Y16.235 E9.5797
G1 X32.329 Y16.208 E9.5819
G1 X31.400 Y15.548 E9.6319
G1 X31.380 Y15.533 E9.6330
G1 X31.037 Y15.268 E9.6520
G1 X31.018 Y15.253 E9.6531
G1 X29.971 Y14.371 E9.7132
G1 X29.865 Y16.513 E9.8074
G1 X29.846 Y16.634 E9.8128
G1 X29.302 Y18.735 E9.9080
G1 X29.259 Y18.850 E9.9134
G1 X28.572 Y20.245 E9.9817
G1 X28.497 Y20.911 E10.0111
G1 X28.472 Y21.026 E10.0163
G1 X27.838 Y23.012 E10.1078
G1 X27.791 Y23.120 E10.1130
G1 X26.663 Y25.160 E10.2153
G1 X26.591 Y25.262 E10.2208
G1 X25.140 Y26.938 E10.3181
G1 X25.048 Y27.024 E10.3236
G1 X22.913 Y28.643 E10.4413
G1 X22.781 Y28.718 E10.4479
G1 X22.310 Y28.916 E10.4704
G1 X20.674 Y30.407 E10.5676
G1 X20.570 Y30.483 E10.5732
G1 X18.612 Y31.621 E10.6726
G1 X18.495 Y31.673 E10.6782
G1 X16.011 Y32.478 E10.7929
G1 X15.874 Y32.505 E10.7990
G1 X13.420 Y32.707 E10.9071
G1 X13.281 Y32.702 E10.9132
G1 X10.696 Y32.313 E11.0280
G1 X10.569 Y32.279 E11.0338
G1 X8.402 Y31.445 E11.1357
G1 X8.286 Y31.385 E11.1415
G1 X7.200 Y30.664 E11.1987
G1 X6.238 Y30.536 E11.2413
G1 X6.091 Y30.497 E11.2480
G1 X3.583 Y29.478 E11.3668
G1 X3.450 Y29.403 E11.3735
G1 X1.119 Y27.667 E11.5011
G1 X1.009 Y27.561 E11.5078
G1 X-0.689 Y25.444 E11.6270
G1 X-0.769 Y25.313 E11.6337
G1 X-1.836 Y22.932 E11.7483
G1 X-1.873 Y22.821 E11.7534
G1 X-2.338 Y20.799 E11.8445
G1 X-2.353 Y20.683 E11.8496
G1 X-2.367 Y20.240 E11.8691
G1 X-2.999 Y19.444 E11.9137
G1 X-3.040 Y19.385 E11.9169
G1 X-3.563 Y18.537 E11.9606
G1 X-3.646 Y18.404 F1200
G1 X-4.464 Y18.608 F1200
G1 X-4.575 Y18.141 F12000
G92 E0
G1 X-4.591 Y18.144 E0.0007 F1200
G1 X-5.058 Y18.238 E0.0216
G1 X-5.074 Y18.241 E0.0224
G1 X-7.339 Y18.588 E0.1230
G1 X-7.361 Y18.591 E0.1239
G1 X-7.980 Y18.648 E0.1512
G1 X-8.002 Y18.650 E0.1522
G1 X-10.366 Y18.726 E0.2561
G1 X-10.387 Y18.726 E0.2569
G1 X-10.966 Y18.712 E0.2824
G1 X-10.986 Y18.711 E0.2833
G1 X-13.267 Y18.529 E0.3837
G1 X-13.285 Y18.527 E0.3845
G1 X-13.796 Y18.460 E0.4072
G1 X-13.814 Y18.457 E0.4079
G1 X-15.793 Y18.098 E0.4963
G1 X-15.872 Y18.183 E0.5013
G1 X-15.893 Y18.204 E0.5026
G1 X-17.010 Y19.231 E0.5693
G1 X-17.032 Y19.250 E0.5705
G1 X-17.692 Y19.765 E0.6073
G1 X-17.716 Y19.782 E0.6086
G1 X-18.955 Y20.597 E0.6737
G1 X-18.979 Y20.611 E0.6749
G1 X-19.667 Y20.993 E0.7094
G1 X-19.691 Y21.005 E0.7106
G1 X-21.019 Y21.614 E0.7748
G1 X-21.044 Y21.624 E0.7760
G1 X-21.655 Y21.849 E0.8046
G1 X-22.531 Y22.859 E0.8633
G1 X-22.598 Y22.919 E0.8672
G1 X-24.731 Y24.402 E0.9813
G1 X-24.811 Y24.443 E0.9852
G1 X-27.862 Y25.584 E1.1282
G1 X-27.983 Y25.606 E1.1336
G1 X-31.551 Y25.665 E1.2903
G1 X-31.673 Y25.646 E1.2957
G1 X-35.335 Y24.413 E1.4654
G1 X-35.451 Y24.349 E1.4712
G1 X-37.658 Y22.527 E1.5968
G1 X-38.629 Y22.038 E1.6446
G1 X-38.694 Y21.995 E1.6480
G1 X-40.828 Y20.257 E1.7688
G1 X-40.899 Y20.180 E1.7734
G1 X-42.592 Y17.703 E1.9051
G1 X-42.638 Y17.610 E1.9097
G1 X-43.509 Y14.906 E2.0344
G1 X-43.525 Y14.826 E2.0380
G1 X-43.725 Y12.467 E2.1419
G1 X-43.722 Y12.385 E2.1455
G1 X-43.427 Y10.334 E2.2365
G1 X-43.415 Y10.282 E2.2388
G1 X-43.135 Y9.350 E2.2816
G1 X-43.132 Y8.418 E2.3225
G1 X-43.113 Y8.303 E2.3276
G1 X-42.140 Y5.425 E2.4610
G1 X-42.107 Y4.912 E2.4836
G1 X-42.072 Y4.779 E2.4896
G1 X-40.614 Y1.717 E2.6385
G1 X-40.633 Y1.687 E2.6400
G1 X-40.686 Y1.439 E2.6512
G1 X-40.426 Y-0.436 E2.7343
G1 X-40.480 Y-0.933 E2.7562
G1 X-40.482 Y-0.976 E2.7581
G1 X-40.453 Y-3.586 E2.8727
G1 X-40.438 Y-3.683 E2.8770
G1 X-39.641 Y-6.415 E3.0020
G1 X-39.601 Y-6.505 E3.0063
G1 X-39.037 Y-7.410 E3.0531
G1 X-38.560 Y-8.574 E3.1083
G1 X-38.498 Y-8.675 E3.1135
G1 X-36.238 Y-11.266 E3.2645
G1 X-36.146 Y-11.341 E3.2697
G1 X-34.344 Y-12.384 E3.3611
G1 X-33.643 Y-14.977 E3.4791
G1 X-33.602 Y-15.073 E3.4836
G1 X-32.126 Y-17.461 E3.6069
G1 X-32.081 Y-17.520 E3.6101
G1 X-30.592 Y-19.083 E3.7049
G1 X-30.535 Y-19.131 E3.7082
G1 X-30.499 Y-19.156 E3.7101
G1 X-30.452 Y-19.224 E3.7137
G1 X-28.653 Y-21.206 E3.8312
G1 X-28.597 Y-21.256 E3.8346
G1 X-26.825 Y-22.531 E3.9304
G1 X-26.759 Y-22.568 E3.9337
G1 X-24.615 Y-23.509 E4.0365
G1 X-24.540 Y-23.533 E4.0399
G1 X-23.525 Y-23.737 E4.0854
G1 X-22.135 Y-24.450 E4.1540
G1 X-22.052 Y-24.481 E4.1579
G1 X-19.541 Y-25.060 E4.2710
G1 X-19.452 Y-25.069 E4.2749
G1 X-16.704 Y-25.013 E4.3956
G1 X-16.611 Y-24.998 E4.3997
G1 X-14.011 Y-24.250 E4.5185
G1 X-13.925 Y-24.212 E4.5227
G1 X-11.802 Y-22.939 E4.6313
G1 X-11.746 Y-22.898 E4.6344
G1 X-11.099 Y-22.314 E4.6727
G1 X-11.046 Y-22.374 E4.6761
G1 X-10.842 Y-24.590 E4.7739
G1 X-10.703 Y-24.848 E4.7867
G1 X-10.114 Y-25.322 E4.8199
G1 X-10.066 Y-25.480 E4.8272
G1 X-9.929 Y-25.673 E4.8375
G1 X-7.362 Y-27.535 E4.9768
G1 X-3.873 Y-30.341 E5.1734
G1 X-3.591 Y-30.421 E5.1862
G1 X-1.661 Y-30.180 E5.2716
G1 X1.325 Y-31.753 E5.4198
G1 X1.574 Y-31.788 E5.4308
G1 X4.628 Y-31.154 E5.5678
G1 X5.151 Y-31.113 E5.5908
G1 X5.211 Y-31.103 E5.5935
G1 X5.366 Y-31.064 E5.6005
G1 X6.093 Y-31.087 E5.6324
G1 X6.265 Y-31.050 E5.6401
G1 X7.103 Y-30.641 E5.6811
G1 X8.853 Y-30.277 E5.7596
G1 X9.067 Y-30.147 E5.7706
G1 X9.680 Y-29.383 E5.8136
G1 X10.876 Y-28.799 E5.8720
G1 X11.011 Y-28.686 E5.8797
G1 X13.179 Y-25.717 E6.0412
G1 X13.214 Y-25.659 E6.0441
G1 X14.046 Y-23.912 E6.1291
G1 X14.069 Y-23.849 E6.1320
G1 X14.124 Y-23.640 E6.1415
G1 X15.040 Y-22.709 E6.1988
G1 X15.071 Y-22.673 E6.2009
G1 X15.883 Y-21.597 E6.2601
