; G-Code generated by Simplify3D(R) Version 3.1.0
; Nov 18, 2016 at 11:21:40 AM
; Settings Summary
;   processName,Process1
;   applyToModels,Raspberry_Pi_B+_Sleeve_v1-1_CAP
;   profileName,Rostock MAX v2 (modified)
;   profileVersion,2015-05-01 08:00:00
;   baseProfile,
;   printMaterial,PLA
;   printQuality,Medium
;   printExtruders,
;   extruderName,Primary Extruder
;   extruderToolheadNumber,0
;   extruderDiameter,0.4
;   extruderAutoWidth,1
;   extruderWidth,0.48
;   extrusionMultiplier,1.1
;   extruderUseRetract,1
;   extruderRetractionDistance,5
;   extruderExtraRestartDistance,0
;   extruderRetractionZLift,0.2
;   extruderRetractionSpeed,1600
;   extruderUseCoasting,1
;   extruderCoastingDistance,0.2
;   extruderUseWipe,1
;   extruderWipeDistance,5
;   primaryExtruder,0
;   layerHeight,0.2
;   topSolidLayers,3
;   bottomSolidLayers,3
;   perimeterOutlines,3
;   printPerimetersInsideOut,1
;   startPointOption,2
;   startPointOriginX,0
;   startPointOriginY,0
;   startPointOriginZ,300
;   sequentialIslands,0
;   spiralVaseMode,0
;   firstLayerHeightPercentage,25
;   firstLayerWidthPercentage,100
;   firstLayerUnderspeed,0.25
;   useRaft,0
;   raftExtruder,0
;   raftLayers,3
;   raftOffset,3
;   raftSeparationDistance,0.14
;   raftInfill,85
;   disableRaftBaseLayers,0
;   useSkirt,1
;   skirtExtruder,0
;   skirtLayers,1
;   skirtOutlines,2
;   skirtOffset,3
;   usePrimePillar,0
;   primePillarExtruder,999
;   primePillarWidth,12
;   primePillarLocation,7
;   primePillarSpeedMultiplier,1
;   useOozeShield,0
;   oozeShieldExtruder,999
;   oozeShieldOffset,2
;   oozeShieldOutlines,1
;   oozeShieldSidewallShape,1
;   oozeShieldSidewallAngle,30
;   oozeShieldSpeedMultiplier,1
;   infillExtruder,0
;   internalInfillPattern,Fast Honeycomb
;   externalInfillPattern,Rectilinear
;   infillPercentage,20
;   outlineOverlapPercentage,40
;   infillExtrusionWidthPercentage,100
;   minInfillLength,3
;   infillLayerInterval,1
;   infillAngles,0
;   overlapInfillAngles,0
;   generateSupport,0
;   supportExtruder,0
;   supportInfillPercentage,30
;   supportExtraInflation,0
;   denseSupportLayers,0
;   denseSupportInfillPercentage,70
;   supportLayerInterval,1
;   supportHorizontalPartOffset,0.3
;   supportUpperSeparationLayers,1
;   supportLowerSeparationLayers,1
;   supportType,1
;   supportGridSpacing,4
;   maxOverhangAngle,45
;   supportAngles,0
;   temperatureName,Primary Extruder,Heated Bed
;   temperatureNumber,0,1
;   temperatureSetpointCount,1,1
;   temperatureSetpointLayers,1,1
;   temperatureSetpointTemperatures,205,60
;   temperatureStabilizeAtStartup,1,1
;   temperatureHeatedBed,0,1
;   temperatureRelayBetweenLayers,0,0
;   temperatureRelayBetweenLoops,0,0
;   fanLayers,1,2
;   fanSpeeds,0,100
;   blipFanToFullPower,1
;   adjustSpeedForCooling,1
;   minSpeedLayerTime,15
;   minCoolingSpeedSlowdown,20
;   increaseFanForCooling,0
;   minFanLayerTime,60
;   maxCoolingFanSpeed,100
;   increaseFanForBridging,0
;   bridgingFanSpeed,100
;   use5D,1
;   relativeEdistances,0
;   allowEaxisZeroing,1
;   independentExtruderAxes,0
;   includeM10123,0
;   stickySupport,1
;   applyToolheadOffsets,0
;   gcodeXoffset,0
;   gcodeYoffset,0
;   gcodeZoffset,0
;   overrideMachineDefinition,1
;   machineTypeOverride,1
;   strokeXoverride,197
;   strokeYoverride,197
;   strokeZoverride,375
;   originOffsetXoverride,98.5
;   originOffsetYoverride,98.5
;   originOffsetZoverride,0
;   homeXdirOverride,0
;   homeYdirOverride,0
;   homeZdirOverride,1
;   flipXoverride,1
;   flipYoverride,-1
;   flipZoverride,1
;   toolheadOffsets,0,0|0,0|0,0|0,0|0,0|0,0
;   overrideFirmwareConfiguration,1
;   firmwareTypeOverride,RepRap (Marlin/Repetier/Sprinter)
;   GPXconfigOverride,r2
;   baudRateOverride,115200
;   overridePrinterModels,1
;   printerModelsOverride
;   startingGcode,G28 ; home all axes
;   layerChangeGcode,
;   retractionGcode,
;   toolChangeGcode,
;   endingGcode,M104 S0 ; turn off extruder,M140 S0 ; turn off bed,G28 ; home axes,M84 ; disable motors
;   exportFileFormat,gcode
;   celebration,0
;   celebrationSong,Random Song
;   postProcessing,
;   defaultSpeed,2000
;   outlineUnderspeed,0.5
;   solidInfillUnderspeed,0.8
;   supportUnderspeed,0.8
;   rapidXYspeed,9000
;   rapidZspeed,1200
;   minBridgingArea,50
;   bridgingExtraInflation,0
;   bridgingExtrusionMultiplier,0.8
;   bridgingSpeedMultiplier,0.7
;   filamentDiameter,1.75
;   filamentPricePerKg,22
;   filamentDensity,1.25
;   useMinPrintHeight,0
;   minPrintHeight,0.05
;   useMaxPrintHeight,0
;   maxPrintHeight,0
;   useDiaphragm,0
;   diaphragmLayerInterval,20
;   robustSlicing,1
;   mergeAllIntoSolid,0
;   onlyRetractWhenCrossingOutline,0
;   retractBetweenLayers,0
;   useRetractionMinTravel,0
;   retractionMinTravel,3
;   retractWhileWiping,1
;   onlyWipeOutlines,1
;   avoidCrossingOutline,1
;   maxMovementDetourFactor,2
;   toolChangeRetractionDistance,12
;   toolChangeExtraRestartDistance,-0.5
;   toolChangeRetractionSpeed,600
;   allowThinWallGapFill,1
;   thinWallAllowedOverlapPercentage,10
;   horizontalSizeCompensation,0
G90
M82
M106 S0
M140 S60
M190 S60
M104 S205 T0
M109 S205 T0
G28 ; home all axes
G92 E0
G1 E-5.0000 F1600
G1 Z0.250 F1200
; layer 1, Z = 0.05
T0
; tool H0.200 W0.480
; skirt
G1 X-1.779 Y-1.970 F9000
G1 Z0.050 F1200
G1 E0.0000 F480
G92 E0
G1 X4.880 Y-1.970 E0.2923 F500
G1 X4.880 Y-9.736 E0.6333
G1 X4.990 Y-10.001 E0.6458
G1 X6.950 Y-11.960 E0.7675
G1 X7.214 Y-12.070 E0.7801
G1 X13.886 Y-12.070 E1.0730
G1 X14.150 Y-11.960 E1.0856
G1 X16.110 Y-10.000 E1.2073
G1 X16.220 Y-9.736 E1.2199
G1 X16.220 Y-1.973 E1.5607
G1 X22.880 Y-1.979 E1.8530
G1 X22.880 Y-9.740 E2.1938
G1 X22.990 Y-10.005 E2.2064
G1 X24.959 Y-11.966 E2.3284
G1 X25.225 Y-12.075 E2.3410
G1 X28.323 Y-12.063 E2.4770
G1 X28.350 Y-12.062 E2.4782
G1 X28.606 Y-12.041 E2.4895
G1 X28.633 Y-12.038 E2.4907
G1 X29.352 Y-11.925 E2.5226
G1 X29.383 Y-11.918 E2.5240
G1 X29.668 Y-11.848 E2.5369
G1 X29.698 Y-11.839 E2.5383
G1 X30.404 Y-11.596 E2.5711
G1 X30.433 Y-11.585 E2.5724
G1 X30.701 Y-11.465 E2.5853
G1 X30.730 Y-11.451 E2.5867
G1 X31.370 Y-11.097 E2.6188
G1 X31.394 Y-11.082 E2.6201
G1 X31.614 Y-10.937 E2.6317
G1 X31.637 Y-10.920 E2.6329
G1 X32.131 Y-10.535 E2.6604
G1 X32.153 Y-10.516 E2.6617
G1 X32.348 Y-10.338 E2.6732
G1 X32.368 Y-10.318 E2.6745
G1 X32.857 Y-9.794 E2.7060
G1 X32.876 Y-9.772 E2.7072
G1 X33.040 Y-9.566 E2.7188
G1 X33.057 Y-9.543 E2.7201
G1 X33.408 Y-9.024 E2.7476
G1 X33.423 Y-9.000 E2.7488
G1 X33.553 Y-8.770 E2.7604
G1 X33.566 Y-8.745 E2.7616
G1 X33.875 Y-8.082 E2.7938
G1 X33.887 Y-8.053 E2.7952
G1 X33.988 Y-7.777 E2.8080
G1 X33.997 Y-7.747 E2.8094
G1 X34.191 Y-7.026 E2.8422
G1 X34.198 Y-6.995 E2.8436
G1 X34.249 Y-6.706 E2.8565
G1 X34.253 Y-6.675 E2.8578
G1 X34.312 Y-6.004 E2.8874
G1 X34.313 Y-5.988 E2.8881
G1 X34.320 Y-5.840 E2.8946
G1 X34.320 Y-5.824 E2.8953
G1 X34.314 Y6.063 E3.4172
G1 X34.313 Y6.091 E3.4184
G1 X34.292 Y6.353 E3.4300
G1 X34.289 Y6.380 E3.4312
G1 X34.175 Y7.102 E3.4633
G1 X34.168 Y7.133 E3.4647
G1 X34.098 Y7.418 E3.4775
G1 X34.089 Y7.448 E3.4789
G1 X33.846 Y8.154 E3.5117
G1 X33.835 Y8.183 E3.5131
G1 X33.715 Y8.451 E3.5260
G1 X33.701 Y8.480 E3.5273
G1 X33.333 Y9.146 E3.5608
G1 X33.315 Y9.175 E3.5623
G1 X33.132 Y9.441 E3.5764
G1 X33.111 Y9.469 E3.5780
G1 X32.545 Y10.144 E3.6166
G1 X32.519 Y10.171 E3.6183
G1 X32.266 Y10.416 E3.6338
G1 X32.238 Y10.441 E3.6354
G1 X31.544 Y10.984 E3.6741
G1 X31.515 Y11.004 E3.6756
G1 X31.243 Y11.177 E3.6898
G1 X31.213 Y11.194 E3.6913
G1 X30.535 Y11.540 E3.7247
G1 X30.507 Y11.553 E3.7261
G1 X30.235 Y11.664 E3.7390
G1 X30.205 Y11.674 E3.7404
G1 X29.491 Y11.893 E3.7731
G1 X29.461 Y11.901 E3.7745
G1 X29.174 Y11.962 E3.7874
G1 X29.143 Y11.967 E3.7888
G1 X28.445 Y12.053 E3.8196
G1 X28.423 Y12.055 E3.8206
G1 X28.217 Y12.068 E3.8297
G1 X28.195 Y12.068 E3.8306
G1 X-28.102 Y12.070 E6.3023
G1 X-28.124 Y12.069 E6.3033
G1 X-28.329 Y12.057 E6.3123
G1 X-28.351 Y12.055 E6.3132
G1 X-29.255 Y11.944 E6.3532
G1 X-29.292 Y11.938 E6.3549
G1 X-29.634 Y11.859 E6.3703
G1 X-29.671 Y11.848 E6.3719
G1 X-30.390 Y11.601 E6.4054
G1 X-30.417 Y11.591 E6.4066
G1 X-30.659 Y11.485 E6.4182
G1 X-30.684 Y11.473 E6.4194
G1 X-31.225 Y11.186 E6.4463
G1 X-31.247 Y11.174 E6.4474
G1 X-31.446 Y11.049 E6.4577
G1 X-31.467 Y11.035 E6.4588
G1 X-31.950 Y10.684 E6.4850
G1 X-31.970 Y10.669 E6.4861
G1 X-32.150 Y10.518 E6.4964
G1 X-32.168 Y10.501 E6.4975
G1 X-32.598 Y10.087 E6.5238
G1 X-32.616 Y10.069 E6.5249
G1 X-32.773 Y9.894 E6.5352
G1 X-32.789 Y9.875 E6.5363
G1 X-33.157 Y9.405 E6.5625
G1 X-33.172 Y9.384 E6.5636
G1 X-33.303 Y9.190 E6.5739
G1 X-33.317 Y9.168 E6.5750
G1 X-33.623 Y8.638 E6.6019
G1 X-33.636 Y8.613 E6.6031
G1 X-33.750 Y8.375 E6.6147
G1 X-33.761 Y8.349 E6.6160
G1 X-34.018 Y7.680 E6.6475
G1 X-34.028 Y7.653 E6.6487
G1 X-34.103 Y7.400 E6.6603
G1 X-34.110 Y7.373 E6.6615
G1 X-34.237 Y6.774 E6.6884
G1 X-34.242 Y6.749 E6.6895
G1 X-34.274 Y6.517 E6.6998
G1 X-34.277 Y6.492 E6.7009
G1 X-34.315 Y5.954 E6.7246
G1 X-34.316 Y5.941 E6.7251
G1 X-34.320 Y5.823 E6.7303
G1 X-34.320 Y5.811 E6.7309
G1 X-34.320 Y-5.823 E7.2416
G1 X-34.320 Y-5.839 E7.2423
G1 X-34.313 Y-5.985 E7.2488
G1 X-34.312 Y-6.001 E7.2494
G1 X-34.255 Y-6.655 E7.2783
G1 X-34.252 Y-6.683 E7.2795
G1 X-34.208 Y-6.943 E7.2911
G1 X-34.203 Y-6.970 E7.2923
G1 X-34.044 Y-7.607 E7.3211
G1 X-34.034 Y-7.640 E7.3226
G1 X-33.927 Y-7.944 E7.3368
G1 X-33.914 Y-7.976 E7.3383
G1 X-33.491 Y-8.883 E7.3822
G1 X-33.470 Y-8.922 E7.3842
G1 X-33.253 Y-9.270 E7.4022
G1 X-33.227 Y-9.306 E7.4041
G1 X-32.570 Y-10.119 E7.4500
G1 X-32.540 Y-10.151 E7.4519
G1 X-32.245 Y-10.437 E7.4700
G1 X-32.212 Y-10.465 E7.4719
G1 X-31.413 Y-11.068 E7.5158
G1 X-31.384 Y-11.087 E7.5174
G1 X-31.109 Y-11.256 E7.5315
G1 X-31.079 Y-11.273 E7.5331
G1 X-30.502 Y-11.554 E7.5612
G1 X-30.479 Y-11.564 E7.5623
G1 X-30.262 Y-11.652 E7.5726
G1 X-30.238 Y-11.661 E7.5737
G1 X-29.656 Y-11.851 E7.6006
G1 X-29.629 Y-11.858 E7.6018
G1 X-29.372 Y-11.920 E7.6134
G1 X-29.345 Y-11.926 E7.6147
G1 X-28.638 Y-12.038 E7.6461
G1 X-28.610 Y-12.041 E7.6473
G1 X-28.350 Y-12.062 E7.6588
G1 X-28.322 Y-12.063 E7.6600
G1 X-24.121 Y-12.073 E7.8444
G1 X-23.856 Y-11.964 E7.8570
G1 X-21.890 Y-10.004 E7.9789
G1 X-21.780 Y-9.739 E7.9915
G1 X-21.779 Y-0.970 E8.3765
G1 X-12.620 Y-0.970 E8.7785
G1 X-12.620 Y-9.736 E9.1634
G1 X-12.510 Y-10.001 E9.1760
G1 X-10.550 Y-11.960 E9.2977
G1 X-10.286 Y-12.070 E9.3102
G1 X-4.114 Y-12.070 E9.5812
G1 X-3.850 Y-11.960 E9.5938
G1 X-1.890 Y-10.001 E9.7154
G1 X-1.780 Y-9.736 E9.7280
G1 X-1.779 Y-2.170 E10.0602
G1 X-1.779 Y-1.970 F500
G92 E0
G1 E-5.0000 F1600
G1 Z0.250 F1200
G1 X-2.259 Y-1.490 F9000
G1 Z0.050 F1200
G1 E0.0000 F1600
G92 E0
G1 X5.360 Y-1.490 E0.3345 F500
G1 X5.360 Y-9.641 E0.6923
G1 X5.397 Y-9.729 E0.6965
G1 X7.221 Y-11.553 E0.8098
G1 X7.310 Y-11.590 E0.8140
G1 X13.790 Y-11.590 E1.0985
G1 X13.879 Y-11.553 E1.1027
G1 X15.703 Y-9.729 E1.2160
G1 X15.740 Y-9.640 E1.2202
G1 X15.740 Y-1.493 E1.5779
G1 X23.360 Y-1.500 E1.9124
G1 X23.360 Y-9.644 E2.2700
G1 X23.397 Y-9.733 E2.2742
G1 X25.230 Y-11.559 E2.3878
G1 X25.319 Y-11.595 E2.3920
G1 X28.312 Y-11.583 E2.5234
G1 X28.321 Y-11.583 E2.5238
G1 X28.558 Y-11.564 E2.5343
G1 X28.567 Y-11.563 E2.5347
G1 X29.267 Y-11.452 E2.5658
G1 X29.278 Y-11.450 E2.5662
G1 X29.542 Y-11.384 E2.5782
G1 X29.552 Y-11.381 E2.5787
G1 X30.238 Y-11.146 E2.6105
G1 X30.248 Y-11.142 E2.6110
G1 X30.497 Y-11.031 E2.6229
G1 X30.506 Y-11.026 E2.6234
G1 X31.129 Y-10.682 E2.6547
G1 X31.137 Y-10.677 E2.6551
G1 X31.342 Y-10.541 E2.6658
G1 X31.349 Y-10.536 E2.6662
G1 X31.829 Y-10.162 E2.6929
G1 X31.836 Y-10.156 E2.6934
G1 X32.017 Y-9.990 E2.7041
G1 X32.023 Y-9.984 E2.7045
G1 X32.500 Y-9.473 E2.7352
G1 X32.506 Y-9.466 E2.7356
G1 X32.659 Y-9.274 E2.7464
G1 X32.664 Y-9.267 E2.7468
G1 X33.005 Y-8.763 E2.7735
G1 X33.010 Y-8.755 E2.7739
G1 X33.130 Y-8.542 E2.7846
G1 X33.135 Y-8.533 E2.7851
G1 X33.436 Y-7.888 E2.8163
G1 X33.440 Y-7.878 E2.8168
G1 X33.533 Y-7.622 E2.8287
G1 X33.536 Y-7.612 E2.8292
G1 X33.725 Y-6.912 E2.8611
G1 X33.727 Y-6.901 E2.8615
G1 X33.774 Y-6.633 E2.8735
G1 X33.776 Y-6.623 E2.8739
G1 X33.834 Y-5.967 E2.9028
G1 X33.834 Y-5.962 E2.9031
G1 X33.840 Y-5.824 E2.9091
G1 X33.840 Y-5.819 E2.9094
G1 X33.834 Y6.053 E3.4306
G1 X33.833 Y6.063 E3.4310
G1 X33.814 Y6.306 E3.4417
G1 X33.813 Y6.315 E3.4421
G1 X33.702 Y7.017 E3.4733
G1 X33.700 Y7.028 E3.4738
G1 X33.634 Y7.292 E3.4857
G1 X33.631 Y7.302 E3.4862
G1 X33.396 Y7.988 E3.5181
G1 X33.392 Y7.998 E3.5185
G1 X33.281 Y8.247 E3.5305
G1 X33.276 Y8.256 E3.5309
G1 X32.918 Y8.903 E3.5634
G1 X32.912 Y8.913 E3.5639
G1 X32.743 Y9.160 E3.5771
G1 X32.736 Y9.169 E3.5776
G1 X32.185 Y9.826 E3.6152
G1 X32.177 Y9.835 E3.6157
G1 X31.942 Y10.062 E3.6301
G1 X31.932 Y10.071 E3.6306
G1 X31.257 Y10.599 E3.6683
G1 X31.248 Y10.605 E3.6688
G1 X30.995 Y10.766 E3.6819
G1 X30.985 Y10.772 E3.6824
G1 X30.326 Y11.108 E3.7149
G1 X30.317 Y11.112 E3.7154
G1 X30.064 Y11.215 E3.7273
G1 X30.054 Y11.218 E3.7278
G1 X29.361 Y11.431 E3.7596
G1 X29.351 Y11.433 E3.7601
G1 X29.084 Y11.490 E3.7721
G1 X29.074 Y11.492 E3.7725
G1 X28.394 Y11.576 E3.8026
G1 X28.386 Y11.576 E3.8029
G1 X28.195 Y11.588 E3.8113
G1 X28.188 Y11.588 E3.8116
G1 X-28.095 Y11.590 E6.2827
G1 X-28.102 Y11.590 E6.2830
G1 X-28.292 Y11.578 E6.2913
G1 X-28.300 Y11.578 E6.2917
G1 X-29.184 Y11.469 E6.3308
G1 X-29.196 Y11.467 E6.3313
G1 X-29.514 Y11.394 E6.3457
G1 X-29.526 Y11.390 E6.3462
G1 X-30.225 Y11.150 E6.3787
G1 X-30.234 Y11.147 E6.3791
G1 X-30.459 Y11.049 E6.3898
G1 X-30.467 Y11.045 E6.3902
G1 X-30.992 Y10.766 E6.4163
G1 X-31.000 Y10.762 E6.4167
G1 X-31.184 Y10.647 E6.4263
G1 X-31.191 Y10.642 E6.4266
G1 X-31.661 Y10.301 E6.4521
G1 X-31.668 Y10.296 E6.4525
G1 X-31.835 Y10.156 E6.4621
G1 X-31.841 Y10.150 E6.4624
G1 X-32.259 Y9.747 E6.4879
G1 X-32.265 Y9.741 E6.4883
G1 X-32.411 Y9.579 E6.4979
G1 X-32.416 Y9.573 E6.4982
G1 X-32.774 Y9.115 E6.5237
G1 X-32.779 Y9.109 E6.5241
G1 X-32.901 Y8.928 E6.5336
G1 X-32.905 Y8.921 E6.5340
G1 X-33.203 Y8.406 E6.5601
G1 X-33.207 Y8.398 E6.5605
G1 X-33.313 Y8.177 E6.5713
G1 X-33.316 Y8.168 E6.5717
G1 X-33.567 Y7.516 E6.6024
G1 X-33.570 Y7.507 E6.6028
G1 X-33.640 Y7.272 E6.6135
G1 X-33.642 Y7.263 E6.6140
G1 X-33.766 Y6.682 E6.6400
G1 X-33.767 Y6.674 E6.6404
G1 X-33.798 Y6.458 E6.6500
G1 X-33.799 Y6.450 E6.6503
G1 X-33.836 Y5.924 E6.6735
G1 X-33.836 Y5.920 E6.6736
G1 X-33.840 Y5.811 E6.6785
G1 X-33.840 Y5.806 E6.6787
G1 X-33.840 Y-5.818 E7.1890
G1 X-33.840 Y-5.823 E7.1892
G1 X-33.834 Y-5.959 E7.1952
G1 X-33.834 Y-5.964 E7.1954
G1 X-33.778 Y-6.604 E7.2236
G1 X-33.777 Y-6.613 E7.2240
G1 X-33.736 Y-6.854 E7.2348
G1 X-33.734 Y-6.863 E7.2352
G1 X-33.581 Y-7.480 E7.2630
G1 X-33.578 Y-7.491 E7.2636
G1 X-33.478 Y-7.773 E7.2767
G1 X-33.474 Y-7.784 E7.2772
G1 X-33.062 Y-8.667 E7.3200
G1 X-33.055 Y-8.680 E7.3206
G1 X-32.853 Y-9.004 E7.3374
G1 X-32.845 Y-9.016 E7.3380
G1 X-32.206 Y-9.805 E7.3826
G1 X-32.196 Y-9.816 E7.3833
G1 X-31.922 Y-10.081 E7.4000
G1 X-31.911 Y-10.091 E7.4007
G1 X-31.133 Y-10.678 E7.4434
G1 X-31.123 Y-10.684 E7.4439
G1 X-30.868 Y-10.841 E7.4571
G1 X-30.858 Y-10.847 E7.4576
G1 X-30.299 Y-11.119 E7.4849
G1 X-30.292 Y-11.123 E7.4853
G1 X-30.090 Y-11.204 E7.4948
G1 X-30.082 Y-11.207 E7.4952
G1 X-29.517 Y-11.391 E7.5213
G1 X-29.508 Y-11.394 E7.5217
G1 X-29.269 Y-11.451 E7.5325
G1 X-29.260 Y-11.453 E7.5329
G1 X-28.572 Y-11.562 E7.5635
G1 X-28.563 Y-11.563 E7.5639
G1 X-28.321 Y-11.583 E7.5745
G1 X-28.312 Y-11.583 E7.5749
G1 X-24.215 Y-11.593 E7.7548
G1 X-24.127 Y-11.557 E7.7590
G1 X-22.297 Y-9.731 E7.8725
G1 X-22.260 Y-9.643 E7.8766
G1 X-22.259 Y-0.490 E8.2785
G1 X-12.140 Y-0.490 E8.7227
G1 X-12.140 Y-9.640 E9.1244
G1 X-12.103 Y-9.729 E9.1286
G1 X-10.279 Y-11.553 E9.2419
G1 X-10.190 Y-11.590 E9.2461
G1 X-4.210 Y-11.590 E9.5087
G1 X-4.122 Y-11.553 E9.5129
G1 X-2.297 Y-9.729 E9.6262
G1 X-2.260 Y-9.641 E9.6304
G1 X-2.259 Y-1.690 E9.9794
G1 X-2.259 Y-1.490 F500
G92 E0
G1 E-5.0000 F1600
G1 Z0.250 F1200
; inner perimeter
G1 X-4.813 Y2.949 F9000
G1 Z0.050 F1200
G1 E0.0000 F1600
G92 E0
G1 X7.786 Y2.950 E0.5531 F417
G1 X8.176 Y2.925 E0.5703
G1 X8.745 Y2.730 E0.5967
G1 X9.223 Y2.370 E0.6230
G1 X9.521 Y1.989 E0.6442
G1 X9.742 Y1.468 E0.6690
