; G-Code generated by Simplify3D(R) Version 3.1.1
; Dec 25, 2016 at 7:54:47 PM
; Settings Summary
;   processName,Process1
;   applyToModels,VaderHead
;   profileName,Rostock MAX v2 (modified)
;   profileVersion,2015-05-01 08:00:00
;   baseProfile,
;   printMaterial,Iron PLA
;   printQuality,Medium
;   printExtruders,
;   extruderName,Primary Extruder
;   extruderToolheadNumber,0
;   extruderDiameter,0.6
;   extruderAutoWidth,1
;   extruderWidth,0.72
;   extrusionMultiplier,1.1
;   extruderUseRetract,1
;   extruderRetractionDistance,2
;   extruderExtraRestartDistance,-0.2
;   extruderRetractionZLift,0
;   extruderRetractionSpeed,1800
;   extruderUseCoasting,1
;   extruderCoastingDistance,0.5
;   extruderUseWipe,0
;   extruderWipeDistance,5
;   primaryExtruder,0
;   layerHeight,0.3
;   topSolidLayers,3
;   bottomSolidLayers,3
;   perimeterOutlines,3
;   printPerimetersInsideOut,1
;   startPointOption,2
;   startPointOriginX,0
;   startPointOriginY,0
;   startPointOriginZ,300
;   sequentialIslands,0
;   spiralVaseMode,0
;   firstLayerHeightPercentage,25
;   firstLayerWidthPercentage,100
;   firstLayerUnderspeed,0.4
;   useRaft,0
;   raftExtruder,0
;   raftLayers,3
;   raftOffset,15
;   raftSeparationDistance,0.14
;   raftInfill,85
;   disableRaftBaseLayers,0
;   useSkirt,1
;   skirtExtruder,0
;   skirtLayers,1
;   skirtOutlines,1
;   skirtOffset,10
;   usePrimePillar,0
;   primePillarExtruder,999
;   primePillarWidth,12
;   primePillarLocation,7
;   primePillarSpeedMultiplier,1
;   useOozeShield,0
;   oozeShieldExtruder,999
;   oozeShieldOffset,2
;   oozeShieldOutlines,1
;   oozeShieldSidewallShape,1
;   oozeShieldSidewallAngle,30
;   oozeShieldSpeedMultiplier,1
;   infillExtruder,0
;   internalInfillPattern,Rectilinear
;   externalInfillPattern,Rectilinear
;   infillPercentage,85
;   outlineOverlapPercentage,40
;   infillExtrusionWidthPercentage,100
;   minInfillLength,3
;   infillLayerInterval,1
;   infillAngles,45,-45
;   overlapInfillAngles,0
;   generateSupport,1
;   supportExtruder,0
;   supportInfillPercentage,40
;   supportExtraInflation,0
;   denseSupportLayers,0
;   denseSupportInfillPercentage,70
;   supportLayerInterval,1
;   supportHorizontalPartOffset,0.5
;   supportUpperSeparationLayers,1
;   supportLowerSeparationLayers,1
;   supportType,0
;   supportGridSpacing,3
;   maxOverhangAngle,70
;   supportAngles,0
;   temperatureName,Primary Extruder,Heated Bed
;   temperatureNumber,0,1
;   temperatureSetpointCount,1,1
;   temperatureSetpointLayers,1,1
;   temperatureSetpointTemperatures,225,60
;   temperatureStabilizeAtStartup,1,1
;   temperatureHeatedBed,0,1
;   temperatureRelayBetweenLayers,0,0
;   temperatureRelayBetweenLoops,0,0
;   fanLayers,1,2
;   fanSpeeds,0,80
;   blipFanToFullPower,1
;   adjustSpeedForCooling,1
;   minSpeedLayerTime,5
;   minCoolingSpeedSlowdown,80
;   increaseFanForCooling,0
;   minFanLayerTime,60
;   maxCoolingFanSpeed,100
;   increaseFanForBridging,0
;   bridgingFanSpeed,100
;   use5D,1
;   relativeEdistances,0
;   allowEaxisZeroing,1
;   independentExtruderAxes,0
;   includeM10123,0
;   stickySupport,1
;   applyToolheadOffsets,0
;   gcodeXoffset,0
;   gcodeYoffset,0
;   gcodeZoffset,0
;   overrideMachineDefinition,1
;   machineTypeOverride,1
;   strokeXoverride,197
;   strokeYoverride,197
;   strokeZoverride,375
;   originOffsetXoverride,98.5
;   originOffsetYoverride,98.5
;   originOffsetZoverride,0
;   homeXdirOverride,0
;   homeYdirOverride,0
;   homeZdirOverride,1
;   flipXoverride,1
;   flipYoverride,-1
;   flipZoverride,1
;   toolheadOffsets,0,0|0,0|0,0|0,0|0,0|0,0
;   overrideFirmwareConfiguration,1
;   firmwareTypeOverride,RepRap (Marlin/Repetier/Sprinter)
;   GPXconfigOverride,r2
;   baudRateOverride,115200
;   overridePrinterModels,1
;   printerModelsOverride
;   startingGcode,G28 ; home all axes
;   layerChangeGcode,
;   retractionGcode,
;   toolChangeGcode,
;   endingGcode,M104 S0 ; turn off extruder,M140 S0 ; turn off bed,G28 ; home axes,M84 ; disable motors
;   exportFileFormat,gcode
;   celebration,0
;   celebrationSong,Random Song
;   postProcessing,
;   defaultSpeed,1000
;   outlineUnderspeed,0.5
;   solidInfillUnderspeed,0.8
;   supportUnderspeed,0.8
;   rapidXYspeed,9000
;   rapidZspeed,1200
;   minBridgingArea,50
;   bridgingExtraInflation,0
;   bridgingExtrusionMultiplier,0.8
;   bridgingSpeedMultiplier,1.25
;   filamentDiameter,1.75
;   filamentPricePerKg,22
;   filamentDensity,1.25
;   useMinPrintHeight,0
;   minPrintHeight,0.05
;   useMaxPrintHeight,0
;   maxPrintHeight,0
;   useDiaphragm,0
;   diaphragmLayerInterval,20
;   robustSlicing,1
;   mergeAllIntoSolid,0
;   onlyRetractWhenCrossingOutline,0
;   retractBetweenLayers,0
;   useRetractionMinTravel,0
;   retractionMinTravel,3
;   retractWhileWiping,1
;   onlyWipeOutlines,1
;   avoidCrossingOutline,1
;   maxMovementDetourFactor,1.5
;   toolChangeRetractionDistance,12
;   toolChangeExtraRestartDistance,-0.5
;   toolChangeRetractionSpeed,600
;   allowThinWallGapFill,0
;   thinWallAllowedOverlapPercentage,10
;   horizontalSizeCompensation,0
G90
M82
M106 S0
M140 S60
M190 S60
M104 S225 T0
M109 S225 T0
G28 ; home all axes
G92 E0
G1 E-2.0000 F1800
G1 Z0.075 F1200
; layer 1, Z = 0.075
T0
; tool H0.300 W0.720
; skirt
G1 X13.708 Y-14.371 F9000
G1 E-0.2000 F540
G92 E0
G1 X18.148 Y-14.371 E0.4386 F400
G1 X18.281 Y-14.316 E0.4529
G1 X24.252 Y-8.289 E1.2909
G1 X24.306 Y-8.155 E1.3051
G1 X24.219 Y1.049 E2.2144
G1 X24.219 Y1.063 E2.2158
G1 X24.149 Y1.858 E2.2946
G1 X24.147 Y1.872 E2.2960
G1 X22.735 Y10.301 E3.1403
G1 X22.719 Y10.353 E3.1456
G1 X21.340 Y13.098 E3.4490
G1 X21.309 Y13.142 E3.4544
G1 X14.464 Y20.272 E4.4307
G1 X14.427 Y20.301 E4.4354
G1 X12.139 Y21.687 E4.6996
G1 X12.096 Y21.706 E4.7043
G1 X6.969 Y23.198 E5.2317
G1 X5.151 Y25.015 E5.4856
G1 X5.019 Y25.069 E5.4997
G1 X-5.019 Y25.069 E6.4913
G1 X-5.151 Y25.015 E6.5054
G1 X-6.969 Y23.198 E6.7593
G1 X-12.096 Y21.706 E7.2868
G1 X-12.140 Y21.687 E7.2915
G1 X-14.429 Y20.300 E7.5559
G1 X-14.466 Y20.270 E7.5606
G1 X-21.319 Y13.127 E8.5384
G1 X-21.350 Y13.083 E8.5437
G1 X-22.728 Y10.335 E8.8474
G1 X-22.745 Y10.284 E8.8527
G1 X-24.148 Y1.865 E9.6958
G1 X-24.150 Y1.851 E9.6972
G1 X-24.219 Y1.061 E9.7755
G1 X-24.219 Y1.047 E9.7769
G1 X-24.306 Y-8.155 E10.6860
G1 X-24.252 Y-8.289 E10.7002
G1 X-18.281 Y-14.316 E11.5383
G1 X-18.148 Y-14.371 E11.5525
G1 X-13.708 Y-14.371 E11.9911
G1 X-10.995 Y-19.908 E12.6002
G1 X-10.927 Y-19.983 E12.6102
G1 X-5.983 Y-23.066 E13.1857
G1 X-5.886 Y-23.094 E13.1957
G1 X5.886 Y-23.094 E14.3586
G1 X5.983 Y-23.066 E14.3686
G1 X10.927 Y-19.983 E14.9441
G1 X10.995 Y-19.908 E14.9541
G1 X13.488 Y-14.820 E15.5138
G1 X13.708 Y-14.371 F400
G92 E0
G1 E-2.0000 F1800
; inner perimeter
; inner perimeter
G1 X12.085 Y1.399 F9000
G1 E-0.2000 F1800
G92 E0
G1 X12.606 Y1.526 E0.0529 F267
G1 X11.761 Y6.568 E0.5579
G1 X10.452 Y7.932 E0.7447
G1 X10.058 Y7.697 E0.7900
G1 X11.932 Y1.875 E1.3941
G1 X12.085 Y1.399 F267
G92 E0
G1 E-2.0000 F1800
G1 X8.821 Y8.827 F9000
G1 E-0.2000 F1800
G92 E0
G1 X9.209 Y9.226 E0.0550 F267
G1 X7.337 Y11.176 E0.3220
G1 X0.000 Y13.311 E1.0769
G1 X-7.337 Y11.176 E1.8317
G1 X-9.200 Y9.235 E2.0975
G1 X-8.811 Y8.836 E2.1525
G1 X-7.054 Y10.435 E2.3872
G1 X0.000 Y12.322 E3.1085
G1 X7.054 Y10.435 E3.8298
G1 X8.451 Y9.164 E4.0164
G1 X8.821 Y8.827 F267
G92 E0
G1 E-2.0000 F1800
G1 X7.807 Y8.766 F9000
G1 X6.695 Y9.778 F9000
G1 X0.000 Y11.569 F9000
G1 X-6.695 Y9.778 F9000
G1 X-8.911 Y7.762 F9000
G1 X-10.060 Y7.693 F9000
G1 E-0.2000 F1800
G92 E0
G1 X-10.453 Y7.928 E0.0453 F267
G1 X-11.768 Y6.558 E0.2329
G1 X-12.608 Y1.518 E0.7376
G1 X-12.088 Y1.391 E0.7905
G1 X-10.213 Y7.217 E1.3951
G1 X-10.060 Y7.693 F267
G92 E0
G1 E-2.0000 F1800
; outer perimeter
G1 X-9.357 Y7.356 F9000
G1 X-6.695 Y9.778 F9000
G1 X0.000 Y11.569 F9000
G1 X6.695 Y9.778 F9000
G1 X9.424 Y7.296 F9000
G1 X11.572 Y0.619 F9000
G1 X11.607 Y-2.720 F9000
G1 X13.543 Y-3.651 F9000
G1 E-0.2000 F1800
G92 E0
G1 X13.504 Y0.522 E0.4122 F200
G1 X12.435 Y6.906 E1.0517
G1 X7.723 Y11.814 E1.7237
G1 X0.448 Y13.931 E2.4722
G1 X0.447 Y14.349 E2.5135
G1 X-0.447 Y14.349 E2.6019
G1 X-0.448 Y13.931 E2.6433
G1 X-7.723 Y11.814 E3.3918
G1 X-12.442 Y6.895 E4.0650
G1 X-13.504 Y0.522 E4.7033
G1 X-13.543 Y-3.651 E5.1156
G1 X-11.624 Y-3.651 E5.3052
G1 X-11.580 Y0.620 E5.7271
G1 X-9.430 Y7.300 E6.4203
G1 X-6.699 Y9.784 E6.7850
G1 X0.000 Y11.577 E7.4700
G1 X6.699 Y9.784 E8.1550
G1 X9.430 Y7.300 E8.5197
G1 X11.580 Y0.620 E9.2129
G1 X11.624 Y-3.651 E9.6348
G1 X13.043 Y-3.651 E9.7750
G1 X13.543 Y-3.651 F200
G92 E0
G1 E-2.0000 F1800
; inner perimeter
G1 X4.621 Y-2.968 F9000
G1 E-0.2000 F1800
G92 E0
G1 X4.157 Y-2.822 E0.0481 F333
G1 X3.622 Y-3.872 E0.1644
G1 X2.632 Y-4.862 E0.3028
G1 X1.384 Y-5.498 E0.4411
G1 X0.000 Y-5.717 E0.5795
G1 X-1.384 Y-5.498 E0.7179
G1 X-2.632 Y-4.862 E0.8563
G1 X-3.622 Y-3.872 E0.9947
G1 X-4.157 Y-2.822 E1.1110
G1 X-4.621 Y-2.968 E1.1591
G1 X-4.185 Y-6.167 E1.4780
G1 X-1.834 Y-10.934 E2.0031
G1 X1.834 Y-10.934 E2.3654
G1 X4.185 Y-6.167 E2.8904
G1 X4.554 Y-3.463 E3.1600
G1 X4.621 Y-2.968 F333
G92 E0
G1 E-2.0000 F1800
G1 X3.837 Y0.972 F9000
G1 E-0.2000 F1800
G92 E0
G1 X4.320 Y1.155 E0.0510 F333
G1 X3.499 Y4.322 E0.3742
G1 X-3.499 Y4.322 E1.0656
G1 X-4.320 Y1.155 E1.3888
G1 X-3.837 Y0.972 E1.4398
G1 X-3.622 Y1.392 E1.4864
G1 X-2.632 Y2.383 E1.6248
G1 X-1.384 Y3.019 E1.7632
G1 X0.000 Y3.238 E1.9016
G1 X1.384 Y3.019 E2.0399
G1 X2.632 Y2.383 E2.1783
G1 X3.602 Y1.412 E2.3139
G1 X3.622 Y1.392 F333
G1 X3.837 Y0.972 F333
G92 E0
G1 E-2.0000 F1800
; inner perimeter
G1 X5.618 Y-0.987 F9000
G1 E-0.2000 F1800
G92 E0
G1 X4.057 Y5.042 E0.6152 F267
G1 X-4.056 Y5.042 E1.4167
G1 X-5.618 Y-0.987 E2.0319
G1 X-4.883 Y-6.381 E2.5696
G1 X-2.282 Y-11.654 E3.1505
G1 X2.282 Y-11.654 E3.6012
G1 X4.883 Y-6.381 E4.1821
G1 X5.550 Y-1.482 E4.6704
G1 X5.618 Y-0.987 F267
G92 E0
G1 E-2.0000 F1800
; outer perimeter
G1 X6.348 Y-0.964 F9000
G1 E-0.2000 F1800
G92 E0
G1 X6.349 Y-0.936 E0.0028 F200
G1 X4.614 Y5.762 E0.6863
G1 X-4.614 Y5.762 E1.5978
G1 X-6.349 Y-0.936 E2.2814
G1 X-6.348 Y-0.964 E2.2841
G1 X-5.581 Y-6.594 E2.8454
G1 X-2.729 Y-12.374 E3.4820
G1 X2.729 Y-12.374 E4.0213
G1 X5.581 Y-6.594 E4.6579
G1 X6.280 Y-1.460 E5.1698
G1 X6.348 Y-0.964 F200
G92 E0
G1 E-2.0000 F1800
; inner perimeter
; inner perimeter
G1 X3.565 Y-2.398 F9000
G1 E-0.2000 F1800
G92 E0
G1 X3.033 Y-3.443 E0.1159 F267
G1 X2.203 Y-4.272 E0.2317
G1 X1.158 Y-4.805 E0.3476
G1 X0.000 Y-4.988 E0.4634
G1 X-1.158 Y-4.805 E0.5793
G1 X-2.203 Y-4.272 E0.6951
G1 X-3.033 Y-3.443 E0.8110
G1 X-3.565 Y-2.398 E0.9268
G1 X-3.749 Y-1.240 E1.0427
G1 X-3.565 Y-0.081 E1.1585
G1 X-3.033 Y0.964 E1.2744
G1 X-2.203 Y1.793 E1.3902
G1 X-1.158 Y2.325 E1.5061
G1 X0.000 Y2.509 E1.6220
G1 X1.158 Y2.325 E1.7378
G1 X2.203 Y1.793 E1.8537
G1 X3.033 Y0.964 E1.9695
G1 X3.565 Y-0.081 E2.0854
G1 X3.749 Y-1.240 E2.2012
G1 X3.643 Y-1.904 E2.2677
G1 X3.565 Y-2.398 F267
G92 E0
G1 E-2.0000 F1800
; outer perimeter
G1 X2.872 Y-2.173 F9000
G1 E-0.2000 F1800
G92 E0
G1 X2.443 Y-3.015 E0.0933 F200
G1 X1.775 Y-3.683 E0.1866
G1 X0.933 Y-4.112 E0.2800
G1 X0.000 Y-4.259 E0.3733
G1 X-0.933 Y-4.112 E0.4666
G1 X-1.775 Y-3.683 E0.5599
G1 X-2.443 Y-3.015 E0.6533
G1 X-2.872 Y-2.173 E0.7466
G1 X-3.020 Y-1.240 E0.8399
G1 X-2.872 Y-0.307 E0.9332
G1 X-2.443 Y0.535 E1.0266
G1 X-1.775 Y1.203 E1.1199
G1 X-0.933 Y1.632 E1.2132
G1 X0.000 Y1.780 E1.3065
G1 X0.933 Y1.632 E1.3999
G1 X1.775 Y1.203 E1.4932
G1 X2.443 Y0.535 E1.5865
G1 X2.872 Y-0.307 E1.6798
G1 X3.020 Y-1.240 E1.7732
G1 X2.950 Y-1.679 E1.8171
G1 X2.872 Y-2.173 F200
G92 E0
G1 E-2.0000 F1800
; solid layer
G1 X3.322 Y2.304 F9000
G1 E-0.2000 F1800
G92 E0
G1 X3.524 Y2.505 E0.0282 F320
G1 X3.314 Y3.314 E0.1107
G1 X2.788 Y2.788 E0.1842
G1 X2.113 Y3.132 E0.2590
G1 X2.872 Y3.890 E0.3650
G1 X1.854 Y3.890 E0.4656
G1 X1.415 Y3.451 E0.5269
G1 X0.536 Y3.590 E0.6149
G1 X0.836 Y3.890 E0.6568
G1 X-0.183 Y3.890 E0.7574
G1 X-0.473 Y3.600 E0.7979
G1 X-1.519 Y3.435 E0.9025
G1 X-1.800 Y3.291 E0.9337
G1 X-1.201 Y3.890 E1.0173
G1 X-2.219 Y3.890 E1.1179
G1 X-3.142 Y2.968 E1.2468
G1 X-3.495 Y2.614 F320
G92 E0
G1 E-2.0000 F1800
G1 X-4.039 Y-4.039 F9000
G1 E-0.2000 F1800
G92 E0
G1 X-4.028 Y-4.028 E0.0016 F320
G1 X-3.976 Y-4.129 E0.0128
G1 X-3.543 Y-4.562 E0.0733
G1 X-3.917 Y-4.936 E0.1255
G1 X-3.795 Y-5.832 E0.2149
G1 X-3.034 Y-5.071 E0.3212
G1 X-2.889 Y-5.216 E0.3415
G1 X-2.407 Y-5.462 E0.3949
G1 X-3.508 Y-6.563 E0.5488
G1 X-3.172 Y-7.245 E0.6239
G1 X-1.732 Y-5.805 E0.8250
G1 X-1.519 Y-5.914 E0.8487
G1 X-0.918 Y-6.009 E0.9088
G1 X-2.836 Y-7.927 E1.1766
G1 X-2.499 Y-8.609 E1.2517
G1 X-0.039 Y-6.149 E1.5954
G1 X0.000 Y-6.155 E1.5993
G1 X1.156 Y-5.972 E1.7150
G1 X-2.163 Y-9.291 E2.1786
G1 X-1.827 Y-9.972 E2.2537
G1 X4.029 Y-4.117 E3.0717
G1 X3.868 Y-5.296 E3.1892
G1 X-1.338 Y-10.502 E3.9165
G1 X-0.319 Y-10.502 E4.0171
G1 X3.401 Y-6.782 E4.5368
G1 X2.409 Y-8.791 E4.7581
G1 X1.052 Y-10.148 E4.9477
G1 X0.699 Y-10.502 F320
G92 E0
G1 E-2.0000 F1800
; support
G1 X-1.500 Y-1.800 F9000
G1 E-0.2000 F1800
G92 E0
G1 X1.500 Y-1.800 E0.2963 F320
G1 X1.500 Y-0.302 E0.4444
G1 X1.444 Y-0.191 E0.4566
G1 X1.253 Y0.000 E0.4833
G1 X-0.753 Y0.000 E0.6814
G1 X-1.253 Y0.000 F320
G92 E0
G1 E-2.0000 F1800
; layer 2, Z = 0.375
M106 S204
; inner perimeter
G1 X-3.622 Y1.392 F9000
G1 Z0.375 F1200
G1 E-0.2000 F1800
G92 E0
G1 X-2.632 Y2.383 E0.1384 F833
G1 X-1.384 Y3.019 E0.2768
G1 X0.000 Y3.238 E0.4152
G1 X1.384 Y3.019 E0.5535
G1 X2.632 Y2.383 E0.6919
G1 X3.622 Y1.392 E0.8303
G1 X4.046 Y0.561 E0.9224
G1 X4.528 Y0.744 E0.9734
G1 X3.601 Y4.340 E1.3402
G1 X0.194 Y4.340 E1.6768
G1 X0.000 Y4.361 E1.6960
G1 X-0.194 Y4.340 E1.7153
G1 X-3.601 Y4.340 E2.0519
G1 X-4.528 Y0.744 E2.4187
G1 X-4.046 Y0.561 E2.4697
G1 X-3.849 Y0.947 E2.5124
G1 X-3.622 Y1.392 F833
G92 E0
G1 E-2.0000 F1800
G1 X-4.334 Y-2.476 F9000
G1 E-0.2000 F1800
G92 E0
G1 X-4.798 Y-2.621 E0.0481 F833
G1 X-4.299 Y-6.283 E0.4131
G1 X-1.927 Y-11.090 E0.9426
G1 X1.927 Y-11.090 E1.3234
G1 X4.299 Y-6.283 E1.8530
G1 X4.798 Y-2.621 E2.2180
G1 X4.334 Y-2.476 E2.2660
G1 X3.622 Y-3.872 E2.4208
G1 X2.632 Y-4.862 E2.5592
G1 X1.384 Y-5.498 E2.6975
G1 X0.000 Y-5.717 E2.8359
G1 X-1.384 Y-5.498 E2.9743
G1 X-2.632 Y-4.862 E3.1127
G1 X-3.622 Y-3.872 E3.2511
G1 X-4.107 Y-2.922 E3.3564
G1 X-4.334 Y-2.476 F833
G92 E0
G1 E-2.0000 F1800
; inner perimeter
G1 X-5.711 Y-0.957 F9000
G1 E-0.2000 F1800
G92 E0
G1 X-5.700 Y-1.337 E0.0375 F667
G1 X-4.997 Y-6.496 E0.5519
G1 X-2.375 Y-11.810 E1.1372
G1 X2.375 Y-11.810 E1.6064
G1 X4.997 Y-6.496 E2.1918
G1 X5.700 Y-1.337 E2.7061
G1 X5.711 Y-0.957 E2.7436
G1 X4.159 Y5.060 E3.3575
G1 X0.233 Y5.060 E3.7453
G1 X0.000 Y5.085 E3.7684
G1 X-0.233 Y5.060 E3.7915
G1 X-4.159 Y5.060 E4.1794
G1 X-5.586 Y-0.473 E4.7438
G1 X-5.711 Y-0.957 F667
G92 E0
G1 E-2.0000 F1800
; outer perimeter
G1 X-6.434 Y-0.877 F9000
G1 E-0.2000 F1800
G92 E0
G1 X-6.418 Y-1.397 E0.0514 F500
G1 X-5.694 Y-6.710 E0.5811
G1 X-2.925 Y-12.323 E1.1994
G1 X-2.879 Y-12.530 E1.2204
G1 X2.879 Y-12.530 E1.7891
G1 X2.925 Y-12.323 E1.8100
G1 X5.694 Y-6.710 E2.4284
G1 X6.418 Y-1.397 E2.9580
G1 X6.434 Y-0.877 E3.0094
G1 X4.740 Y5.691 E3.6794
G1 X4.705 Y5.780 E3.6888
G1 X0.271 Y5.780 E4.1269
G1 X0.000 Y5.809 E4.1538
G1 X-0.271 Y5.780 E4.1807
G1 X-4.705 Y5.780 E4.6188
G1 X-4.740 Y5.691 E4.6282
G1 X-6.309 Y-0.392 E5.2488
G1 X-6.434 Y-0.877 F500
G92 E0
G1 E-2.0000 F1800
; inner perimeter
; inner perimeter
G1 X-3.033 Y0.964 F9000
G1 E-0.2000 F1800
G92 E0
G1 X-2.203 Y1.793 E0.1159 F667
G1 X-1.158 Y2.325 E0.2317
G1 X0.000 Y2.509 E0.3476
G1 X1.158 Y2.325 E0.4634
G1 X2.203 Y1.793 E0.5793
G1 X3.033 Y0.964 E0.6951
G1 X3.565 Y-0.081 E0.8110
G1 X3.749 Y-1.240 E0.9268
G1 X3.565 Y-2.398 E1.0427
G1 X3.033 Y-3.443 E1.1585
G1 X2.203 Y-4.272 E1.2744
G1 X1.158 Y-4.805 E1.3902
G1 X0.000 Y-4.988 E1.5061
G1 X-1.158 Y-4.805 E1.6219
G1 X-2.203 Y-4.272 E1.7378
G1 X-3.033 Y-3.443 E1.8537
G1 X-3.565 Y-2.398 E1.9695
G1 X-3.749 Y-1.240 E2.0854
G1 X-3.565 Y-0.081 E2.2012
G1 X-3.260 Y0.518 E2.2677
G1 X-3.033 Y0.964 F667
G92 E0
G1 E-2.0000 F1800
; outer perimeter
G1 X-2.443 Y0.535 F9000
G1 E-0.2000 F1800
G92 E0
G1 X-1.775 Y1.203 E0.0933 F500
G1 X-0.933 Y1.632 E0.1866
G1 X0.000 Y1.780 E0.2800
G1 X0.933 Y1.632 E0.3733
