; G-Code generated by Simplify3D(R) Version 3.1.0
; Aug 2, 2016 at 7:59:44 PM
; Settings Summary
;   processName,Process1
;   applyToModels,Layer Fan Shroud
;   profileName,Rostock MAX v2 (modified)
;   profileVersion,2015-05-01 08:00:00
;   baseProfile,
;   printMaterial,ABS
;   printQuality,Medium
;   printExtruders,
;   extruderName,Primary Extruder
;   extruderToolheadNumber,0
;   extruderDiameter,0.4
;   extruderAutoWidth,1
;   extruderWidth,0.48
;   extrusionMultiplier,1
;   extruderUseRetract,1
;   extruderRetractionDistance,2
;   extruderExtraRestartDistance,0
;   extruderRetractionZLift,0.5
;   extruderRetractionSpeed,6000
;   extruderUseCoasting,1
;   extruderCoastingDistance,1
;   extruderUseWipe,1
;   extruderWipeDistance,5
;   primaryExtruder,0
;   layerHeight,0.2
;   topSolidLayers,3
;   bottomSolidLayers,3
;   perimeterOutlines,3
;   printPerimetersInsideOut,1
;   startPointOption,2
;   startPointOriginX,0
;   startPointOriginY,0
;   startPointOriginZ,300
;   sequentialIslands,0
;   spiralVaseMode,0
;   firstLayerHeightPercentage,25
;   firstLayerWidthPercentage,100
;   firstLayerUnderspeed,0.4
;   useRaft,0
;   raftExtruder,0
;   raftLayers,3
;   raftOffset,15
;   raftSeparationDistance,0.14
;   raftInfill,85
;   disableRaftBaseLayers,0
;   useSkirt,1
;   skirtExtruder,0
;   skirtLayers,1
;   skirtOutlines,3
;   skirtOffset,10
;   usePrimePillar,0
;   primePillarExtruder,999
;   primePillarWidth,12
;   primePillarLocation,7
;   primePillarSpeedMultiplier,1
;   useOozeShield,0
;   oozeShieldExtruder,999
;   oozeShieldOffset,2
;   oozeShieldOutlines,1
;   oozeShieldSidewallShape,1
;   oozeShieldSidewallAngle,30
;   oozeShieldSpeedMultiplier,1
;   infillExtruder,0
;   internalInfillPattern,Rectilinear
;   externalInfillPattern,Rectilinear
;   infillPercentage,33
;   outlineOverlapPercentage,25
;   infillExtrusionWidthPercentage,150
;   minInfillLength,5
;   infillLayerInterval,1
;   infillAngles,45,-45
;   overlapInfillAngles,0
;   generateSupport,0
;   supportExtruder,0
;   supportInfillPercentage,30
;   supportExtraInflation,0
;   denseSupportLayers,0
;   denseSupportInfillPercentage,70
;   supportLayerInterval,1
;   supportHorizontalPartOffset,0.3
;   supportUpperSeparationLayers,1
;   supportLowerSeparationLayers,1
;   supportType,1
;   supportGridSpacing,4
;   maxOverhangAngle,45
;   supportAngles,0
;   temperatureName,Primary Extruder,Heated Bed
;   temperatureNumber,0,1
;   temperatureSetpointCount,1,1
;   temperatureSetpointLayers,1,1
;   temperatureSetpointTemperatures,225,60
;   temperatureStabilizeAtStartup,1,1
;   temperatureHeatedBed,0,1
;   temperatureRelayBetweenLayers,0,0
;   temperatureRelayBetweenLoops,0,0
;   fanLayers,1
;   fanSpeeds,0
;   blipFanToFullPower,1
;   adjustSpeedForCooling,1
;   minSpeedLayerTime,15
;   minCoolingSpeedSlowdown,20
;   increaseFanForCooling,0
;   minFanLayerTime,60
;   maxCoolingFanSpeed,100
;   increaseFanForBridging,0
;   bridgingFanSpeed,100
;   use5D,1
;   relativeEdistances,0
;   allowEaxisZeroing,1
;   independentExtruderAxes,0
;   includeM10123,0
;   stickySupport,1
;   applyToolheadOffsets,0
;   gcodeXoffset,0
;   gcodeYoffset,0
;   gcodeZoffset,0
;   overrideMachineDefinition,1
;   machineTypeOverride,1
;   strokeXoverride,197
;   strokeYoverride,197
;   strokeZoverride,375
;   originOffsetXoverride,98.5
;   originOffsetYoverride,98.5
;   originOffsetZoverride,0
;   homeXdirOverride,0
;   homeYdirOverride,0
;   homeZdirOverride,1
;   flipXoverride,1
;   flipYoverride,-1
;   flipZoverride,1
;   toolheadOffsets,0,0|0,0|0,0|0,0|0,0|0,0
;   overrideFirmwareConfiguration,1
;   firmwareTypeOverride,RepRap (Marlin/Repetier/Sprinter)
;   GPXconfigOverride,r2
;   baudRateOverride,115200
;   overridePrinterModels,1
;   printerModelsOverride
;   startingGcode,G28 ; home all axes
;   layerChangeGcode,
;   retractionGcode,
;   toolChangeGcode,
;   endingGcode,M104 S0 ; turn off extruder,M140 S0 ; turn off bed,G28 ; home axes,M84 ; disable motors
;   exportFileFormat,gcode
;   celebration,0
;   celebrationSong,Random Song
;   postProcessing,
;   defaultSpeed,3000
;   outlineUnderspeed,0.5
;   solidInfillUnderspeed,0.8
;   supportUnderspeed,0.8
;   rapidXYspeed,9000
;   rapidZspeed,1200
;   minBridgingArea,50
;   bridgingExtraInflation,0
;   bridgingExtrusionMultiplier,0.95
;   bridgingSpeedMultiplier,0.7
;   filamentDiameter,1.75
;   filamentPricePerKg,22
;   filamentDensity,1.25
;   useMinPrintHeight,0
;   minPrintHeight,0.05
;   useMaxPrintHeight,0
;   maxPrintHeight,0
;   useDiaphragm,0
;   diaphragmLayerInterval,20
;   robustSlicing,1
;   mergeAllIntoSolid,0
;   onlyRetractWhenCrossingOutline,1
;   retractBetweenLayers,0
;   useRetractionMinTravel,0
;   retractionMinTravel,3
;   retractWhileWiping,1
;   onlyWipeOutlines,1
;   avoidCrossingOutline,1
;   maxMovementDetourFactor,1.5
;   toolChangeRetractionDistance,12
;   toolChangeExtraRestartDistance,-0.5
;   toolChangeRetractionSpeed,600
;   allowThinWallGapFill,1
;   thinWallAllowedOverlapPercentage,10
;   horizontalSizeCompensation,0
G90
M82
M106 S0
M140 S60
M190 S60
M104 S225 T0
M109 S225 T0
G28 ; home all axes
G92 E0
G1 E-2.0000 F6000
G1 Z0.550 F1200
; layer 1, Z = 0.05
T0
; tool H0.200 W0.480
; skirt
G1 X-17.847 Y-13.086 F9000
G1 Z0.050 F1200
G1 E0.0000 F1800
G92 E0
G1 X-17.843 Y-21.035 E0.3173 F1200
G1 X-17.660 Y-21.476 E0.3363
G1 X-11.465 Y-27.667 E0.6859
G1 X-11.024 Y-27.850 E0.7049
G1 X11.031 Y-27.850 E1.5852
G1 X11.472 Y-27.667 E1.6042
G1 X17.667 Y-21.472 E1.9539
G1 X17.850 Y-21.031 E1.9730
G1 X17.850 Y-13.084 E2.2902
G1 X18.311 Y-12.697 E2.3142
G1 X18.349 Y-12.662 E2.3162
G1 X19.312 Y-11.699 E2.3706
G1 X19.347 Y-11.661 E2.3727
G1 X19.942 Y-10.952 E2.4096
G1 X19.974 Y-10.910 E2.4117
G1 X20.755 Y-9.795 E2.4660
G1 X20.783 Y-9.751 E2.4681
G1 X21.246 Y-8.949 E2.5051
G1 X21.270 Y-8.903 E2.5072
G1 X21.845 Y-7.669 E2.5615
G1 X21.866 Y-7.621 E2.5636
G1 X22.182 Y-6.751 E2.6005
G1 X22.198 Y-6.701 E2.6026
G1 X22.550 Y-5.386 E2.6570
G1 X22.562 Y-5.335 E2.6590
G1 X22.722 Y-4.423 E2.6960
G1 X22.729 Y-4.371 E2.6981
G1 X22.828 Y-3.246 E2.7432
G1 X22.829 Y-3.220 E2.7442
G1 X22.849 Y-2.757 E2.7627
G1 X22.850 Y-2.731 E2.7637
G1 X22.850 Y2.731 E2.9817
G1 X22.849 Y2.757 E2.9828
G1 X22.829 Y3.220 E3.0013
G1 X22.828 Y3.246 E3.0023
G1 X22.729 Y4.371 E3.0474
G1 X22.722 Y4.423 E3.0495
G1 X22.562 Y5.335 E3.0864
G1 X22.550 Y5.386 E3.0885
G1 X22.198 Y6.701 E3.1428
G1 X22.182 Y6.751 E3.1449
G1 X21.866 Y7.621 E3.1819
G1 X21.845 Y7.669 E3.1840
G1 X21.270 Y8.903 E3.2383
G1 X21.246 Y8.949 E3.2404
G1 X20.783 Y9.751 E3.2773
G1 X20.755 Y9.795 E3.2794
G1 X19.974 Y10.910 E3.3338
G1 X19.942 Y10.952 E3.3359
G1 X19.347 Y11.661 E3.3728
G1 X19.312 Y11.699 E3.3749
G1 X18.349 Y12.662 E3.4292
G1 X18.311 Y12.697 E3.4313
G1 X17.850 Y13.084 E3.4553
G1 X17.850 Y16.613 E3.5962
G1 X17.848 Y16.665 E3.5983
G1 X17.767 Y17.587 E3.6352
G1 X17.760 Y17.639 E3.6373
G1 X17.448 Y19.409 E3.7090
G1 X17.412 Y19.535 E3.7142
G1 X16.523 Y21.679 E3.8069
G1 X16.460 Y21.794 E3.8121
G1 X14.980 Y23.908 E3.9151
G1 X14.894 Y24.006 E3.9203
G1 X13.182 Y25.575 E4.0130
G1 X13.077 Y25.652 E4.0182
G1 X11.118 Y26.783 E4.1085
G1 X11.023 Y26.827 E4.1127
G1 X9.280 Y27.462 E4.1867
G1 X9.179 Y27.489 E4.1909
G1 X7.639 Y27.760 E4.2533
G1 X7.587 Y27.767 E4.2554
G1 X6.665 Y27.848 E4.2923
G1 X6.613 Y27.850 E4.2944
G1 X-6.613 Y27.850 E4.8223
G1 X-6.665 Y27.848 E4.8243
G1 X-7.587 Y27.767 E4.8613
G1 X-7.639 Y27.760 E4.8634
G1 X-9.179 Y27.489 E4.9258
G1 X-9.280 Y27.462 E4.9300
G1 X-11.023 Y26.827 E5.0040
G1 X-11.118 Y26.783 E5.0082
G1 X-12.874 Y25.769 E5.0891
G1 X-12.960 Y25.709 E5.0933
G1 X-14.381 Y24.517 E5.1673
G1 X-14.455 Y24.443 E5.1715
G1 X-15.909 Y22.710 E5.2618
G1 X-15.982 Y22.601 E5.2670
G1 X-17.053 Y20.542 E5.3597
G1 X-17.101 Y20.420 E5.3649
G1 X-17.648 Y18.378 E5.4493
G1 X-17.663 Y18.301 E5.4524
G1 X-17.845 Y16.923 E5.5079
G1 X-17.850 Y16.845 E5.5110
G1 X-17.850 Y13.084 E5.6611
G1 X-18.311 Y12.697 E5.6851
G1 X-18.349 Y12.662 E5.6872
G1 X-19.312 Y11.699 E5.7415
G1 X-19.347 Y11.661 E5.7436
G1 X-19.942 Y10.952 E5.7806
G1 X-19.974 Y10.910 E5.7827
G1 X-20.755 Y9.795 E5.8370
G1 X-20.783 Y9.751 E5.8391
G1 X-21.246 Y8.949 E5.8760
G1 X-21.270 Y8.903 E5.8781
G1 X-21.845 Y7.669 E5.9324
G1 X-21.865 Y7.621 E5.9345
G1 X-22.182 Y6.751 E5.9715
G1 X-22.198 Y6.701 E5.9736
G1 X-22.550 Y5.386 E6.0279
G1 X-22.562 Y5.335 E6.0300
G1 X-22.722 Y4.423 E6.0669
G1 X-22.729 Y4.371 E6.0690
G1 X-22.827 Y3.247 E6.1141
G1 X-22.829 Y3.221 E6.1151
G1 X-22.849 Y2.759 E6.1336
G1 X-22.850 Y2.732 E6.1346
G1 X-22.850 Y-2.731 E6.3527
G1 X-22.849 Y-2.757 E6.3537
G1 X-22.829 Y-3.219 E6.3722
G1 X-22.828 Y-3.245 E6.3732
G1 X-22.729 Y-4.371 E6.4183
G1 X-22.722 Y-4.423 E6.4204
G1 X-22.562 Y-5.335 E6.4574
G1 X-22.550 Y-5.386 E6.4595
G1 X-22.198 Y-6.701 E6.5138
G1 X-22.182 Y-6.751 E6.5159
G1 X-21.865 Y-7.621 E6.5528
G1 X-21.845 Y-7.669 E6.5549
G1 X-21.270 Y-8.903 E6.6093
G1 X-21.246 Y-8.949 E6.6114
G1 X-20.783 Y-9.751 E6.6483
G1 X-20.755 Y-9.795 E6.6504
G1 X-19.974 Y-10.910 E6.7047
G1 X-19.942 Y-10.952 E6.7068
G1 X-19.347 Y-11.661 E6.7438
G1 X-19.312 Y-11.699 E6.7458
G1 X-18.591 Y-12.420 E6.7865
G1 X-18.349 Y-12.662 F1200
G1 X-18.311 Y-12.697 F1200
G1 X-17.847 Y-13.086 F1200
G1 X-17.367 Y-12.863 F9000
G92 E0
G1 X-17.363 Y-20.940 E0.3224 F1200
G1 X-17.253 Y-21.204 E0.3338
G1 X-11.193 Y-27.260 E0.6757
G1 X-10.929 Y-27.370 E0.6872
G1 X10.935 Y-27.370 E1.5598
G1 X11.200 Y-27.260 E1.5712
G1 X17.260 Y-21.200 E1.9133
G1 X17.370 Y-20.935 E1.9248
G1 X17.370 Y-12.860 E2.2471
G1 X17.994 Y-12.336 E2.2796
G1 X18.017 Y-12.315 E2.2808
G1 X18.965 Y-11.367 E2.3343
G1 X18.986 Y-11.344 E2.3356
G1 X19.568 Y-10.651 E2.3717
G1 X19.587 Y-10.626 E2.3729
G1 X20.356 Y-9.528 E2.4264
G1 X20.373 Y-9.502 E2.4277
G1 X20.825 Y-8.718 E2.4638
G1 X20.840 Y-8.690 E2.4650
G1 X21.406 Y-7.476 E2.5185
G1 X21.418 Y-7.447 E2.5198
G1 X21.727 Y-6.596 E2.5559
G1 X21.737 Y-6.566 E2.5572
G1 X22.084 Y-5.272 E2.6107
G1 X22.091 Y-5.241 E2.6119
G1 X22.248 Y-4.350 E2.6480
G1 X22.252 Y-4.319 E2.6493
G1 X22.349 Y-3.209 E2.6937
G1 X22.350 Y-3.193 E2.6944
G1 X22.370 Y-2.742 E2.7124
G1 X22.370 Y-2.726 E2.7130
G1 X22.370 Y2.726 E2.9306
G1 X22.370 Y2.742 E2.9313
G1 X22.350 Y3.193 E2.9493
G1 X22.349 Y3.209 E2.9499
G1 X22.252 Y4.319 E2.9944
G1 X22.248 Y4.350 E2.9957
G1 X22.091 Y5.241 E3.0318
G1 X22.084 Y5.272 E3.0330
G1 X21.737 Y6.566 E3.0865
G1 X21.727 Y6.596 E3.0878
G1 X21.418 Y7.447 E3.1239
G1 X21.406 Y7.476 E3.1251
G1 X20.840 Y8.690 E3.1786
G1 X20.825 Y8.718 E3.1799
G1 X20.373 Y9.502 E3.2160
G1 X20.356 Y9.528 E3.2173
G1 X19.587 Y10.626 E3.2708
G1 X19.568 Y10.651 E3.2720
G1 X18.986 Y11.344 E3.3081
G1 X18.965 Y11.367 E3.3094
G1 X18.017 Y12.315 E3.3629
G1 X17.994 Y12.336 E3.3641
G1 X17.370 Y12.860 E3.3966
G1 X17.370 Y16.602 E3.5460
G1 X17.369 Y16.634 E3.5473
G1 X17.290 Y17.535 E3.5834
G1 X17.286 Y17.566 E3.5846
G1 X16.980 Y19.300 E3.6549
G1 X16.958 Y19.375 E3.6580
G1 X16.090 Y21.471 E3.7486
G1 X16.052 Y21.540 E3.7517
G1 X14.602 Y23.611 E3.8526
G1 X14.550 Y23.670 E3.8557
G1 X12.877 Y25.203 E3.9463
G1 X12.814 Y25.250 E3.9494
G1 X10.896 Y26.357 E4.0378
G1 X10.839 Y26.383 E4.0403
G1 X9.136 Y27.003 E4.1127
G1 X9.075 Y27.020 E4.1152
G1 X7.566 Y27.286 E4.1764
G1 X7.535 Y27.290 E4.1776
G1 X6.634 Y27.369 E4.2137
G1 X6.602 Y27.370 E4.2150
G1 X-6.602 Y27.370 E4.7420
G1 X-6.634 Y27.369 E4.7432
G1 X-7.535 Y27.290 E4.7793
G1 X-7.566 Y27.286 E4.7806
G1 X-9.075 Y27.020 E4.8418
G1 X-9.136 Y27.003 E4.8443
G1 X-10.839 Y26.383 E4.9166
G1 X-10.896 Y26.357 E4.9191
G1 X-12.616 Y25.364 E4.9984
G1 X-12.668 Y25.328 E5.0009
G1 X-14.056 Y24.162 E5.0733
G1 X-14.101 Y24.118 E5.0758
G1 X-15.524 Y22.422 E5.1641
G1 X-15.568 Y22.356 E5.1673
G1 X-16.616 Y20.344 E5.2578
G1 X-16.644 Y20.270 E5.2610
G1 X-17.180 Y18.269 E5.3437
G1 X-17.190 Y18.223 E5.3456
G1 X-17.367 Y16.876 E5.3998
G1 X-17.370 Y16.829 E5.4017
G1 X-17.370 Y12.860 E5.5601
G1 X-17.994 Y12.336 E5.5926
G1 X-18.017 Y12.315 E5.5938
G1 X-18.965 Y11.367 E5.6473
G1 X-18.986 Y11.344 E5.6486
G1 X-19.568 Y10.651 E5.6847
G1 X-19.587 Y10.626 E5.6860
G1 X-20.356 Y9.528 E5.7395
G1 X-20.373 Y9.502 E5.7407
G1 X-20.825 Y8.718 E5.7768
G1 X-20.840 Y8.690 E5.7781
G1 X-21.406 Y7.476 E5.8316
G1 X-21.418 Y7.447 E5.8328
G1 X-21.727 Y6.596 E5.8689
G1 X-21.737 Y6.567 E5.8702
G1 X-22.084 Y5.272 E5.9237
G1 X-22.091 Y5.241 E5.9249
G1 X-22.248 Y4.350 E5.9610
G1 X-22.252 Y4.319 E5.9623
G1 X-22.349 Y3.210 E6.0067
G1 X-22.350 Y3.194 E6.0074
G1 X-22.370 Y2.743 E6.0254
G1 X-22.370 Y2.727 E6.0260
G1 X-22.370 Y-2.726 E6.2437
G1 X-22.370 Y-2.742 E6.2443
G1 X-22.350 Y-3.193 E6.2623
G1 X-22.349 Y-3.209 E6.2630
G1 X-22.252 Y-4.319 E6.3074
G1 X-22.248 Y-4.350 E6.3087
G1 X-22.091 Y-5.241 E6.3448
G1 X-22.084 Y-5.272 E6.3460
G1 X-21.737 Y-6.567 E6.3995
G1 X-21.727 Y-6.597 E6.4008
G1 X-21.418 Y-7.447 E6.4369
G1 X-21.406 Y-7.476 E6.4382
G1 X-20.840 Y-8.690 E6.4917
G1 X-20.825 Y-8.718 E6.4929
G1 X-20.373 Y-9.502 E6.5290
G1 X-20.356 Y-9.528 E6.5303
G1 X-19.587 Y-10.626 E6.5838
G1 X-19.568 Y-10.651 E6.5850
G1 X-18.986 Y-11.344 E6.6211
G1 X-18.965 Y-11.367 E6.6224
G1 X-18.123 Y-12.209 E6.6699
G1 X-18.017 Y-12.315 F1200
G1 X-17.994 Y-12.336 F1200
G1 X-17.367 Y-12.863 F1200
G1 X-17.001 Y-12.543 F9000
G92 E0
G1 X-16.992 Y-12.550 E0.0004 F1200
G1 X-16.887 Y-12.623 E0.0055
G1 X-16.883 Y-20.844 E0.3336
G1 X-16.846 Y-20.932 E0.3374
G1 X-10.921 Y-26.854 E0.6718
G1 X-10.833 Y-26.890 E0.6756
G1 X10.840 Y-26.890 E1.5406
G1 X10.928 Y-26.853 E1.5444
G1 X16.853 Y-20.928 E1.8789
G1 X16.890 Y-20.840 E1.8827
G1 X16.890 Y-12.621 E2.2107
G1 X16.992 Y-12.550 E2.2157
G1 X17.001 Y-12.543 E2.2161
G1 X17.678 Y-11.975 E2.2514
G1 X17.685 Y-11.968 E2.2518
G1 X18.618 Y-11.035 E2.3044
G1 X18.625 Y-11.028 E2.3049
G1 X19.193 Y-10.351 E2.3401
G1 X19.200 Y-10.342 E2.3405
G1 X19.957 Y-9.262 E2.3932
G1 X19.962 Y-9.253 E2.3936
G1 X20.404 Y-8.487 E2.4289
G1 X20.409 Y-8.478 E2.4293
G1 X20.967 Y-7.282 E2.4820
G1 X20.971 Y-7.273 E2.4824
G1 X21.273 Y-6.442 E2.5177
G1 X21.276 Y-6.432 E2.5181
G1 X21.617 Y-5.158 E2.5708
G1 X21.620 Y-5.147 E2.5712
G1 X21.773 Y-4.277 E2.6064
G1 X21.775 Y-4.267 E2.6069
G1 X21.870 Y-3.172 E2.6507
G1 X21.871 Y-3.167 E2.6509
G1 X21.890 Y-2.726 E2.6685
G1 X21.890 Y-2.721 E2.6687
G1 X21.890 Y2.721 E2.8859
G1 X21.890 Y2.726 E2.8861
G1 X21.871 Y3.167 E2.9038
G1 X21.870 Y3.172 E2.9040
G1 X21.775 Y4.267 E2.9478
G1 X21.773 Y4.277 E2.9482
G1 X21.620 Y5.147 E2.9835
G1 X21.617 Y5.157 E2.9839
G1 X21.276 Y6.432 E3.0366
G1 X21.273 Y6.442 E3.0370
G1 X20.971 Y7.273 E3.0723
G1 X20.967 Y7.282 E3.0727
G1 X20.409 Y8.478 E3.1254
G1 X20.404 Y8.487 E3.1258
G1 X19.962 Y9.253 E3.1610
G1 X19.957 Y9.261 E3.1615
G1 X19.200 Y10.342 E3.2141
G1 X19.193 Y10.351 E3.2145
G1 X18.625 Y11.028 E3.2498
G1 X18.618 Y11.035 E3.2502
G1 X17.685 Y11.968 E3.3029
G1 X17.677 Y11.975 E3.3033
G1 X17.001 Y12.543 E3.3386
G1 X16.992 Y12.550 E3.3390
G1 X16.890 Y12.621 E3.3440
G1 X16.890 Y16.592 E3.5025
G1 X16.890 Y16.602 E3.5029
G1 X16.813 Y17.482 E3.5381
G1 X16.811 Y17.493 E3.5386
G1 X16.512 Y19.190 E3.6074
G1 X16.505 Y19.216 E3.6084
G1 X15.656 Y21.264 E3.6969
G1 X15.644 Y21.287 E3.6979
G1 X14.224 Y23.314 E3.7967
G1 X14.207 Y23.334 E3.7978
G1 X12.572 Y24.831 E3.8862
G1 X12.551 Y24.847 E3.8873
G1 X10.674 Y25.931 E3.9738
G1 X10.655 Y25.939 E3.9746
G1 X8.991 Y26.545 E4.0453
G1 X8.971 Y26.551 E4.0461
G1 X7.493 Y26.811 E4.1060
G1 X7.482 Y26.813 E4.1065
G1 X6.602 Y26.890 E4.1417
G1 X6.592 Y26.890 E4.1421
G1 X-6.592 Y26.890 E4.6683
G1 X-6.602 Y26.890 E4.6687
G1 X-7.482 Y26.813 E4.7040
G1 X-7.493 Y26.811 E4.7044
G1 X-8.971 Y26.551 E4.7643
G1 X-8.991 Y26.545 E4.7652
G1 X-10.655 Y25.939 E4.8358
G1 X-10.674 Y25.931 E4.8367
G1 X-12.358 Y24.958 E4.9143
G1 X-12.375 Y24.946 E4.9151
G1 X-13.732 Y23.808 E4.9858
G1 X-13.747 Y23.793 E4.9866
G1 X-15.140 Y22.133 E5.0731
G1 X-15.154 Y22.111 E5.0742
G1 X-16.178 Y20.145 E5.1626
G1 X-16.187 Y20.121 E5.1637
G1 X-16.713 Y18.160 E5.2447
G1 X-16.716 Y18.144 E5.2453
G1 X-16.889 Y16.829 E5.2983
G1 X-16.890 Y16.813 E5.2989
G1 X-16.890 Y12.621 E5.4662
G1 X-16.992 Y12.550 E5.4712
G1 X-17.001 Y12.543 E5.4716
G1 X-17.677 Y11.975 E5.5069
G1 X-17.685 Y11.968 E5.5073
G1 X-18.618 Y11.035 E5.5600
G1 X-18.625 Y11.028 E5.5604
