; G-Code generated by Simplify3D(R) Version 3.1.0
; Aug 2, 2016 at 7:25:20 PM
; Settings Summary
;   processName,Process1
;   applyToModels,Layer Fan Adapter
;   profileName,Rostock MAX v2 (modified)
;   profileVersion,2015-05-01 08:00:00
;   baseProfile,
;   printMaterial,ABS
;   printQuality,Medium
;   printExtruders,
;   extruderName,Primary Extruder
;   extruderToolheadNumber,0
;   extruderDiameter,0.4
;   extruderAutoWidth,1
;   extruderWidth,0.48
;   extrusionMultiplier,1
;   extruderUseRetract,1
;   extruderRetractionDistance,2
;   extruderExtraRestartDistance,0
;   extruderRetractionZLift,0.5
;   extruderRetractionSpeed,4600
;   extruderUseCoasting,1
;   extruderCoastingDistance,1
;   extruderUseWipe,1
;   extruderWipeDistance,5
;   primaryExtruder,0
;   layerHeight,0.2
;   topSolidLayers,3
;   bottomSolidLayers,3
;   perimeterOutlines,3
;   printPerimetersInsideOut,1
;   startPointOption,2
;   startPointOriginX,0
;   startPointOriginY,0
;   startPointOriginZ,300
;   sequentialIslands,0
;   spiralVaseMode,0
;   firstLayerHeightPercentage,25
;   firstLayerWidthPercentage,100
;   firstLayerUnderspeed,0.4
;   useRaft,0
;   raftExtruder,0
;   raftLayers,3
;   raftOffset,15
;   raftSeparationDistance,0.14
;   raftInfill,85
;   disableRaftBaseLayers,0
;   useSkirt,1
;   skirtExtruder,0
;   skirtLayers,1
;   skirtOutlines,3
;   skirtOffset,10
;   usePrimePillar,0
;   primePillarExtruder,999
;   primePillarWidth,12
;   primePillarLocation,7
;   primePillarSpeedMultiplier,1
;   useOozeShield,0
;   oozeShieldExtruder,999
;   oozeShieldOffset,2
;   oozeShieldOutlines,1
;   oozeShieldSidewallShape,1
;   oozeShieldSidewallAngle,30
;   oozeShieldSpeedMultiplier,1
;   infillExtruder,0
;   internalInfillPattern,Rectilinear
;   externalInfillPattern,Rectilinear
;   infillPercentage,33
;   outlineOverlapPercentage,25
;   infillExtrusionWidthPercentage,150
;   minInfillLength,5
;   infillLayerInterval,1
;   infillAngles,45,-45
;   overlapInfillAngles,0
;   generateSupport,0
;   supportExtruder,0
;   supportInfillPercentage,30
;   supportExtraInflation,0
;   denseSupportLayers,0
;   denseSupportInfillPercentage,70
;   supportLayerInterval,1
;   supportHorizontalPartOffset,0.3
;   supportUpperSeparationLayers,1
;   supportLowerSeparationLayers,1
;   supportType,1
;   supportGridSpacing,4
;   maxOverhangAngle,45
;   supportAngles,0
;   temperatureName,Primary Extruder,Heated Bed
;   temperatureNumber,0,1
;   temperatureSetpointCount,1,1
;   temperatureSetpointLayers,1,1
;   temperatureSetpointTemperatures,225,60
;   temperatureStabilizeAtStartup,1,1
;   temperatureHeatedBed,0,1
;   temperatureRelayBetweenLayers,0,0
;   temperatureRelayBetweenLoops,0,0
;   fanLayers,1
;   fanSpeeds,0
;   blipFanToFullPower,1
;   adjustSpeedForCooling,1
;   minSpeedLayerTime,15
;   minCoolingSpeedSlowdown,20
;   increaseFanForCooling,0
;   minFanLayerTime,60
;   maxCoolingFanSpeed,100
;   increaseFanForBridging,0
;   bridgingFanSpeed,100
;   use5D,1
;   relativeEdistances,0
;   allowEaxisZeroing,1
;   independentExtruderAxes,0
;   includeM10123,0
;   stickySupport,1
;   applyToolheadOffsets,0
;   gcodeXoffset,0
;   gcodeYoffset,0
;   gcodeZoffset,0
;   overrideMachineDefinition,1
;   machineTypeOverride,1
;   strokeXoverride,197
;   strokeYoverride,197
;   strokeZoverride,375
;   originOffsetXoverride,98.5
;   originOffsetYoverride,98.5
;   originOffsetZoverride,0
;   homeXdirOverride,0
;   homeYdirOverride,0
;   homeZdirOverride,1
;   flipXoverride,1
;   flipYoverride,-1
;   flipZoverride,1
;   toolheadOffsets,0,0|0,0|0,0|0,0|0,0|0,0
;   overrideFirmwareConfiguration,1
;   firmwareTypeOverride,RepRap (Marlin/Repetier/Sprinter)
;   GPXconfigOverride,r2
;   baudRateOverride,115200
;   overridePrinterModels,1
;   printerModelsOverride
;   startingGcode,G28 ; home all axes
;   layerChangeGcode,
;   retractionGcode,
;   toolChangeGcode,
;   endingGcode,M104 S0 ; turn off extruder,M140 S0 ; turn off bed,G28 ; home axes,M84 ; disable motors
;   exportFileFormat,gcode
;   celebration,0
;   celebrationSong,Random Song
;   postProcessing,
;   defaultSpeed,3000
;   outlineUnderspeed,0.5
;   solidInfillUnderspeed,0.8
;   supportUnderspeed,0.8
;   rapidXYspeed,9000
;   rapidZspeed,1200
;   minBridgingArea,50
;   bridgingExtraInflation,0
;   bridgingExtrusionMultiplier,0.95
;   bridgingSpeedMultiplier,0.7
;   filamentDiameter,1.75
;   filamentPricePerKg,22
;   filamentDensity,1.25
;   useMinPrintHeight,0
;   minPrintHeight,0.05
;   useMaxPrintHeight,0
;   maxPrintHeight,0
;   useDiaphragm,0
;   diaphragmLayerInterval,20
;   robustSlicing,1
;   mergeAllIntoSolid,0
;   onlyRetractWhenCrossingOutline,1
;   retractBetweenLayers,1
;   useRetractionMinTravel,0
;   retractionMinTravel,3
;   retractWhileWiping,1
;   onlyWipeOutlines,1
;   avoidCrossingOutline,1
;   maxMovementDetourFactor,1
;   toolChangeRetractionDistance,12
;   toolChangeExtraRestartDistance,-0.5
;   toolChangeRetractionSpeed,600
;   allowThinWallGapFill,1
;   thinWallAllowedOverlapPercentage,10
;   horizontalSizeCompensation,0
G90
M82
M106 S0
M140 S60
M190 S60
M104 S225 T0
M109 S225 T0
G28 ; home all axes
G92 E0
G1 E-2.0000 F4600
G1 Z0.550 F1200
; layer 1, Z = 0.05
T0
; tool H0.200 W0.480
; skirt
G1 X14.700 Y18.650 F9000
G1 Z0.050 F1200
G1 E0.0000 F1380
G92 E0
G1 X18.717 Y22.668 E0.2268 F1200
G1 X18.900 Y23.109 E0.2458
G1 X18.900 Y39.370 E0.8948
G1 X18.717 Y39.811 E0.9139
G1 X12.522 Y46.007 E1.2636
G1 X12.081 Y46.189 E1.2826
G1 X-12.081 Y46.189 E2.2470
G1 X-12.522 Y46.007 E2.2660
G1 X-18.717 Y39.811 E2.6157
G1 X-18.900 Y39.370 E2.6348
G1 X-18.900 Y23.109 E3.2838
G1 X-18.717 Y22.668 E3.3029
G1 X-14.700 Y18.650 E3.5296
G1 X-14.700 Y-27.600 E5.3756
G1 X-15.267 Y-28.168 E5.4076
G1 X-15.450 Y-28.609 E5.4267
G1 X-15.450 Y-39.370 E5.8562
G1 X-15.267 Y-39.811 E5.8753
G1 X-9.072 Y-46.007 E6.2250
G1 X-8.631 Y-46.190 E6.2440
G1 X8.631 Y-46.190 E6.9330
G1 X9.072 Y-46.007 E6.9520
G1 X15.267 Y-39.811 E7.3017
G1 X15.450 Y-39.370 E7.3208
G1 X15.450 Y-28.609 E7.7503
G1 X15.267 Y-28.168 E7.7693
G1 X14.700 Y-27.600 E7.8014
G1 X14.700 Y17.650 E9.6074
G1 X14.700 Y18.650 F1200
G1 X14.220 Y18.849 F9000
G92 E0
G1 X18.310 Y22.940 E0.2309 F1200
G1 X18.420 Y23.204 E0.2423
G1 X18.420 Y39.275 E0.8837
G1 X18.310 Y39.539 E0.8952
G1 X12.250 Y45.600 E1.2372
G1 X11.985 Y45.709 E1.2487
G1 X-11.985 Y45.709 E2.2054
G1 X-12.250 Y45.600 E2.2168
G1 X-18.310 Y39.539 E2.5589
G1 X-18.420 Y39.275 E2.5703
G1 X-18.420 Y23.204 E3.2117
G1 X-18.310 Y22.940 E3.2232
G1 X-14.220 Y18.849 E3.4541
G1 X-14.220 Y-27.799 E5.3159
G1 X-14.860 Y-28.440 E5.3520
G1 X-14.970 Y-28.704 E5.3635
G1 X-14.970 Y-39.275 E5.7854
G1 X-14.860 Y-39.539 E5.7968
G1 X-8.800 Y-45.600 E6.1389
G1 X-8.535 Y-45.709 E6.1503
G1 X8.535 Y-45.709 E6.8316
G1 X8.800 Y-45.600 E6.8431
G1 X14.860 Y-39.539 E7.1851
G1 X14.970 Y-39.275 E7.1966
G1 X14.970 Y-28.704 E7.6185
G1 X14.860 Y-28.440 E7.6299
G1 X14.220 Y-27.799 E7.6661
G1 X14.220 Y17.849 E9.4880
G1 X14.220 Y18.849 F1200
G1 X13.740 Y19.048 F9000
G92 E0
G1 X17.903 Y23.211 E0.2350 F1200
G1 X17.940 Y23.300 E0.2388
G1 X17.940 Y39.179 E0.8726
G1 X17.903 Y39.268 E0.8764
G1 X11.978 Y45.193 E1.2109
G1 X11.890 Y45.229 E1.2147
G1 X-11.890 Y45.229 E2.1638
G1 X-11.978 Y45.193 E2.1676
G1 X-17.903 Y39.268 E2.5020
G1 X-17.940 Y39.179 E2.5059
G1 X-17.940 Y23.300 E3.1397
G1 X-17.903 Y23.211 E3.1435
G1 X-13.740 Y19.048 E3.3785
G1 X-13.740 Y-27.998 E5.2562
G1 X-14.453 Y-28.711 E5.2964
G1 X-14.490 Y-28.800 E5.3003
G1 X-14.490 Y-39.179 E5.7145
G1 X-14.453 Y-39.268 E5.7183
G1 X-8.528 Y-45.193 E6.0528
G1 X-8.440 Y-45.230 E6.0566
G1 X8.440 Y-45.230 E6.7303
G1 X8.528 Y-45.193 E6.7341
G1 X14.453 Y-39.268 E7.0686
G1 X14.490 Y-39.179 E7.0724
G1 X14.490 Y-28.800 E7.4867
G1 X14.453 Y-28.711 E7.4905
G1 X13.740 Y-27.998 E7.5308
G1 X13.740 Y18.048 E9.3685
G1 X13.740 Y19.048 F1200
; inner perimeter
G1 X6.500 Y28.690 F9000
G92 E0
G1 X6.500 Y33.789 E0.2036 F1000
G1 X5.700 Y33.789 E0.2355
G1 X5.700 Y28.890 E0.4310
G1 X5.700 Y28.689 F1000
G1 X6.500 Y28.689 F1000
G1 X2.300 Y28.689 F9000
G92 E0
G1 X-2.300 Y28.689 E0.1836 F1000
G1 X-2.300 Y-33.789 E2.6773
G1 X2.300 Y-33.789 E2.8609
G1 X2.300 Y27.689 E5.3146
G1 X2.300 Y28.689 F1000
G1 X-5.700 Y28.690 F9000
G92 E0
G1 X-5.700 Y33.789 E0.2036 F1000
G1 X-6.500 Y33.789 E0.2355
G1 X-6.500 Y28.890 E0.4310
G1 X-6.500 Y28.689 F1000
G1 X-5.700 Y28.689 F1000
; inner perimeter
G1 X6.980 Y28.209 F9000
G92 E0
G1 X6.980 Y34.269 E0.2419 F800
G1 X-6.980 Y34.269 E0.7990
G1 X-6.980 Y28.209 E1.0409
G1 X-2.780 Y28.209 E1.2085
G1 X-2.780 Y-33.709 E3.6799
G1 X-3.530 Y-33.709 E3.7098
G1 X-3.530 Y-34.270 E3.7321
G1 X3.530 Y-34.270 E4.0139
G1 X3.530 Y-33.709 E4.0363
G1 X2.780 Y-33.709 E4.0662
G1 X2.780 Y28.209 E6.5375
G1 X5.980 Y28.209 E6.6652
G1 X6.980 Y28.209 F800
; outer perimeter
G1 X7.460 Y27.729 F9000
G92 E0
G1 X7.460 Y34.749 E0.2802 F600
G1 X-7.460 Y34.749 E0.8757
G1 X-7.460 Y27.730 E1.1559
G1 X-3.260 Y27.730 E1.3235
G1 X-3.260 Y-33.230 E3.7565
G1 X-4.010 Y-33.230 E3.7864
G1 X-4.010 Y-34.749 E3.8471
G1 X4.010 Y-34.749 E4.1672
G1 X4.010 Y-33.230 E4.2279
G1 X3.260 Y-33.230 E4.2578
G1 X3.260 Y27.730 E6.6908
G1 X6.460 Y27.729 E6.8185
G1 X7.460 Y27.730 F600
G1 X7.460 Y32.729 F3000
; inner perimeter
; inner perimeter
G1 X5.220 Y29.169 F9000
G92 E0
G1 X-5.220 Y29.169 E0.4167 F800
G1 X-5.220 Y33.309 E0.5819
G1 X5.220 Y33.309 E0.9986
G1 X5.220 Y30.169 E1.1239
G1 X5.220 Y29.169 F800
; outer perimeter
G1 X4.740 Y29.649 F9000
G92 E0
G1 X-4.740 Y29.649 E0.3784 F600
G1 X-4.740 Y32.830 E0.5053
G1 X4.740 Y32.830 E0.8837
G1 X4.740 Y30.649 E0.9707
G1 X4.740 Y29.649 F600
G1 X-0.260 Y29.649 F3000
; gap fill
G1 X2.779 Y28.574 F9000
G92 E0
G1 X3.009 Y28.805 E0.0130 F960
G1 X3.688 Y28.805 E0.0401
G1 X3.458 Y28.574 E0.0531
G1 X4.137 Y28.574 E0.0802
G1 X4.367 Y28.805 E0.0932
G1 X4.372 Y28.805 E0.0934
G1 X5.046 Y28.805 F960
G1 X4.816 Y28.574 F960
G1 X5.164 Y33.674 F9000
G92 E0
G1 X5.340 Y33.851 E0.0099 F960
G1 X5.340 Y33.905 E0.0121
G1 X4.715 Y33.905 E0.0370
G1 X4.485 Y33.674 E0.0500
G1 X3.806 Y33.674 E0.0771
G1 X4.037 Y33.905 E0.0901
G1 X3.358 Y33.905 E0.1172
G1 X3.127 Y33.674 E0.1302
G1 X2.448 Y33.674 E0.1573
G1 X2.679 Y33.905 E0.1703
G1 X2.000 Y33.905 E0.1974
G1 X1.770 Y33.674 E0.2104
G1 X1.091 Y33.674 E0.2375
G1 X1.321 Y33.905 E0.2505
G1 X0.642 Y33.905 E0.2776
G1 X0.412 Y33.674 E0.2906
G1 X-0.267 Y33.674 E0.3177
G1 X-0.036 Y33.905 E0.3307
G1 X-0.715 Y33.905 E0.3578
G1 X-0.946 Y33.674 E0.3708
G1 X-1.624 Y33.674 E0.3979
G1 X-1.394 Y33.905 E0.4109
G1 X-2.073 Y33.905 E0.4380
G1 X-2.303 Y33.674 E0.4510
G1 X-2.982 Y33.674 E0.4781
G1 X-2.752 Y33.905 E0.4911
G1 X-3.431 Y33.905 E0.5182
G1 X-3.661 Y33.674 E0.5312
G1 X-4.340 Y33.674 E0.5583
G1 X-4.109 Y33.905 E0.5713
G1 X-4.114 Y33.905 E0.5715
G1 X-4.788 Y33.905 F960
G1 X-5.019 Y33.674 F960
G1 X-5.340 Y28.601 F9000
G92 E0
G1 X-5.136 Y28.805 E0.0115 F960
G1 X-4.458 Y28.805 E0.0386
G1 X-4.688 Y28.574 E0.0516
G1 X-4.009 Y28.574 E0.0787
G1 X-3.779 Y28.805 E0.0917
G1 X-3.774 Y28.805 E0.0919
G1 X-3.100 Y28.805 F960
G1 X-3.330 Y28.574 F960
; solid layer
G1 X-1.539 Y28.329 F9000
G92 E0
G1 X-1.940 Y27.928 E0.0227 F960
G1 X-1.940 Y27.249 E0.0497
G1 X-0.860 Y28.329 E0.1107
G1 X-0.181 Y28.329 E0.1378
G1 X-1.940 Y26.571 E0.2371
G1 X-1.940 Y25.892 E0.2642
G1 X0.498 Y28.329 E0.4018
G1 X1.177 Y28.329 E0.4289
G1 X-1.940 Y25.213 E0.6048
G1 X-1.940 Y24.534 E0.6319
G1 X1.855 Y28.329 E0.8461
G1 X1.940 Y28.329 E0.8495
G1 X1.940 Y27.735 E0.8732
G1 X-1.940 Y23.855 E1.0922
G1 X-1.940 Y23.176 E1.1193
G1 X1.940 Y27.056 E1.3383
G1 X1.940 Y26.378 E1.3654
G1 X-1.940 Y22.498 E1.5844
G1 X-1.940 Y21.819 E1.6115
G1 X1.940 Y25.699 E1.8305
G1 X1.940 Y25.020 E1.8576
G1 X-1.940 Y21.140 E2.0766
G1 X-1.940 Y20.461 E2.1037
G1 X1.940 Y24.341 E2.3227
G1 X1.940 Y23.662 E2.3498
G1 X-1.940 Y19.782 E2.5688
G1 X-1.940 Y19.103 E2.5959
G1 X1.940 Y22.983 E2.8149
G1 X1.940 Y22.305 E2.8420
G1 X-1.940 Y18.425 E3.0610
G1 X-1.940 Y17.746 E3.0881
G1 X1.940 Y21.626 E3.3071
G1 X1.940 Y20.947 E3.3342
G1 X-1.940 Y17.067 E3.5532
G1 X-1.940 Y16.388 E3.5803
G1 X1.940 Y20.268 E3.7993
G1 X1.940 Y19.589 E3.8264
G1 X-1.940 Y15.709 E4.0454
G1 X-1.940 Y15.031 E4.0725
G1 X1.940 Y18.911 E4.2915
G1 X1.940 Y18.232 E4.3186
G1 X-1.940 Y14.352 E4.5376
G1 X-1.940 Y13.673 E4.5647
G1 X1.940 Y17.553 E4.7837
G1 X1.940 Y16.874 E4.8108
G1 X-1.940 Y12.994 E5.0298
G1 X-1.940 Y12.315 E5.0569
G1 X1.940 Y16.195 E5.2759
G1 X1.940 Y15.516 E5.3030
G1 X-1.940 Y11.636 E5.5220
G1 X-1.940 Y10.958 E5.5491
G1 X1.940 Y14.838 E5.7681
G1 X1.940 Y14.159 E5.7952
G1 X-1.940 Y10.279 E6.0142
G1 X-1.940 Y9.600 E6.0412
G1 X1.940 Y13.480 E6.2603
G1 X1.940 Y12.801 E6.2873
G1 X-1.940 Y8.921 E6.5063
G1 X-1.940 Y8.242 E6.5334
G1 X1.940 Y12.122 E6.7524
G1 X1.940 Y11.444 E6.7795
G1 X-1.940 Y7.564 E6.9985
G1 X-1.940 Y6.885 E7.0256
G1 X1.940 Y10.765 E7.2446
G1 X1.940 Y10.086 E7.2717
G1 X-1.940 Y6.206 E7.4907
G1 X-1.940 Y5.527 E7.5178
G1 X1.940 Y9.407 E7.7368
G1 X1.940 Y8.728 E7.7639
G1 X-1.940 Y4.848 E7.9829
G1 X-1.940 Y4.169 E8.0100
G1 X1.940 Y8.049 E8.2290
G1 X1.940 Y7.371 E8.2561
G1 X-1.940 Y3.491 E8.4751
G1 X-1.940 Y2.812 E8.5022
G1 X1.940 Y6.692 E8.7212
G1 X1.940 Y6.013 E8.7483
G1 X-1.940 Y2.133 E8.9673
G1 X-1.940 Y1.454 E8.9944
G1 X1.940 Y5.334 E9.2134
G1 X1.940 Y4.655 E9.2405
G1 X-1.940 Y0.775 E9.4595
G1 X-1.940 Y0.096 E9.4866
G1 X1.940 Y3.976 E9.7056
G1 X1.940 Y3.298 E9.7327
G1 X-1.940 Y-0.582 E9.9517
G1 X-1.940 Y-1.261 E9.9788
G1 X1.940 Y2.619 E10.1978
G1 X1.940 Y1.940 E10.2249
G1 X-1.940 Y-1.940 E10.4439
G1 X-1.940 Y-2.619 E10.4710
G1 X1.940 Y1.261 E10.6900
G1 X1.940 Y0.582 E10.7171
G1 X-1.940 Y-3.298 E10.9361
G1 X-1.940 Y-3.976 E10.9632
G1 X1.940 Y-0.096 E11.1822
G1 X1.940 Y-0.775 E11.2093
G1 X-1.940 Y-4.655 E11.4283
G1 X-1.940 Y-5.334 E11.4554
G1 X1.940 Y-1.454 E11.6744
G1 X1.940 Y-2.133 E11.7015
G1 X-1.940 Y-6.013 E11.9205
G1 X-1.940 Y-6.692 E11.9476
G1 X1.940 Y-2.812 E12.1666
G1 X1.940 Y-3.491 E12.1937
G1 X-1.940 Y-7.371 E12.4127
G1 X-1.940 Y-8.049 E12.4398
G1 X1.940 Y-4.169 E12.6588
G1 X1.940 Y-4.848 E12.6859
G1 X-1.940 Y-8.728 E12.9049
G1 X-1.940 Y-9.407 E12.9320
G1 X1.940 Y-5.527 E13.1510
G1 X1.940 Y-6.206 E13.1781
G1 X-1.940 Y-10.086 E13.3971
G1 X-1.940 Y-10.765 E13.4242
G1 X1.940 Y-6.885 E13.6432
G1 X1.940 Y-7.564 E13.6703
G1 X-1.940 Y-11.444 E13.8893
G1 X-1.940 Y-12.122 E13.9164
G1 X1.940 Y-8.242 E14.1354
G1 X1.940 Y-8.921 E14.1625
G1 X-1.940 Y-12.801 E14.3815
G1 X-1.940 Y-13.480 E14.4086
G1 X1.940 Y-9.600 E14.6276
G1 X1.940 Y-10.279 E14.6547
G1 X-1.940 Y-14.159 E14.8737
G1 X-1.940 Y-14.838 E14.9007
G1 X1.940 Y-10.958 E15.1198
G1 X1.940 Y-11.636 E15.1468
G1 X-1.940 Y-15.516 E15.3659
G1 X-1.940 Y-16.195 E15.3929
G1 X1.940 Y-12.315 E15.6119
G1 X1.940 Y-12.994 E15.6390
G1 X-1.940 Y-16.874 E15.8580
G1 X-1.940 Y-17.553 E15.8851
G1 X1.940 Y-13.673 E16.1041
G1 X1.940 Y-14.352 E16.1312
G1 X-1.940 Y-18.232 E16.3502
G1 X-1.940 Y-18.911 E16.3773
G1 X1.940 Y-15.031 E16.5963
G1 X1.940 Y-15.709 E16.6234
G1 X-1.940 Y-19.589 E16.8424
G1 X-1.940 Y-20.268 E16.8695
G1 X1.940 Y-16.388 E17.0885
G1 X1.940 Y-17.067 E17.1156
G1 X-1.940 Y-20.947 E17.3346
G1 X-1.940 Y-21.626 E17.3617
G1 X1.940 Y-17.746 E17.5807
G1 X1.940 Y-18.425 E17.6078
G1 X-1.940 Y-22.305 E17.8268
G1 X-1.940 Y-22.984 E17.8539
G1 X1.940 Y-19.104 E18.0729
G1 X1.940 Y-19.782 E18.1000
G1 X-1.940 Y-23.662 E18.3190
G1 X-1.940 Y-24.341 E18.3461
G1 X1.940 Y-20.461 E18.5651
G1 X1.940 Y-21.140 E18.5922
G1 X-1.940 Y-25.020 E18.8112
G1 X-1.940 Y-25.699 E18.8383
G1 X1.940 Y-21.819 E19.0573
G1 X1.940 Y-22.498 E19.0844
G1 X-1.940 Y-26.378 E19.3034
G1 X-1.940 Y-27.056 E19.3305
G1 X1.940 Y-23.176 E19.5495
G1 X1.940 Y-23.855 E19.5766
G1 X-1.940 Y-27.735 E19.7956
G1 X-1.940 Y-28.414 E19.8227
G1 X1.940 Y-24.534 E20.0417
G1 X1.940 Y-25.213 E20.0688
G1 X-1.940 Y-29.093 E20.2878
G1 X-1.940 Y-29.772 E20.3149
G1 X1.940 Y-25.892 E20.5339
G1 X1.940 Y-26.571 E20.5610
G1 X-1.940 Y-30.451 E20.7800
G1 X-1.940 Y-31.129 E20.8071
G1 X1.940 Y-27.249 E21.0261
G1 X1.940 Y-27.928 E21.0532
G1 X-1.940 Y-31.808 E21.2722
G1 X-1.940 Y-32.487 E21.2993
G1 X1.940 Y-28.607 E21.5183
G1 X1.940 Y-29.286 E21.5454
G1 X-1.940 Y-33.166 E21.7644
G1 X-1.940 Y-33.429 E21.7749
G1 X-1.525 Y-33.429 E21.7915
