; G-Code generated by Simplify3D(R) Version 3.1.1
; Dec 9, 2016 at 11:20:35 PM
; Settings Summary
;   processName,Process1
;   applyToModels,Elephant
;   profileName,Rostock MAX v2 (modified)
;   profileVersion,2015-05-01 08:00:00
;   baseProfile,
;   printMaterial,Iron PLA
;   printQuality,Medium
;   printExtruders,
;   extruderName,Primary Extruder
;   extruderToolheadNumber,0
;   extruderDiameter,0.6
;   extruderAutoWidth,1
;   extruderWidth,0.72
;   extrusionMultiplier,1.1
;   extruderUseRetract,1
;   extruderRetractionDistance,2
;   extruderExtraRestartDistance,-0.2
;   extruderRetractionZLift,0
;   extruderRetractionSpeed,1800
;   extruderUseCoasting,1
;   extruderCoastingDistance,1
;   extruderUseWipe,0
;   extruderWipeDistance,5
;   primaryExtruder,0
;   layerHeight,0.3
;   topSolidLayers,3
;   bottomSolidLayers,3
;   perimeterOutlines,3
;   printPerimetersInsideOut,1
;   startPointOption,2
;   startPointOriginX,0
;   startPointOriginY,0
;   startPointOriginZ,300
;   sequentialIslands,0
;   spiralVaseMode,0
;   firstLayerHeightPercentage,25
;   firstLayerWidthPercentage,100
;   firstLayerUnderspeed,0.4
;   useRaft,0
;   raftExtruder,0
;   raftLayers,3
;   raftOffset,15
;   raftSeparationDistance,0.14
;   raftInfill,85
;   disableRaftBaseLayers,0
;   useSkirt,1
;   skirtExtruder,0
;   skirtLayers,1
;   skirtOutlines,2
;   skirtOffset,5
;   usePrimePillar,0
;   primePillarExtruder,999
;   primePillarWidth,12
;   primePillarLocation,7
;   primePillarSpeedMultiplier,1
;   useOozeShield,0
;   oozeShieldExtruder,999
;   oozeShieldOffset,2
;   oozeShieldOutlines,1
;   oozeShieldSidewallShape,1
;   oozeShieldSidewallAngle,30
;   oozeShieldSpeedMultiplier,1
;   infillExtruder,0
;   internalInfillPattern,Rectilinear
;   externalInfillPattern,Rectilinear
;   infillPercentage,85
;   outlineOverlapPercentage,40
;   infillExtrusionWidthPercentage,100
;   minInfillLength,3
;   infillLayerInterval,1
;   infillAngles,45,-45
;   overlapInfillAngles,0
;   generateSupport,0
;   supportExtruder,0
;   supportInfillPercentage,30
;   supportExtraInflation,0
;   denseSupportLayers,0
;   denseSupportInfillPercentage,70
;   supportLayerInterval,1
;   supportHorizontalPartOffset,0.3
;   supportUpperSeparationLayers,1
;   supportLowerSeparationLayers,1
;   supportType,0
;   supportGridSpacing,4
;   maxOverhangAngle,70
;   supportAngles,0
;   temperatureName,Primary Extruder,Heated Bed
;   temperatureNumber,0,1
;   temperatureSetpointCount,1,1
;   temperatureSetpointLayers,1,1
;   temperatureSetpointTemperatures,210,60
;   temperatureStabilizeAtStartup,1,1
;   temperatureHeatedBed,0,1
;   temperatureRelayBetweenLayers,0,0
;   temperatureRelayBetweenLoops,0,0
;   fanLayers,1,2
;   fanSpeeds,0,100
;   blipFanToFullPower,1
;   adjustSpeedForCooling,1
;   minSpeedLayerTime,5
;   minCoolingSpeedSlowdown,80
;   increaseFanForCooling,0
;   minFanLayerTime,60
;   maxCoolingFanSpeed,100
;   increaseFanForBridging,0
;   bridgingFanSpeed,100
;   use5D,1
;   relativeEdistances,0
;   allowEaxisZeroing,1
;   independentExtruderAxes,0
;   includeM10123,0
;   stickySupport,1
;   applyToolheadOffsets,0
;   gcodeXoffset,0
;   gcodeYoffset,0
;   gcodeZoffset,0
;   overrideMachineDefinition,1
;   machineTypeOverride,1
;   strokeXoverride,197
;   strokeYoverride,197
;   strokeZoverride,375
;   originOffsetXoverride,98.5
;   originOffsetYoverride,98.5
;   originOffsetZoverride,0
;   homeXdirOverride,0
;   homeYdirOverride,0
;   homeZdirOverride,1
;   flipXoverride,1
;   flipYoverride,-1
;   flipZoverride,1
;   toolheadOffsets,0,0|0,0|0,0|0,0|0,0|0,0
;   overrideFirmwareConfiguration,1
;   firmwareTypeOverride,RepRap (Marlin/Repetier/Sprinter)
;   GPXconfigOverride,r2
;   baudRateOverride,115200
;   overridePrinterModels,1
;   printerModelsOverride
;   startingGcode,G28 ; home all axes
;   layerChangeGcode,
;   retractionGcode,
;   toolChangeGcode,
;   endingGcode,M104 S0 ; turn off extruder,M140 S0 ; turn off bed,G28 ; home axes,M84 ; disable motors
;   exportFileFormat,gcode
;   celebration,0
;   celebrationSong,Random Song
;   postProcessing,
;   defaultSpeed,1000
;   outlineUnderspeed,0.5
;   solidInfillUnderspeed,0.8
;   supportUnderspeed,0.8
;   rapidXYspeed,9000
;   rapidZspeed,1200
;   minBridgingArea,50
;   bridgingExtraInflation,0
;   bridgingExtrusionMultiplier,0.8
;   bridgingSpeedMultiplier,1.25
;   filamentDiameter,1.75
;   filamentPricePerKg,22
;   filamentDensity,1.25
;   useMinPrintHeight,0
;   minPrintHeight,0.05
;   useMaxPrintHeight,0
;   maxPrintHeight,0
;   useDiaphragm,0
;   diaphragmLayerInterval,20
;   robustSlicing,1
;   mergeAllIntoSolid,0
;   onlyRetractWhenCrossingOutline,0
;   retractBetweenLayers,0
;   useRetractionMinTravel,0
;   retractionMinTravel,3
;   retractWhileWiping,1
;   onlyWipeOutlines,1
;   avoidCrossingOutline,1
;   maxMovementDetourFactor,1.5
;   toolChangeRetractionDistance,12
;   toolChangeExtraRestartDistance,-0.5
;   toolChangeRetractionSpeed,600
;   allowThinWallGapFill,1
;   thinWallAllowedOverlapPercentage,10
;   horizontalSizeCompensation,0
G90
M82
M106 S0
M140 S60
M190 S60
M104 S210 T0
M109 S210 T0
G28 ; home all axes
G92 E0
G1 E-2.0000 F1800
G1 Z0.075 F1200
; layer 1, Z = 0.075
T0
; tool H0.300 W0.720
; skirt
G1 X7.856 Y11.167 F9000
G1 E-0.2000 F540
G92 E0
G1 X7.843 Y11.218 E0.0053 F400
G1 X7.542 Y12.184 E0.1052
G1 X7.526 Y12.231 E0.1101
G1 X7.333 Y12.697 E0.1600
G1 X7.312 Y12.742 E0.1648
G1 X6.862 Y13.598 E0.2603
G1 X6.840 Y13.636 E0.2647
G1 X6.597 Y14.020 E0.3096
G1 X6.571 Y14.057 E0.3140
G1 X6.100 Y14.680 E0.3912
G1 X6.072 Y14.714 E0.3955
G1 X5.773 Y15.049 E0.4399
G1 X5.742 Y15.081 E0.4443
G1 X5.031 Y15.759 E0.5413
G1 X4.988 Y15.795 E0.5469
G1 X4.534 Y16.146 E0.6036
G1 X4.488 Y16.178 E0.6091
G1 X3.517 Y16.779 E0.7219
G1 X3.472 Y16.803 E0.7270
G1 X3.002 Y17.036 E0.7788
G1 X2.955 Y17.057 E0.7838
G1 X1.964 Y17.435 E0.8887
G1 X1.870 Y17.461 E0.8982
G1 X0.893 Y17.645 E0.9965
G1 X0.796 Y17.654 E1.0060
G1 X-3.605 Y17.682 E1.4409
G1 X-3.656 Y17.703 E1.4463
G1 X-5.491 Y17.694 E1.6275
G1 X-7.148 Y17.705 E1.7912
G1 X-7.193 Y17.686 E1.7961
G1 X-10.873 Y17.669 E2.1596
G1 X-10.913 Y17.684 E2.1638
G1 X-12.474 Y17.661 E2.3180
G1 X-14.408 Y17.652 E2.5091
G1 X-14.457 Y17.631 E2.5144
G1 X-18.574 Y17.570 E2.9211
G1 X-18.966 Y17.403 E2.9631
G1 X-22.140 Y14.180 E3.4100
G1 X-22.302 Y13.786 E3.4520
G1 X-22.302 Y13.577 E3.4727
G1 X-22.863 Y13.853 E3.5344
G1 X-22.882 Y13.862 E3.5366
G1 X-23.087 Y13.953 E3.5587
G1 X-23.107 Y13.961 E3.5608
G1 X-24.475 Y14.501 E3.7061
G1 X-24.492 Y14.507 E3.7078
G1 X-24.666 Y14.569 E3.7261
G1 X-24.683 Y14.575 E3.7279
G1 X-26.697 Y15.218 E3.9368
G1 X-26.732 Y15.228 E3.9403
G1 X-27.090 Y15.317 E3.9768
G1 X-27.125 Y15.324 E3.9803
G1 X-27.823 Y15.448 E4.0504
G1 X-27.885 Y15.456 E4.0565
G1 X-28.519 Y15.495 E4.1193
G1 X-28.581 Y15.495 E4.1254
G1 X-29.449 Y15.448 E4.2113
G1 X-29.511 Y15.442 E4.2174
G1 X-30.136 Y15.336 E4.2800
G1 X-30.196 Y15.322 E4.2861
G1 X-31.087 Y15.064 E4.3777
G1 X-31.158 Y15.038 E4.3852
G1 X-31.867 Y14.719 E4.4620
G1 X-31.934 Y14.683 E4.4695
G1 X-32.923 Y14.060 E4.5850
G1 X-32.995 Y14.006 E4.5938
G1 X-33.679 Y13.397 E4.6843
G1 X-33.740 Y13.332 E4.6931
G1 X-34.492 Y12.400 E4.8114
G1 X-34.536 Y12.336 E4.8191
G1 X-34.941 Y11.652 E4.8977
G1 X-34.976 Y11.582 E4.9053
G1 X-35.335 Y10.712 E4.9984
G1 X-35.353 Y10.662 E5.0036
G1 X-35.510 Y10.141 E5.0574
G1 X-35.523 Y10.089 E5.0626
G1 X-35.667 Y9.364 E5.1356
G1 X-35.674 Y9.314 E5.1407
G1 X-35.696 Y9.093 E5.1626
G1 X-36.997 Y9.091 E5.2911
G1 X-37.153 Y9.026 E5.3077
G1 X-37.263 Y9.064 E5.3192
G1 X-38.919 Y8.936 E5.4833
G1 X-40.254 Y8.874 E5.6154
G1 X-40.366 Y8.824 E5.6275
G1 X-42.582 Y8.652 E5.8471
G1 X-42.589 Y8.651 E5.8478
G1 X-42.660 Y8.645 E5.8548
G1 X-42.667 Y8.644 E5.8555
G1 X-47.737 Y8.119 E6.3590
G1 X-48.094 Y7.938 E6.3986
G1 X-50.936 Y4.786 E6.8178
G1 X-51.080 Y4.412 E6.8574
G1 X-51.080 Y-4.414 E7.7292
G1 X-50.936 Y-4.788 E7.7688
G1 X-48.091 Y-7.941 E8.1883
G1 X-47.733 Y-8.122 E8.2279
G1 X-42.552 Y-8.654 E8.7424
G1 X-42.545 Y-8.655 E8.7431
G1 X-42.475 Y-8.661 E8.7500
G1 X-42.469 Y-8.662 E8.7507
G1 X-40.365 Y-8.824 E8.9591
G1 X-40.254 Y-8.874 E8.9711
G1 X-38.910 Y-8.936 E9.1041
G1 X-37.261 Y-9.064 E9.2674
G1 X-37.153 Y-9.026 E9.2787
G1 X-36.997 Y-9.091 E9.2954
G1 X-35.693 Y-9.093 E9.4243
G1 X-35.672 Y-9.329 E9.4476
G1 X-35.665 Y-9.382 E9.4530
G1 X-35.563 Y-9.925 E9.5075
G1 X-35.550 Y-9.977 E9.5128
G1 X-35.319 Y-10.767 E9.5942
G1 X-35.299 Y-10.821 E9.5998
G1 X-35.073 Y-11.368 E9.6583
G1 X-35.048 Y-11.420 E9.6640
G1 X-34.642 Y-12.166 E9.7479
G1 X-34.609 Y-12.219 E9.7540
G1 X-34.246 Y-12.736 E9.8165
G1 X-34.207 Y-12.784 E9.8226
G1 X-33.577 Y-13.493 E9.9162
G1 X-33.523 Y-13.546 E9.9237
G1 X-32.928 Y-14.051 E10.0009
G1 X-32.866 Y-14.096 E10.0084
G1 X-31.870 Y-14.724 E10.1247
G1 X-31.790 Y-14.765 E10.1336
G1 X-30.931 Y-15.123 E10.2255
G1 X-30.845 Y-15.151 E10.2345
G1 X-29.688 Y-15.419 E10.3518
G1 X-29.612 Y-15.431 E10.3594
G1 X-28.829 Y-15.498 E10.4370
G1 X-28.753 Y-15.499 E10.4446
G1 X-27.813 Y-15.447 E10.5375
G1 X-27.750 Y-15.440 E10.5438
G1 X-27.105 Y-15.327 E10.6085
G1 X-27.043 Y-15.312 E10.6148
G1 X-25.423 Y-14.825 E10.7818
G1 X-25.409 Y-14.821 E10.7833
G1 X-25.261 Y-14.772 E10.7987
G1 X-25.247 Y-14.767 E10.8002
G1 X-23.638 Y-14.183 E10.9693
G1 X-23.618 Y-14.175 E10.9714
G1 X-23.414 Y-14.092 E10.9932
G1 X-23.394 Y-14.083 E10.9953
G1 X-22.302 Y-13.585 E11.1139
G1 X-22.302 Y-13.786 E11.1337
G1 X-22.140 Y-14.180 E11.1758
G1 X-18.966 Y-17.403 E11.6226
G1 X-18.574 Y-17.570 E11.6647
G1 X-14.457 Y-17.631 E12.0714
G1 X-14.408 Y-17.652 E12.0766
G1 X-12.472 Y-17.661 E12.2679
G1 X-10.913 Y-17.684 E12.4220
G1 X-10.873 Y-17.669 E12.4262
G1 X-7.192 Y-17.686 E12.7898
G1 X-7.153 Y-17.702 E12.7940
G1 X-5.563 Y-17.694 E12.9510
G1 X-3.656 Y-17.703 E13.1394
G1 X-3.607 Y-17.683 E13.1446
G1 X0.797 Y-17.654 E13.5797
G1 X0.894 Y-17.645 E13.5893
G1 X1.871 Y-17.461 E13.6875
G1 X1.964 Y-17.435 E13.6971
G1 X2.901 Y-17.077 E13.7962
G1 X2.938 Y-17.061 E13.8001
G1 X3.309 Y-16.888 E13.8406
G1 X3.344 Y-16.869 E13.8445
G1 X3.990 Y-16.506 E13.9177
G1 X4.020 Y-16.487 E13.9212
G1 X4.329 Y-16.286 E13.9577
G1 X4.358 Y-16.265 E13.9612
G1 X4.948 Y-15.821 E14.0341
G1 X4.976 Y-15.798 E14.0377
G1 X5.260 Y-15.553 E14.0747
G1 X5.287 Y-15.528 E14.0784
G1 X5.806 Y-15.013 E14.1506
G1 X5.832 Y-14.985 E14.1544
G1 X6.092 Y-14.688 E14.1934
G1 X6.116 Y-14.658 E14.1972
G1 X6.528 Y-14.114 E14.2646
G1 X6.545 Y-14.089 E14.2675
G1 X6.719 Y-13.832 E14.2982
G1 X6.735 Y-13.806 E14.3012
G1 X7.101 Y-13.188 E14.3722
G1 X7.127 Y-13.140 E14.3776
G1 X7.362 Y-12.633 E14.4328
G1 X7.382 Y-12.582 E14.4382
G1 X7.805 Y-11.364 E14.5655
G1 X7.822 Y-11.304 E14.5717
G1 X7.926 Y-10.834 E14.6193
G1 X10.529 Y-10.691 E14.8768
G1 X10.532 Y-10.691 E14.8771
G1 X10.564 Y-10.689 E14.8803
G1 X10.567 Y-10.689 E14.8806
G1 X17.425 Y-10.232 E15.5595
G1 X17.521 Y-11.015 E15.6375
G1 X17.527 Y-11.057 E15.6417
G1 X17.614 Y-11.482 E15.6845
G1 X17.624 Y-11.523 E15.6887
G1 X17.960 Y-12.703 E15.8099
G1 X17.974 Y-12.745 E15.8143
G1 X18.136 Y-13.174 E15.8596
G1 X18.153 Y-13.215 E15.8640
G1 X18.655 Y-14.272 E15.9796
G1 X18.675 Y-14.310 E15.9838
G1 X18.897 Y-14.694 E16.0276
G1 X18.920 Y-14.731 E16.0319
G1 X19.584 Y-15.695 E16.1476
G1 X19.606 Y-15.724 E16.1511
G1 X19.831 Y-16.009 E16.1871
G1 X19.854 Y-16.036 E16.1906
G1 X20.364 Y-16.601 E16.2657
G1 X20.385 Y-16.623 E16.2687
G1 X20.603 Y-16.838 E16.2989
G1 X20.624 Y-16.859 E16.3019
G1 X21.284 Y-17.443 E16.3889
G1 X21.309 Y-17.465 E16.3922
G1 X21.581 Y-17.677 E16.4263
G1 X21.608 Y-17.697 E16.4296
G1 X22.457 Y-18.279 E16.5313
G1 X22.492 Y-18.301 E16.5354
G1 X22.857 Y-18.512 E16.5770
G1 X22.893 Y-18.531 E16.5811
G1 X23.936 Y-19.033 E16.6954
G1 X23.974 Y-19.050 E16.6995
G1 X24.369 Y-19.204 E16.7414
G1 X24.409 Y-19.218 E16.7455
G1 X25.389 Y-19.516 E16.8467
G1 X25.417 Y-19.524 E16.8496
G1 X25.709 Y-19.596 E16.8793
G1 X25.737 Y-19.602 E16.8822
G1 X26.305 Y-19.710 E16.9393
G1 X26.318 Y-19.712 E16.9406
G1 X26.452 Y-19.734 E16.9540
G1 X26.465 Y-19.736 E16.9553
G1 X28.803 Y-20.060 E17.1884
G1 X28.808 Y-20.061 E17.1889
G1 X28.854 Y-20.067 E17.1935
G1 X28.858 Y-20.068 E17.1940
G1 X30.875 Y-20.313 E17.3947
G1 X30.952 Y-20.352 E17.4031
G1 X32.427 Y-20.502 E17.5496
G1 X34.383 Y-20.740 E17.7443
G1 X34.478 Y-20.710 E17.7541
G1 X35.796 Y-20.844 E17.8849
G1 X35.799 Y-20.845 E17.8853
G1 X35.836 Y-20.848 E17.8889
G1 X35.839 Y-20.848 E17.8893
G1 X38.208 Y-21.058 E18.1242
G1 X38.267 Y-21.086 E18.1306
G1 X39.806 Y-21.199 E18.2830
G1 X41.731 Y-21.369 E18.4740
G1 X41.801 Y-21.345 E18.4813
G1 X45.655 Y-21.628 E18.8629
G1 X46.079 Y-21.479 E18.9074
G1 X49.602 Y-18.206 E19.3824
G1 X49.782 Y-17.793 E19.4269
G1 X49.782 Y-0.560 E21.1292
G1 X49.602 Y-0.147 E21.1737
G1 X49.444 Y0.000 E21.1950
G1 X49.602 Y0.147 E21.2163
G1 X49.782 Y0.560 E21.2608
G1 X49.782 Y17.793 E22.9631
G1 X49.602 Y18.206 E23.0076
G1 X46.079 Y21.479 E23.4826
G1 X45.655 Y21.628 E23.5271
G1 X41.801 Y21.345 E23.9088
G1 X41.731 Y21.369 E23.9161
G1 X39.805 Y21.199 E24.1071
G1 X38.267 Y21.086 E24.2594
G1 X38.208 Y21.058 E24.2659
G1 X35.839 Y20.848 E24.5008
G1 X35.836 Y20.848 E24.5011
G1 X35.799 Y20.845 E24.5048
G1 X35.796 Y20.844 E24.5051
G1 X34.478 Y20.710 E24.6360
G1 X34.383 Y20.740 E24.6457
G1 X32.426 Y20.502 E24.8405
G1 X30.952 Y20.352 E24.9869
G1 X30.876 Y20.313 E24.9953
G1 X28.858 Y20.068 E25.1961
G1 X28.854 Y20.067 E25.1965
G1 X28.808 Y20.061 E25.2011
G1 X28.803 Y20.060 E25.2016
G1 X26.450 Y19.734 E25.4363
G1 X26.434 Y19.731 E25.4379
G1 X26.269 Y19.703 E25.4544
G1 X26.253 Y19.700 E25.4560
G1 X25.602 Y19.569 E25.5216
G1 X25.575 Y19.563 E25.5243
G1 X25.296 Y19.492 E25.5527
G1 X25.269 Y19.484 E25.5555
G1 X24.370 Y19.204 E25.6485
G1 X24.333 Y19.191 E25.6525
G1 X23.951 Y19.041 E25.6929
G1 X23.915 Y19.025 E25.6969
G1 X22.889 Y18.529 E25.8095
G1 X22.853 Y18.510 E25.8135
G1 X22.490 Y18.300 E25.8549
G1 X22.456 Y18.278 E25.8589
G1 X21.607 Y17.696 E25.9606
G1 X21.580 Y17.676 E25.9639
G1 X21.306 Y17.462 E25.9982
G1 X21.280 Y17.440 E26.0016
G1 X20.618 Y16.852 E26.0891
G1 X20.596 Y16.832 E26.0920
G1 X20.381 Y16.618 E26.1220
G1 X20.360 Y16.596 E26.1249
G1 X19.854 Y16.037 E26.1994
G1 X19.832 Y16.009 E26.2030
G1 X19.606 Y15.724 E26.2389
G1 X19.584 Y15.695 E26.2424
G1 X18.920 Y14.731 E26.3581
G1 X18.897 Y14.694 E26.3624
G1 X18.675 Y14.310 E26.4062
G1 X18.655 Y14.272 E26.4105
G1 X18.171 Y13.252 E26.5220
G1 X18.157 Y13.219 E26.5256
G1 X18.019 Y12.869 E26.5627
G1 X18.007 Y12.835 E26.5663
G1 X17.733 Y11.975 E26.6555
G1 X17.724 Y11.942 E26.6588
G1 X17.639 Y11.603 E26.6934
G1 X17.632 Y11.569 E26.6967
G1 X17.459 Y10.630 E26.7910
G1 X17.454 Y10.592 E26.7949
G1 X17.415 Y10.244 E26.8295
G1 X13.601 Y10.505 E27.2071
G1 X13.598 Y10.506 E27.2075
G1 X13.565 Y10.508 E27.2107
G1 X13.562 Y10.508 E27.2111
G1 X8.578 Y10.790 E27.7042
G1 X7.926 Y10.827 F400
G1 X7.856 Y11.167 F400
G92 E0
G1 E-2.0000 F1800
G1 X7.257 Y10.502 F9000
G1 E-0.2000 F1800
G92 E0
G1 X7.154 Y11.005 E0.0507 F400
G1 X7.150 Y11.022 E0.0524
G1 X6.860 Y11.955 E0.1489
G1 X6.854 Y11.970 E0.1506
G1 X6.674 Y12.407 E0.1972
G1 X6.667 Y12.422 E0.1988
G1 X6.232 Y13.250 E0.2913
G1 X6.224 Y13.263 E0.2927
G1 X5.997 Y13.622 E0.3347
G1 X5.988 Y13.634 E0.3362
G1 X5.534 Y14.234 E0.4105
G1 X5.525 Y14.245 E0.4119
G1 X5.245 Y14.559 E0.4535
G1 X5.235 Y14.569 E0.4549
G1 X4.548 Y15.225 E0.5487
G1 X4.533 Y15.237 E0.5505
G1 X4.108 Y15.565 E0.6036
G1 X4.093 Y15.576 E0.6054
G1 X3.152 Y16.157 E0.7147
G1 X3.138 Y16.166 E0.7164
G1 X2.698 Y16.383 E0.7649
G1 X2.682 Y16.390 E0.7665
G1 X1.737 Y16.751 E0.8665
G1 X1.706 Y16.760 E0.8697
G1 X0.792 Y16.931 E0.9616
G1 X0.759 Y16.934 E0.9647
G1 X-3.749 Y16.963 E1.4102
G1 X-3.796 Y16.982 E1.4151
G1 X-5.492 Y16.974 E1.5827
G1 X-7.009 Y16.984 E1.7325
G1 X-7.050 Y16.967 E1.7369
G1 X-11.011 Y16.948 E2.1282
G1 X-11.046 Y16.962 E2.1320
G1 X-12.467 Y16.941 E2.2723
G1 X-14.262 Y16.933 E2.4496
G1 X-14.308 Y16.914 E2.4545
G1 X-18.422 Y16.852 E2.8609
G1 X-18.552 Y16.796 E2.8750
G1 X-21.528 Y13.776 E3.2938
G1 X-21.582 Y13.644 E3.3078
G1 X-21.582 Y12.379 E3.4328
G1 X-21.770 Y12.497 E3.4548
G1 X-21.778 Y12.502 E3.4557
G1 X-22.012 Y12.632 E3.4822
G1 X-22.020 Y12.637 E3.4831
G1 X-23.174 Y13.203 E3.6100
