; G-Code generated by Simplify3D(R) Version 3.1.0
; Aug 19, 2016 at 9:23:48 PM
; Settings Summary
;   processName,Process1
;   applyToModels,A1
;   profileName,Rostock MAX v2 (modified)
;   profileVersion,2015-05-01 08:00:00
;   baseProfile,
;   printMaterial,PLA
;   printQuality,Medium
;   printExtruders,
;   extruderName,Primary Extruder
;   extruderToolheadNumber,0
;   extruderDiameter,0.4
;   extruderAutoWidth,1
;   extruderWidth,0.48
;   extrusionMultiplier,1.1
;   extruderUseRetract,1
;   extruderRetractionDistance,7
;   extruderExtraRestartDistance,0
;   extruderRetractionZLift,0
;   extruderRetractionSpeed,1500
;   extruderUseCoasting,1
;   extruderCoastingDistance,1
;   extruderUseWipe,1
;   extruderWipeDistance,5
;   primaryExtruder,0
;   layerHeight,0.2
;   topSolidLayers,3
;   bottomSolidLayers,3
;   perimeterOutlines,3
;   printPerimetersInsideOut,1
;   startPointOption,2
;   startPointOriginX,0
;   startPointOriginY,0
;   startPointOriginZ,300
;   sequentialIslands,0
;   spiralVaseMode,0
;   firstLayerHeightPercentage,25
;   firstLayerWidthPercentage,100
;   firstLayerUnderspeed,0.4
;   useRaft,0
;   raftExtruder,0
;   raftLayers,3
;   raftOffset,15
;   raftSeparationDistance,0.14
;   raftInfill,85
;   disableRaftBaseLayers,0
;   useSkirt,1
;   skirtExtruder,0
;   skirtLayers,1
;   skirtOutlines,3
;   skirtOffset,10
;   usePrimePillar,0
;   primePillarExtruder,999
;   primePillarWidth,12
;   primePillarLocation,7
;   primePillarSpeedMultiplier,1
;   useOozeShield,0
;   oozeShieldExtruder,999
;   oozeShieldOffset,2
;   oozeShieldOutlines,1
;   oozeShieldSidewallShape,1
;   oozeShieldSidewallAngle,30
;   oozeShieldSpeedMultiplier,1
;   infillExtruder,0
;   internalInfillPattern,Fast Honeycomb
;   externalInfillPattern,Rectilinear
;   infillPercentage,25
;   outlineOverlapPercentage,25
;   infillExtrusionWidthPercentage,150
;   minInfillLength,5
;   infillLayerInterval,1
;   infillAngles,0
;   overlapInfillAngles,0
;   generateSupport,0
;   supportExtruder,0
;   supportInfillPercentage,30
;   supportExtraInflation,0
;   denseSupportLayers,0
;   denseSupportInfillPercentage,70
;   supportLayerInterval,1
;   supportHorizontalPartOffset,0.3
;   supportUpperSeparationLayers,1
;   supportLowerSeparationLayers,1
;   supportType,1
;   supportGridSpacing,4
;   maxOverhangAngle,45
;   supportAngles,0
;   temperatureName,Primary Extruder,Heated Bed
;   temperatureNumber,0,1
;   temperatureSetpointCount,1,1
;   temperatureSetpointLayers,1,1
;   temperatureSetpointTemperatures,205,60
;   temperatureStabilizeAtStartup,1,1
;   temperatureHeatedBed,0,1
;   temperatureRelayBetweenLayers,0,0
;   temperatureRelayBetweenLoops,0,0
;   fanLayers,1,2
;   fanSpeeds,0,100
;   blipFanToFullPower,1
;   adjustSpeedForCooling,1
;   minSpeedLayerTime,15
;   minCoolingSpeedSlowdown,20
;   increaseFanForCooling,0
;   minFanLayerTime,60
;   maxCoolingFanSpeed,100
;   increaseFanForBridging,0
;   bridgingFanSpeed,100
;   use5D,1
;   relativeEdistances,0
;   allowEaxisZeroing,1
;   independentExtruderAxes,0
;   includeM10123,0
;   stickySupport,1
;   applyToolheadOffsets,0
;   gcodeXoffset,0
;   gcodeYoffset,0
;   gcodeZoffset,0
;   overrideMachineDefinition,1
;   machineTypeOverride,1
;   strokeXoverride,197
;   strokeYoverride,197
;   strokeZoverride,375
;   originOffsetXoverride,98.5
;   originOffsetYoverride,98.5
;   originOffsetZoverride,0
;   homeXdirOverride,0
;   homeYdirOverride,0
;   homeZdirOverride,1
;   flipXoverride,1
;   flipYoverride,-1
;   flipZoverride,1
;   toolheadOffsets,0,0|0,0|0,0|0,0|0,0|0,0
;   overrideFirmwareConfiguration,1
;   firmwareTypeOverride,RepRap (Marlin/Repetier/Sprinter)
;   GPXconfigOverride,r2
;   baudRateOverride,115200
;   overridePrinterModels,1
;   printerModelsOverride
;   startingGcode,G28 ; home all axes
;   layerChangeGcode,
;   retractionGcode,
;   toolChangeGcode,
;   endingGcode,M104 S0 ; turn off extruder,M140 S0 ; turn off bed,G28 ; home axes,M84 ; disable motors
;   exportFileFormat,gcode
;   celebration,0
;   celebrationSong,Random Song
;   postProcessing,
;   defaultSpeed,3000
;   outlineUnderspeed,0.5
;   solidInfillUnderspeed,0.8
;   supportUnderspeed,0.8
;   rapidXYspeed,12000
;   rapidZspeed,1200
;   minBridgingArea,50
;   bridgingExtraInflation,0
;   bridgingExtrusionMultiplier,0.95
;   bridgingSpeedMultiplier,0.7
;   filamentDiameter,1.75
;   filamentPricePerKg,22
;   filamentDensity,1.25
;   useMinPrintHeight,0
;   minPrintHeight,0.05
;   useMaxPrintHeight,0
;   maxPrintHeight,0
;   useDiaphragm,0
;   diaphragmLayerInterval,20
;   robustSlicing,1
;   mergeAllIntoSolid,0
;   onlyRetractWhenCrossingOutline,1
;   retractBetweenLayers,0
;   useRetractionMinTravel,0
;   retractionMinTravel,3
;   retractWhileWiping,1
;   onlyWipeOutlines,1
;   avoidCrossingOutline,1
;   maxMovementDetourFactor,2
;   toolChangeRetractionDistance,12
;   toolChangeExtraRestartDistance,-0.5
;   toolChangeRetractionSpeed,600
;   allowThinWallGapFill,1
;   thinWallAllowedOverlapPercentage,10
;   horizontalSizeCompensation,0
G90
M82
M106 S0
M140 S60
M190 S60
M104 S205 T0
M109 S205 T0
G28 ; home all axes
G92 E0
G1 E-7.0000 F1500
G1 Z0.050 F1200
; layer 1, Z = 0.05
T0
; tool H0.200 W0.480
; skirt
G1 X23.694 Y-56.398 F12000
G1 E0.0000 F450
G92 E0
G1 X24.157 Y-56.945 E0.0314 F1200
G1 X24.188 Y-56.979 E0.0335
G1 X24.758 Y-57.556 E0.0691
G1 X24.791 Y-57.588 E0.0711
G1 X25.655 Y-58.338 E0.1213
G1 X25.692 Y-58.368 E0.1234
G1 X26.369 Y-58.868 E0.1604
G1 X26.409 Y-58.895 E0.1625
G1 X27.393 Y-59.508 E0.2134
G1 X27.435 Y-59.531 E0.2155
G1 X28.183 Y-59.918 E0.2525
G1 X28.226 Y-59.938 E0.2546
G1 X29.295 Y-60.388 E0.3055
G1 X29.340 Y-60.404 E0.3076
G1 X30.140 Y-60.668 E0.3445
G1 X30.185 Y-60.681 E0.3466
G1 X31.312 Y-60.956 E0.3975
G1 X31.359 Y-60.965 E0.3996
G1 X32.190 Y-61.099 E0.4366
G1 X32.237 Y-61.105 E0.4387
G1 X33.185 Y-61.181 E0.4804
G1 X33.209 Y-61.182 E0.4815
G1 X33.634 Y-61.199 E0.5001
G1 X33.658 Y-61.200 E0.5012
G1 X45.128 Y-61.200 E1.0048
G1 X45.151 Y-61.200 E1.0058
G1 X45.567 Y-61.183 E1.0241
G1 X45.591 Y-61.182 E1.0251
G1 X47.002 Y-61.071 E1.0873
G1 X47.049 Y-61.065 E1.0893
G1 X47.867 Y-60.936 E1.1257
G1 X47.913 Y-60.927 E1.1278
G1 X49.497 Y-60.548 E1.1992
G1 X49.542 Y-60.535 E1.2013
G1 X50.334 Y-60.278 E1.2379
G1 X50.379 Y-60.262 E1.2399
G1 X51.885 Y-59.640 E1.3115
G1 X51.928 Y-59.620 E1.3136
G1 X52.670 Y-59.242 E1.3501
G1 X52.711 Y-59.219 E1.3522
G1 X54.102 Y-58.369 E1.4238
G1 X54.141 Y-58.342 E1.4259
G1 X54.816 Y-57.853 E1.4624
G1 X54.853 Y-57.824 E1.4645
G1 X56.093 Y-56.766 E1.5361
G1 X56.128 Y-56.735 E1.5381
G1 X56.717 Y-56.146 E1.5747
G1 X56.749 Y-56.111 E1.5768
G1 X57.809 Y-54.873 E1.6483
G1 X57.838 Y-54.836 E1.6504
G1 X58.328 Y-54.162 E1.6870
G1 X58.354 Y-54.123 E1.6890
G1 X59.207 Y-52.734 E1.7606
G1 X59.230 Y-52.693 E1.7627
G1 X59.609 Y-51.951 E1.7993
G1 X59.629 Y-51.908 E1.8013
G1 X60.256 Y-50.397 E1.8732
G1 X60.272 Y-50.353 E1.8752
G1 X60.531 Y-49.557 E1.9120
G1 X60.544 Y-49.511 E1.9141
G1 X60.924 Y-47.930 E1.9855
G1 X60.933 Y-47.884 E1.9875
G1 X61.063 Y-47.065 E2.0239
G1 X61.068 Y-47.019 E2.0260
G1 X61.181 Y-45.601 E2.0884
G1 X61.183 Y-45.578 E2.0894
G1 X61.199 Y-45.158 E2.1079
G1 X61.200 Y-45.134 E2.1089
G1 X61.200 Y-33.652 E2.6130
G1 X61.200 Y-33.628 E2.6141
G1 X61.183 Y-33.207 E2.6326
G1 X61.181 Y-33.183 E2.6336
G1 X61.106 Y-32.242 E2.6751
G1 X61.101 Y-32.194 E2.6772
G1 X60.969 Y-31.368 E2.7139
G1 X60.959 Y-31.321 E2.7160
G1 X60.687 Y-30.197 E2.7668
G1 X60.674 Y-30.151 E2.7689
G1 X60.412 Y-29.350 E2.8059
G1 X60.395 Y-29.306 E2.8080
G1 X59.948 Y-28.236 E2.8589
G1 X59.928 Y-28.193 E2.8610
G1 X59.543 Y-27.445 E2.8979
G1 X59.519 Y-27.404 E2.9000
G1 X58.909 Y-26.419 E2.9509
G1 X58.882 Y-26.379 E2.9530
G1 X58.383 Y-25.701 E2.9899
G1 X58.353 Y-25.664 E2.9920
G1 X57.602 Y-24.796 E3.0424
G1 X57.570 Y-24.762 E3.0444
G1 X56.988 Y-24.186 E3.0804
G1 X56.954 Y-24.155 E3.0824
G1 X56.401 Y-23.687 E3.1142
G1 X58.194 Y-18.945 E3.3368
G1 X58.204 Y-18.916 E3.3381
G1 X58.371 Y-18.394 E3.3622
G1 X58.380 Y-18.365 E3.3635
G1 X59.837 Y-12.845 E3.6142
G1 X59.844 Y-12.815 E3.6155
G1 X59.956 Y-12.279 E3.6396
G1 X59.962 Y-12.248 E3.6409
G1 X60.842 Y-6.608 E3.8916
G1 X60.846 Y-6.577 E3.8929
G1 X60.903 Y-6.033 E3.9170
G1 X60.905 Y-6.002 E3.9183
G1 X61.199 Y-0.304 E4.1688
G1 X61.200 Y-0.273 E4.1702
G1 X61.200 Y0.274 E4.1942
G1 X61.199 Y0.305 E4.1955
G1 X60.904 Y6.010 E4.4463
G1 X60.902 Y6.041 E4.4477
G1 X60.845 Y6.586 E4.4718
G1 X60.841 Y6.616 E4.4731
G1 X59.960 Y12.257 E4.7238
G1 X59.954 Y12.287 E4.7251
G1 X59.842 Y12.823 E4.7492
G1 X59.835 Y12.853 E4.7505
G1 X58.377 Y18.373 E5.0012
G1 X58.368 Y18.403 E5.0025
G1 X58.201 Y18.924 E5.0265
G1 X58.191 Y18.953 E5.0279
G1 X56.398 Y23.694 E5.2504
G1 X56.945 Y24.157 E5.2819
G1 X56.979 Y24.188 E5.2839
G1 X57.556 Y24.758 E5.3195
G1 X57.588 Y24.791 E5.3215
G1 X58.338 Y25.655 E5.3718
G1 X58.368 Y25.692 E5.3739
G1 X58.868 Y26.369 E5.4108
G1 X58.895 Y26.409 E5.4129
G1 X59.508 Y27.393 E5.4638
G1 X59.531 Y27.435 E5.4659
G1 X59.918 Y28.183 E5.5029
G1 X59.938 Y28.226 E5.5050
G1 X60.388 Y29.295 E5.5559
G1 X60.404 Y29.340 E5.5580
G1 X60.668 Y30.140 E5.5950
G1 X60.681 Y30.185 E5.5971
G1 X60.956 Y31.312 E5.6480
G1 X60.965 Y31.359 E5.6501
G1 X61.099 Y32.190 E5.6870
G1 X61.105 Y32.237 E5.6891
G1 X61.181 Y33.185 E5.7309
G1 X61.182 Y33.209 E5.7319
G1 X61.199 Y33.634 E5.7506
G1 X61.200 Y33.658 E5.7517
G1 X61.200 Y45.128 E6.2552
G1 X61.200 Y45.151 E6.2562
G1 X61.183 Y45.567 E6.2745
G1 X61.182 Y45.591 E6.2756
G1 X61.071 Y47.002 E6.3377
G1 X61.065 Y47.049 E6.3398
G1 X60.936 Y47.867 E6.3762
G1 X60.927 Y47.913 E6.3782
G1 X60.548 Y49.497 E6.4497
G1 X60.535 Y49.542 E6.4518
G1 X60.278 Y50.334 E6.4883
G1 X60.262 Y50.379 E6.4904
G1 X59.640 Y51.885 E6.5620
G1 X59.620 Y51.928 E6.5640
G1 X59.242 Y52.670 E6.6006
G1 X59.219 Y52.712 E6.6027
G1 X58.369 Y54.102 E6.6742
G1 X58.342 Y54.141 E6.6763
G1 X57.853 Y54.816 E6.7129
G1 X57.824 Y54.853 E6.7149
G1 X56.766 Y56.093 E6.7865
G1 X56.735 Y56.128 E6.7886
G1 X56.146 Y56.717 E6.8251
G1 X56.111 Y56.749 E6.8272
G1 X54.873 Y57.809 E6.8988
G1 X54.836 Y57.838 E6.9009
G1 X54.162 Y58.328 E6.9374
G1 X54.123 Y58.354 E6.9395
G1 X52.734 Y59.207 E7.0111
G1 X52.693 Y59.230 E7.0131
G1 X51.951 Y59.609 E7.0497
G1 X51.908 Y59.629 E7.0518
G1 X50.403 Y60.254 E7.1233
G1 X50.358 Y60.270 E7.1254
G1 X49.567 Y60.528 E7.1620
G1 X49.521 Y60.541 E7.1640
G1 X47.937 Y60.923 E7.2356
G1 X47.890 Y60.932 E7.2377
G1 X47.068 Y61.063 E7.2742
G1 X47.021 Y61.068 E7.2763
G1 X45.601 Y61.181 E7.3388
G1 X45.578 Y61.183 E7.3399
G1 X45.158 Y61.199 E7.3583
G1 X45.134 Y61.200 E7.3594
G1 X33.652 Y61.200 E7.8635
G1 X33.628 Y61.200 E7.8645
G1 X33.207 Y61.183 E7.8830
G1 X33.183 Y61.181 E7.8841
G1 X32.242 Y61.106 E7.9255
G1 X32.194 Y61.101 E7.9276
G1 X31.368 Y60.969 E7.9644
G1 X31.321 Y60.959 E7.9665
G1 X30.197 Y60.687 E8.0172
G1 X30.151 Y60.674 E8.0193
G1 X29.350 Y60.412 E8.0563
G1 X29.306 Y60.395 E8.0584
G1 X28.236 Y59.948 E8.1093
G1 X28.193 Y59.928 E8.1114
G1 X27.445 Y59.543 E8.1483
G1 X27.403 Y59.519 E8.1504
G1 X26.418 Y58.909 E8.2013
G1 X26.379 Y58.882 E8.2034
G1 X25.701 Y58.383 E8.2404
G1 X25.664 Y58.353 E8.2425
G1 X24.796 Y57.602 E8.2928
G1 X24.762 Y57.570 E8.2949
G1 X24.186 Y56.988 E8.3308
G1 X24.155 Y56.954 E8.3329
G1 X23.687 Y56.401 E8.3647
G1 X18.945 Y58.194 E8.5872
G1 X18.916 Y58.204 E8.5886
G1 X18.394 Y58.371 E8.6126
G1 X18.365 Y58.380 E8.6140
G1 X12.845 Y59.837 E8.8646
G1 X12.815 Y59.844 E8.8660
G1 X12.279 Y59.956 E8.8900
G1 X12.248 Y59.962 E8.8914
G1 X6.608 Y60.842 E9.1420
G1 X6.577 Y60.846 E9.1434
G1 X6.033 Y60.903 E9.1674
G1 X6.002 Y60.905 E9.1688
G1 X0.304 Y61.199 E9.4193
G1 X0.273 Y61.200 E9.4206
G1 X-0.274 Y61.200 E9.4446
G1 X-0.305 Y61.199 E9.4460
G1 X-6.010 Y60.904 E9.6968
G1 X-6.041 Y60.902 E9.6981
G1 X-6.586 Y60.845 E9.7222
G1 X-6.616 Y60.841 E9.7236
G1 X-12.257 Y59.960 E9.9742
G1 X-12.287 Y59.954 E9.9756
G1 X-12.823 Y59.842 E9.9996
G1 X-12.853 Y59.835 E10.0010
G1 X-18.373 Y58.377 E10.2516
G1 X-18.403 Y58.368 E10.2530
G1 X-18.924 Y58.201 E10.2770
G1 X-18.953 Y58.191 E10.2784
G1 X-23.694 Y56.398 E10.5009
G1 X-24.157 Y56.945 E10.5323
G1 X-24.188 Y56.979 E10.5344
G1 X-24.758 Y57.557 E10.5700
G1 X-24.792 Y57.588 E10.5720
G1 X-25.655 Y58.338 E10.6222
G1 X-25.692 Y58.368 E10.6243
G1 X-26.369 Y58.868 E10.6613
G1 X-26.409 Y58.895 E10.6634
G1 X-27.393 Y59.508 E10.7143
G1 X-27.435 Y59.531 E10.7164
G1 X-28.183 Y59.918 E10.7534
G1 X-28.226 Y59.938 E10.7554
G1 X-29.295 Y60.388 E10.8064
G1 X-29.340 Y60.404 E10.8084
G1 X-30.140 Y60.668 E10.8454
G1 X-30.185 Y60.681 E10.8475
G1 X-31.312 Y60.956 E10.8984
G1 X-31.359 Y60.965 E10.9005
G1 X-32.190 Y61.099 E10.9375
G1 X-32.237 Y61.105 E10.9396
G1 X-33.185 Y61.181 E10.9813
G1 X-33.209 Y61.182 E10.9824
G1 X-33.634 Y61.199 E11.0010
G1 X-33.658 Y61.200 E11.0021
G1 X-45.128 Y61.200 E11.5056
G1 X-45.151 Y61.200 E11.5067
G1 X-45.567 Y61.183 E11.5250
G1 X-45.591 Y61.182 E11.5260
G1 X-47.002 Y61.071 E11.5882
G1 X-47.049 Y61.065 E11.5902
G1 X-47.867 Y60.936 E11.6266
G1 X-47.913 Y60.927 E11.6287
G1 X-49.497 Y60.548 E11.7001
G1 X-49.542 Y60.535 E11.7022
G1 X-50.334 Y60.278 E11.7388
G1 X-50.379 Y60.262 E11.7408
G1 X-51.891 Y59.637 E11.8127
G1 X-51.934 Y59.617 E11.8148
G1 X-52.680 Y59.238 E11.8515
G1 X-52.721 Y59.215 E11.8536
G1 X-54.108 Y58.365 E11.9250
G1 X-54.147 Y58.339 E11.9270
G1 X-54.817 Y57.852 E11.9634
G1 X-54.854 Y57.823 E11.9655
G1 X-56.093 Y56.767 E12.0370
G1 X-56.128 Y56.735 E12.0390
G1 X-56.717 Y56.146 E12.0756
G1 X-56.749 Y56.111 E12.0777
G1 X-57.809 Y54.873 E12.1492
G1 X-57.838 Y54.836 E12.1513
G1 X-58.328 Y54.162 E12.1879
G1 X-58.354 Y54.123 E12.1899
G1 X-59.207 Y52.734 E12.2615
G1 X-59.230 Y52.693 E12.2636
G1 X-59.609 Y51.951 E12.3001
G1 X-59.629 Y51.908 E12.3022
G1 X-60.254 Y50.403 E12.3738
G1 X-60.270 Y50.358 E12.3759
G1 X-60.528 Y49.566 E12.4124
G1 X-60.541 Y49.521 E12.4145
G1 X-60.923 Y47.936 E12.4861
G1 X-60.932 Y47.890 E12.4881
G1 X-61.063 Y47.068 E12.5247
G1 X-61.068 Y47.021 E12.5268
G1 X-61.181 Y45.601 E12.5893
G1 X-61.183 Y45.578 E12.5903
G1 X-61.199 Y45.158 E12.6088
G1 X-61.200 Y45.134 E12.6098
G1 X-61.200 Y33.652 E13.1139
G1 X-61.200 Y33.628 E13.1150
G1 X-61.183 Y33.207 E13.1335
G1 X-61.181 Y33.183 E13.1345
G1 X-61.106 Y32.241 E13.1760
G1 X-61.101 Y32.194 E13.1781
G1 X-60.969 Y31.367 E13.2148
G1 X-60.959 Y31.321 E13.2169
G1 X-60.687 Y30.197 E13.2677
G1 X-60.674 Y30.151 E13.2698
G1 X-60.412 Y29.351 E13.3067
G1 X-60.396 Y29.306 E13.3088
G1 X-59.948 Y28.237 E13.3597
G1 X-59.928 Y28.194 E13.3618
G1 X-59.543 Y27.445 E13.3988
G1 X-59.519 Y27.403 E13.4009
G1 X-58.908 Y26.418 E13.4518
G1 X-58.882 Y26.379 E13.4539
G1 X-58.383 Y25.701 E13.4908
G1 X-58.353 Y25.663 E13.4929
G1 X-57.602 Y24.796 E13.5433
G1 X-57.570 Y24.762 E13.5453
G1 X-56.988 Y24.186 E13.5813
G1 X-56.954 Y24.155 E13.5833
G1 X-56.401 Y23.687 E13.6151
G1 X-58.194 Y18.945 E13.8377
G1 X-58.204 Y18.916 E13.8390
G1 X-58.371 Y18.394 E13.8631
G1 X-58.380 Y18.365 E13.8644
G1 X-59.837 Y12.845 E14.1151
G1 X-59.844 Y12.815 E14.1164
G1 X-59.956 Y12.279 E14.1405
G1 X-59.962 Y12.248 E14.1418
G1 X-60.842 Y6.608 E14.3925
G1 X-60.846 Y6.577 E14.3938
G1 X-60.903 Y6.033 E14.4179
G1 X-60.905 Y6.002 E14.4192
G1 X-61.199 Y0.304 E14.6697
G1 X-61.200 Y0.273 E14.6711
G1 X-61.200 Y-0.274 E14.6951
G1 X-61.199 Y-0.305 E14.6964
G1 X-60.904 Y-6.010 E14.9472
G1 X-60.902 Y-6.041 E14.9486
G1 X-60.845 Y-6.586 E14.9726
G1 X-60.841 Y-6.616 E14.9740
G1 X-59.960 Y-12.257 E15.2247
G1 X-59.954 Y-12.287 E15.2260
G1 X-59.842 Y-12.823 E15.2500
G1 X-59.835 Y-12.853 E15.2514
G1 X-58.377 Y-18.373 E15.5020
G1 X-58.368 Y-18.403 E15.5034
G1 X-58.201 Y-18.924 E15.5274
G1 X-58.191 Y-18.953 E15.5288
G1 X-56.398 Y-23.694 E15.7513
G1 X-56.945 Y-24.157 E15.7828
G1 X-56.979 Y-24.188 E15.7848
G1 X-57.557 Y-24.758 E15.8204
G1 X-57.588 Y-24.792 E15.8224
G1 X-58.338 Y-25.655 E15.8727
G1 X-58.368 Y-25.692 E15.8748
G1 X-58.868 Y-26.369 E15.9117
G1 X-58.895 Y-26.409 E15.9138
G1 X-59.508 Y-27.393 E15.9647
G1 X-59.531 Y-27.435 E15.9668
G1 X-59.918 Y-28.183 E16.0038
G1 X-59.938 Y-28.226 E16.0059
G1 X-60.388 Y-29.295 E16.0568
G1 X-60.404 Y-29.340 E16.0589
G1 X-60.668 Y-30.140 E16.0959
G1 X-60.681 Y-30.185 E16.0980
