; G-Code generated by Simplify3D(R) Version 3.1.0
; Jul 25, 2016 at 11:15:37 PM
; Settings Summary
;   processName,Process1
;   applyToModels,cable_savers
;   profileName,Rostock MAX v2 (modified)
;   profileVersion,2015-05-01 08:00:00
;   baseProfile,
;   printMaterial,PLA
;   printQuality,Medium
;   printExtruders,
;   extruderName,Primary Extruder
;   extruderToolheadNumber,0
;   extruderDiameter,0.4
;   extruderAutoWidth,1
;   extruderWidth,0.48
;   extrusionMultiplier,1.1
;   extruderUseRetract,1
;   extruderRetractionDistance,6
;   extruderExtraRestartDistance,0
;   extruderRetractionZLift,0.3
;   extruderRetractionSpeed,6600
;   extruderUseCoasting,0
;   extruderCoastingDistance,1
;   extruderUseWipe,1
;   extruderWipeDistance,5
;   primaryExtruder,0
;   layerHeight,0.2
;   topSolidLayers,3
;   bottomSolidLayers,3
;   perimeterOutlines,3
;   printPerimetersInsideOut,1
;   startPointOption,2
;   startPointOriginX,0
;   startPointOriginY,0
;   startPointOriginZ,300
;   sequentialIslands,0
;   spiralVaseMode,0
;   firstLayerHeightPercentage,100
;   firstLayerWidthPercentage,100
;   firstLayerUnderspeed,0.4
;   useRaft,0
;   raftExtruder,0
;   raftLayers,3
;   raftOffset,3
;   raftSeparationDistance,0.14
;   raftInfill,85
;   disableRaftBaseLayers,0
;   useSkirt,1
;   skirtExtruder,0
;   skirtLayers,1
;   skirtOutlines,2
;   skirtOffset,4
;   usePrimePillar,0
;   primePillarExtruder,999
;   primePillarWidth,12
;   primePillarLocation,7
;   primePillarSpeedMultiplier,1
;   useOozeShield,0
;   oozeShieldExtruder,999
;   oozeShieldOffset,2
;   oozeShieldOutlines,1
;   oozeShieldSidewallShape,1
;   oozeShieldSidewallAngle,30
;   oozeShieldSpeedMultiplier,1
;   infillExtruder,0
;   internalInfillPattern,Rectilinear
;   externalInfillPattern,Rectilinear
;   infillPercentage,75
;   outlineOverlapPercentage,25
;   infillExtrusionWidthPercentage,150
;   minInfillLength,5
;   infillLayerInterval,1
;   infillAngles,45,-45
;   overlapInfillAngles,0
;   generateSupport,0
;   supportExtruder,0
;   supportInfillPercentage,30
;   supportExtraInflation,0
;   denseSupportLayers,0
;   denseSupportInfillPercentage,70
;   supportLayerInterval,1
;   supportHorizontalPartOffset,0.3
;   supportUpperSeparationLayers,1
;   supportLowerSeparationLayers,1
;   supportType,0
;   supportGridSpacing,4
;   maxOverhangAngle,45
;   supportAngles,0
;   temperatureName,Primary Extruder,Heated Bed
;   temperatureNumber,0,1
;   temperatureSetpointCount,1,1
;   temperatureSetpointLayers,1,1
;   temperatureSetpointTemperatures,205,60
;   temperatureStabilizeAtStartup,1,1
;   temperatureHeatedBed,0,1
;   temperatureRelayBetweenLayers,0,0
;   temperatureRelayBetweenLoops,0,0
;   fanLayers,1,2
;   fanSpeeds,0,100
;   blipFanToFullPower,1
;   adjustSpeedForCooling,1
;   minSpeedLayerTime,15
;   minCoolingSpeedSlowdown,20
;   increaseFanForCooling,0
;   minFanLayerTime,60
;   maxCoolingFanSpeed,100
;   increaseFanForBridging,0
;   bridgingFanSpeed,100
;   use5D,1
;   relativeEdistances,0
;   allowEaxisZeroing,1
;   independentExtruderAxes,0
;   includeM10123,0
;   stickySupport,1
;   applyToolheadOffsets,0
;   gcodeXoffset,0
;   gcodeYoffset,0
;   gcodeZoffset,0
;   overrideMachineDefinition,1
;   machineTypeOverride,1
;   strokeXoverride,197
;   strokeYoverride,197
;   strokeZoverride,375
;   originOffsetXoverride,98.5
;   originOffsetYoverride,98.5
;   originOffsetZoverride,0
;   homeXdirOverride,0
;   homeYdirOverride,0
;   homeZdirOverride,1
;   flipXoverride,1
;   flipYoverride,-1
;   flipZoverride,1
;   toolheadOffsets,0,0|0,0|0,0|0,0|0,0|0,0
;   overrideFirmwareConfiguration,1
;   firmwareTypeOverride,RepRap (Marlin/Repetier/Sprinter)
;   GPXconfigOverride,r2
;   baudRateOverride,115200
;   overridePrinterModels,1
;   printerModelsOverride
;   startingGcode,G28 ; home all axes
;   layerChangeGcode,
;   retractionGcode,
;   toolChangeGcode,
;   endingGcode,M104 S0 ; turn off extruder,M140 S0 ; turn off bed,G28 ; home axes,M84 ; disable motors
;   exportFileFormat,gcode
;   celebration,0
;   celebrationSong,Random Song
;   postProcessing,
;   defaultSpeed,1500
;   outlineUnderspeed,0.5
;   solidInfillUnderspeed,0.8
;   supportUnderspeed,0.8
;   rapidXYspeed,9000
;   rapidZspeed,1200
;   minBridgingArea,50
;   bridgingExtraInflation,0
;   bridgingExtrusionMultiplier,0.95
;   bridgingSpeedMultiplier,0.7
;   filamentDiameter,1.7
;   filamentPricePerKg,33.98
;   filamentDensity,1.25
;   useMinPrintHeight,0
;   minPrintHeight,0
;   useMaxPrintHeight,0
;   maxPrintHeight,0
;   useDiaphragm,0
;   diaphragmLayerInterval,20
;   robustSlicing,1
;   mergeAllIntoSolid,0
;   onlyRetractWhenCrossingOutline,1
;   retractBetweenLayers,1
;   useRetractionMinTravel,0
;   retractionMinTravel,3
;   retractWhileWiping,0
;   onlyWipeOutlines,1
;   avoidCrossingOutline,0
;   maxMovementDetourFactor,1
;   toolChangeRetractionDistance,12
;   toolChangeExtraRestartDistance,-0.5
;   toolChangeRetractionSpeed,600
;   allowThinWallGapFill,0
;   thinWallAllowedOverlapPercentage,10
;   horizontalSizeCompensation,0
G90
M82
M106 S0
M140 S60
M190 S60
M104 S205 T0
M109 S205 T0
G28 ; home all axes
G92 E0
G1 E-6.0000 F6600
G1 Z0.500 F1200
; layer 1, Z = 0.2
T0
; tool H0.200 W0.480
; skirt
G1 X4.574 Y8.179 F9000
G1 Z0.200 F1200
G1 E0.0000 F1980
G92 E0
G1 X4.537 Y8.210 E0.0022 F600
G1 X4.470 Y8.256 E0.0060
G1 X3.351 Y8.844 E0.0648
G1 X3.269 Y8.874 E0.0689
G1 X2.243 Y9.128 E0.1181
G1 X2.156 Y9.138 E0.1221
G1 X-14.852 Y9.145 E0.9134
G1 X-14.886 Y9.143 E0.9150
G1 X-15.298 Y9.104 E0.9343
G1 X-15.332 Y9.100 E0.9358
G1 X-16.216 Y8.930 E0.9777
G1 X-16.301 Y8.903 E0.9819
G1 X-17.285 Y8.443 E1.0324
G1 X-17.360 Y8.396 E1.0366
G1 X-18.437 Y7.516 E1.1012
G1 X-18.504 Y7.443 E1.1058
G1 X-19.197 Y6.452 E1.1621
G1 X-19.242 Y6.364 E1.1667
G1 X-19.624 Y5.266 E1.2208
G1 X-19.639 Y5.208 E1.2236
G1 X-19.760 Y4.489 E1.2575
G1 X-19.765 Y4.429 E1.2603
G1 X-19.768 Y0.299 E1.4524
G1 X-19.768 Y-0.001 E1.4663
G1 X-19.768 Y-0.298 E1.4802
G1 X-19.765 Y-4.374 E1.6698
G1 X-19.762 Y-4.425 E1.6721
G1 X-19.674 Y-5.038 E1.7009
G1 X-19.663 Y-5.088 E1.7033
G1 X-19.426 Y-5.897 E1.7426
G1 X-19.404 Y-5.956 E1.7455
G1 X-19.067 Y-6.637 E1.7808
G1 X-19.035 Y-6.691 E1.7837
G1 X-18.539 Y-7.368 E1.8228
G1 X-18.503 Y-7.410 E1.8254
G1 X-18.027 Y-7.886 E1.8567
G1 X-17.985 Y-7.922 E1.8593
G1 X-17.308 Y-8.416 E1.8983
G1 X-17.254 Y-8.448 E1.9012
G1 X-16.574 Y-8.783 E1.9364
G1 X-16.515 Y-8.806 E1.9394
G1 X-15.707 Y-9.042 E1.9786
G1 X-15.657 Y-9.052 E1.9809
G1 X-15.043 Y-9.140 E2.0098
G1 X-14.992 Y-9.143 E2.0122
G1 X2.158 Y-9.138 E2.8100
G1 X2.245 Y-9.128 E2.8141
G1 X3.275 Y-8.873 E2.8635
G1 X3.357 Y-8.841 E2.8675
G1 X4.477 Y-8.251 E2.9265
G1 X4.545 Y-8.205 E2.9303
G1 X4.573 Y-8.181 E2.9320
G1 X4.598 Y-8.191 E2.9333
G1 X4.625 Y-8.201 E2.9346
G1 X5.447 Y-8.461 E2.9747
G1 X5.480 Y-8.470 E2.9763
G1 X5.892 Y-8.558 E2.9959
G1 X5.926 Y-8.564 E2.9975
G1 X6.925 Y-8.678 E3.0443
G1 X6.945 Y-8.680 E3.0452
G1 X7.194 Y-8.694 E3.0568
G1 X7.214 Y-8.695 E3.0578
G1 X11.888 Y-8.695 E3.2752
G1 X11.901 Y-8.695 E3.2758
G1 X12.066 Y-8.688 E3.2835
G1 X12.080 Y-8.688 E3.2841
G1 X12.772 Y-8.635 E3.3165
G1 X12.800 Y-8.632 E3.3177
G1 X13.132 Y-8.581 E3.3334
G1 X13.159 Y-8.576 E3.3347
G1 X13.944 Y-8.392 E3.3722
G1 X13.972 Y-8.385 E3.3735
G1 X14.301 Y-8.280 E3.3896
G1 X14.327 Y-8.270 E3.3909
G1 X15.101 Y-7.954 E3.4297
G1 X15.127 Y-7.942 E3.4311
G1 X15.439 Y-7.785 E3.4473
G1 X15.464 Y-7.770 E3.4487
G1 X16.158 Y-7.347 E3.4865
G1 X16.176 Y-7.335 E3.4875
G1 X16.390 Y-7.186 E3.4997
G1 X16.408 Y-7.173 E3.5007
G1 X16.816 Y-6.850 E3.5249
G1 X16.833 Y-6.837 E3.5259
G1 X17.025 Y-6.665 E3.5379
G1 X17.041 Y-6.651 E3.5389
G1 X17.624 Y-6.066 E3.5773
G1 X17.643 Y-6.046 E3.5786
G1 X17.861 Y-5.791 E3.5942
G1 X17.878 Y-5.769 E3.5955
G1 X18.388 Y-5.071 E3.6357
G1 X18.403 Y-5.048 E3.6370
G1 X18.574 Y-4.774 E3.6520
G1 X18.587 Y-4.751 E3.6532
G1 X18.976 Y-4.007 E3.6923
G1 X18.986 Y-3.986 E3.6934
G1 X19.102 Y-3.725 E3.7067
G1 X19.111 Y-3.703 E3.7078
G1 X20.091 Y-1.028 E3.8403
G1 X20.046 Y-0.678 E3.8567
G1 X19.572 Y0.000 E3.8952
G1 X20.046 Y0.678 E3.9337
G1 X20.091 Y1.028 E3.9501
G1 X19.110 Y3.705 E4.0828
G1 X19.101 Y3.727 E4.0839
G1 X18.985 Y3.989 E4.0972
G1 X18.975 Y4.010 E4.0983
G1 X18.585 Y4.754 E4.1373
G1 X18.572 Y4.777 E4.1386
G1 X18.401 Y5.052 E4.1536
G1 X18.386 Y5.074 E4.1549
G1 X17.901 Y5.738 E4.1931
G1 X17.888 Y5.754 E4.1941
G1 X17.729 Y5.948 E4.2058
G1 X17.715 Y5.964 E4.2068
G1 X17.391 Y6.314 E4.2290
G1 X17.381 Y6.324 E4.2296
G1 X17.261 Y6.445 E4.2376
G1 X17.250 Y6.455 E4.2382
G1 X16.900 Y6.779 E4.2604
G1 X16.884 Y6.793 E4.2614
G1 X16.684 Y6.957 E4.2734
G1 X16.667 Y6.970 E4.2744
G1 X15.969 Y7.477 E4.3146
G1 X15.939 Y7.496 E4.3162
G1 X15.563 Y7.716 E4.3365
G1 X15.531 Y7.732 E4.3382
G1 X14.463 Y8.220 E4.3928
G1 X14.430 Y8.233 E4.3944
G1 X14.018 Y8.373 E4.4147
G1 X13.984 Y8.383 E4.4163
G1 X13.155 Y8.576 E4.4559
G1 X13.128 Y8.582 E4.4572
G1 X12.797 Y8.633 E4.4728
G1 X12.769 Y8.636 E4.4741
G1 X12.079 Y8.688 E4.5063
G1 X12.065 Y8.689 E4.5069
G1 X11.901 Y8.695 E4.5146
G1 X11.887 Y8.695 E4.5152
G1 X7.279 Y8.695 E4.7296
G1 X7.266 Y8.695 E4.7302
G1 X7.108 Y8.689 E4.7376
G1 X7.095 Y8.688 E4.7382
G1 X6.342 Y8.634 E4.7733
G1 X6.306 Y8.629 E4.7750
G1 X5.883 Y8.556 E4.7950
G1 X5.848 Y8.549 E4.7966
G1 X4.751 Y8.246 E4.8496
G1 X4.717 Y8.234 E4.8512
G1 X4.574 Y8.179 E4.8584
G1 X4.245 Y7.829 F9000
G92 E0
G1 X4.222 Y7.844 E0.0013 F600
G1 X3.153 Y8.405 E0.0574
G1 X3.126 Y8.415 E0.0588
G1 X2.156 Y8.655 E0.1053
G1 X2.127 Y8.658 E0.1066
G1 X-14.841 Y8.665 E0.8961
G1 X-14.852 Y8.665 E0.8966
G1 X-15.242 Y8.628 E0.9148
G1 X-15.253 Y8.626 E0.9153
G1 X-16.096 Y8.465 E0.9552
G1 X-16.124 Y8.455 E0.9566
G1 X-17.055 Y8.021 E1.0044
G1 X-17.080 Y8.005 E1.0058
G1 X-18.107 Y7.165 E1.0675
G1 X-18.130 Y7.141 E1.0691
G1 X-18.784 Y6.205 E1.1222
G1 X-18.800 Y6.175 E1.1238
G1 X-19.164 Y5.127 E1.1754
G1 X-19.169 Y5.108 E1.1763
G1 X-19.284 Y4.428 E1.2084
G1 X-19.285 Y4.409 E1.2093
G1 X-19.288 Y0.203 E1.4049
G1 X-19.288 Y-0.000 E1.4144
G1 X-19.288 Y-0.203 E1.4238
G1 X-19.285 Y-4.356 E1.6170
G1 X-19.284 Y-4.373 E1.6178
G1 X-19.201 Y-4.953 E1.6450
G1 X-19.197 Y-4.969 E1.6458
G1 X-18.971 Y-5.743 E1.6833
G1 X-18.964 Y-5.762 E1.6843
G1 X-18.646 Y-6.406 E1.7177
G1 X-18.635 Y-6.424 E1.7187
G1 X-18.163 Y-7.070 E1.7559
G1 X-18.151 Y-7.084 E1.7567
G1 X-17.701 Y-7.533 E1.7863
G1 X-17.687 Y-7.545 E1.7872
G1 X-17.041 Y-8.016 E1.8244
G1 X-17.024 Y-8.027 E1.8253
G1 X-16.381 Y-8.343 E1.8587
G1 X-16.361 Y-8.351 E1.8596
G1 X-15.589 Y-8.576 E1.8971
G1 X-15.572 Y-8.580 E1.8979
G1 X-14.992 Y-8.662 E1.9251
G1 X-14.975 Y-8.663 E1.9259
G1 X2.129 Y-8.658 E2.7216
G1 X2.158 Y-8.655 E2.7230
G1 X3.131 Y-8.414 E2.7697
G1 X3.159 Y-8.403 E2.7710
G1 X4.229 Y-7.839 E2.8273
G1 X4.252 Y-7.824 E2.8286
G1 X4.482 Y-7.625 E2.8427
G1 X4.770 Y-7.743 E2.8572
G1 X4.779 Y-7.746 E2.8577
G1 X5.581 Y-8.000 E2.8968
G1 X5.592 Y-8.003 E2.8973
G1 X5.981 Y-8.087 E2.9158
G1 X5.992 Y-8.088 E2.9164
G1 X6.973 Y-8.201 E2.9623
G1 X6.980 Y-8.201 E2.9626
G1 X7.214 Y-8.215 E2.9735
G1 X7.221 Y-8.215 E2.9739
G1 X11.883 Y-8.215 E3.1908
G1 X11.888 Y-8.215 E3.1910
G1 X12.044 Y-8.209 E3.1982
G1 X12.048 Y-8.209 E3.1984
G1 X12.727 Y-8.157 E3.2301
G1 X12.736 Y-8.156 E3.2305
G1 X13.050 Y-8.108 E3.2453
G1 X13.059 Y-8.106 E3.2457
G1 X13.826 Y-7.927 E3.2824
G1 X13.835 Y-7.924 E3.2828
G1 X14.146 Y-7.825 E3.2980
G1 X14.155 Y-7.822 E3.2984
G1 X14.910 Y-7.513 E3.3364
G1 X14.919 Y-7.509 E3.3368
G1 X15.214 Y-7.360 E3.3522
G1 X15.222 Y-7.356 E3.3527
G1 X15.901 Y-6.941 E3.3897
G1 X15.907 Y-6.937 E3.3900
G1 X16.110 Y-6.796 E3.4015
G1 X16.116 Y-6.792 E3.4019
G1 X16.513 Y-6.478 E3.4254
G1 X16.519 Y-6.473 E3.4257
G1 X16.701 Y-6.311 E3.4371
G1 X16.706 Y-6.306 E3.4374
G1 X17.278 Y-5.734 E3.4751
G1 X17.284 Y-5.727 E3.4755
G1 X17.490 Y-5.486 E3.4902
G1 X17.496 Y-5.479 E3.4907
G1 X17.995 Y-4.795 E3.5301
G1 X18.000 Y-4.787 E3.5305
G1 X18.161 Y-4.528 E3.5447
G1 X18.166 Y-4.520 E3.5451
G1 X18.547 Y-3.791 E3.5834
G1 X18.551 Y-3.784 E3.5838
G1 X18.660 Y-3.538 E3.5963
G1 X18.663 Y-3.530 E3.5967
G1 X19.600 Y-0.973 E3.7234
G1 X19.585 Y-0.856 E3.7288
G1 X18.987 Y0.000 E3.7775
G1 X19.585 Y0.857 E3.8261
G1 X19.600 Y0.973 E3.8315
G1 X18.662 Y3.533 E3.9584
G1 X18.659 Y3.540 E3.9587
G1 X18.549 Y3.787 E3.9713
G1 X18.546 Y3.794 E3.9717
G1 X18.164 Y4.523 E4.0100
G1 X18.160 Y4.531 E4.0104
G1 X17.998 Y4.790 E4.0246
G1 X17.993 Y4.798 E4.0250
G1 X17.517 Y5.449 E4.0625
G1 X17.513 Y5.455 E4.0629
G1 X17.362 Y5.638 E4.0739
G1 X17.358 Y5.643 E4.0742
G1 X17.042 Y5.985 E4.0959
G1 X17.038 Y5.988 E4.0961
G1 X16.924 Y6.103 E4.1036
G1 X16.921 Y6.106 E4.1038
G1 X16.579 Y6.422 E4.1255
G1 X16.574 Y6.426 E4.1258
G1 X16.385 Y6.581 E4.1372
G1 X16.379 Y6.586 E4.1375
G1 X15.697 Y7.081 E4.1767
G1 X15.687 Y7.088 E4.1773
G1 X15.331 Y7.295 E4.1964
G1 X15.321 Y7.301 E4.1970
G1 X14.275 Y7.778 E4.2505
G1 X14.264 Y7.783 E4.2511
G1 X13.875 Y7.915 E4.2702
G1 X13.863 Y7.918 E4.2707
G1 X13.055 Y8.107 E4.3093
G1 X13.046 Y8.109 E4.3098
G1 X12.733 Y8.157 E4.3245
G1 X12.724 Y8.158 E4.3249
G1 X12.047 Y8.209 E4.3565
G1 X12.043 Y8.209 E4.3567
G1 X11.887 Y8.215 E4.3639
G1 X11.883 Y8.215 E4.3641
G1 X7.283 Y8.215 E4.5781
G1 X7.279 Y8.215 E4.5783
G1 X7.130 Y8.210 E4.5853
G1 X7.126 Y8.209 E4.5855
G1 X6.388 Y8.156 E4.6199
G1 X6.376 Y8.154 E4.6204
G1 X5.976 Y8.085 E4.6393
G1 X5.964 Y8.083 E4.6399
G1 X4.890 Y7.786 E4.6917
G1 X4.879 Y7.782 E4.6923
G1 X4.498 Y7.635 E4.7113
G1 X4.487 Y7.630 E4.7119
G1 X4.480 Y7.627 E4.7122
G1 X4.245 Y7.829 E4.7266
G92 E0
G1 E-6.0000 F6600
G1 Z0.500 F1200
; inner perimeter
; inner perimeter
; outer perimeter
G1 X1.624 Y4.165 F9000
G1 Z0.200 F1200
G1 E0.0000 F6600
G92 E0
G1 X1.585 Y4.178 E0.0019 F300
G1 X-14.625 Y4.185 E0.7561
G1 X-14.709 Y4.169 E0.7601
G1 X-14.746 Y4.147 E0.7621
G1 X-14.775 Y4.115 E0.7641
G1 X-14.805 Y4.039 E0.7679
G1 X-14.807 Y1.740 E0.8748
G1 X-13.912 Y1.740 E0.9165
G1 X-13.911 Y2.902 E0.9706
G1 X-13.868 Y3.050 E0.9777
G1 X-13.785 Y3.163 E0.9842
G1 X-13.671 Y3.246 E0.9908
G1 X-13.524 Y3.289 E0.9979
G1 X0.431 Y3.289 E1.6472
G1 X0.578 Y3.246 E1.6543
G1 X0.691 Y3.163 E1.6608
G1 X0.774 Y3.049 E1.6674
G1 X0.817 Y2.902 E1.6745
G1 X0.818 Y1.740 E1.7286
G1 X1.713 Y1.740 E1.7702
G1 X1.711 Y4.027 E1.8766
G1 X1.690 Y4.101 E1.8802
G1 X1.664 Y4.136 E1.8822
G1 X1.624 Y4.165 E1.8845
G92 E0
G1 E-6.0000 F6600
G1 X1.585 Y4.178 F1500
G1 X-3.373 Y4.180 F1500
G1 Z0.500 F1200
; inner perimeter
G1 X-5.981 Y0.698 F9000
G1 Z0.200 F1200
G1 E0.0000 F6600
G92 E0
G1 X-6.056 Y0.752 E0.0043 F500
G1 X-6.135 Y0.798 E0.0086
G1 X-6.217 Y0.836 E0.0128
G1 X-6.274 Y0.855 E0.0156
G1 X-6.470 Y0.892 E0.0248
G1 X-6.625 Y0.891 E0.0320
G1 X-6.820 Y0.855 E0.0413
G1 X-6.878 Y0.835 E0.0441
G1 X-6.960 Y0.798 E0.0483
G1 X-7.039 Y0.752 E0.0526
G1 X-7.113 Y0.697 E0.0569
G1 X-7.183 Y0.635 E0.0612
G1 X-7.245 Y0.566 E0.0655
G1 X-7.299 Y0.491 E0.0698
G1 X-7.346 Y0.412 E0.0741
G1 X-7.383 Y0.330 E0.0783
G1 X-7.402 Y0.273 E0.0811
G1 X-7.439 Y0.077 E0.0904
G1 X-7.438 Y-0.078 E0.0976
G1 X-7.402 Y-0.274 E0.1068
G1 X-7.383 Y-0.329 E0.1095
G1 X-7.345 Y-0.413 E0.1138
G1 X-7.299 Y-0.492 E0.1181
G1 X-7.244 Y-0.566 E0.1224
G1 X-7.182 Y-0.636 E0.1267
G1 X-7.113 Y-0.698 E0.1310
G1 X-7.038 Y-0.752 E0.1353
G1 X-6.959 Y-0.798 E0.1396
G1 X-6.877 Y-0.836 E0.1438
G1 X-6.820 Y-0.855 E0.1466
G1 X-6.624 Y-0.892 E0.1558
G1 X-6.469 Y-0.891 E0.1631
G1 X-6.274 Y-0.855 E0.1723
G1 X-6.216 Y-0.835 E0.1751
G1 X-6.134 Y-0.798 E0.1793
G1 X-6.055 Y-0.752 E0.1836
G1 X-5.981 Y-0.697 E0.1879
G1 X-5.912 Y-0.635 E0.1922
G1 X-5.849 Y-0.566 E0.1966
G1 X-5.795 Y-0.491 E0.2009
G1 X-5.749 Y-0.412 E0.2051
G1 X-5.711 Y-0.330 E0.2093
G1 X-5.692 Y-0.273 E0.2121
G1 X-5.656 Y-0.078 E0.2214
G1 X-5.656 Y0.079 E0.2286
G1 X-5.692 Y0.273 E0.2378
G1 X-5.712 Y0.331 E0.2407
G1 X-5.749 Y0.413 E0.2448
G1 X-5.795 Y0.492 E0.2491
G1 X-5.850 Y0.566 E0.2534
G1 X-5.912 Y0.636 E0.2577
G1 X-5.981 Y0.698 E0.2621
; inner perimeter
G1 X-5.678 Y1.071 F9000
G92 E0
G1 X-5.793 Y1.155 E0.0066 F400
G1 X-5.915 Y1.225 E0.0131
G1 X-6.040 Y1.283 E0.0196
G1 X-6.153 Y1.321 E0.0251
G1 X-6.426 Y1.372 E0.0380
G1 X-6.670 Y1.371 E0.0494
G1 X-6.943 Y1.320 E0.0623
G1 X-7.055 Y1.282 E0.0678
G1 X-7.181 Y1.225 E0.0742
G1 X-7.302 Y1.154 E0.0808
