; G-Code generated by Simplify3D(R) Version 3.1.0
; Jun 26, 2016 at 11:42:31 PM
; Settings Summary
;   processName,Process1
;   applyToModels,bottomBrace,rest,topBrace
;   profileName,Rostock MAX v2 (modified)
;   profileVersion,2015-05-01 08:00:00
;   baseProfile,
;   printMaterial,ABS
;   printQuality,Fast
;   printExtruders,
;   extruderName,Primary Extruder
;   extruderToolheadNumber,0
;   extruderDiameter,0.5
;   extruderAutoWidth,0
;   extruderWidth,0.5
;   extrusionMultiplier,1
;   extruderUseRetract,1
;   extruderRetractionDistance,6
;   extruderExtraRestartDistance,0
;   extruderRetractionZLift,0.3
;   extruderRetractionSpeed,6600
;   extruderUseCoasting,0
;   extruderCoastingDistance,1
;   extruderUseWipe,1
;   extruderWipeDistance,5
;   primaryExtruder,0
;   layerHeight,0.35
;   topSolidLayers,3
;   bottomSolidLayers,3
;   perimeterOutlines,3
;   printPerimetersInsideOut,1
;   startPointOption,2
;   startPointOriginX,0
;   startPointOriginY,0
;   startPointOriginZ,300
;   sequentialIslands,0
;   spiralVaseMode,0
;   firstLayerHeightPercentage,90
;   firstLayerWidthPercentage,100
;   firstLayerUnderspeed,0.4
;   useRaft,0
;   raftExtruder,0
;   raftLayers,3
;   raftOffset,3
;   raftSeparationDistance,0.14
;   raftInfill,85
;   disableRaftBaseLayers,0
;   useSkirt,1
;   skirtExtruder,0
;   skirtLayers,1
;   skirtOutlines,2
;   skirtOffset,4
;   usePrimePillar,0
;   primePillarExtruder,999
;   primePillarWidth,12
;   primePillarLocation,7
;   primePillarSpeedMultiplier,1
;   useOozeShield,0
;   oozeShieldExtruder,999
;   oozeShieldOffset,2
;   oozeShieldOutlines,1
;   oozeShieldSidewallShape,1
;   oozeShieldSidewallAngle,30
;   oozeShieldSpeedMultiplier,1
;   infillExtruder,0
;   internalInfillPattern,Rectilinear
;   externalInfillPattern,Rectilinear
;   infillPercentage,20
;   outlineOverlapPercentage,15
;   infillExtrusionWidthPercentage,150
;   minInfillLength,5
;   infillLayerInterval,1
;   infillAngles,45,-45
;   overlapInfillAngles,0
;   generateSupport,1
;   supportExtruder,0
;   supportInfillPercentage,25
;   supportExtraInflation,0
;   denseSupportLayers,0
;   denseSupportInfillPercentage,70
;   supportLayerInterval,1
;   supportHorizontalPartOffset,0.3
;   supportUpperSeparationLayers,1
;   supportLowerSeparationLayers,1
;   supportType,0
;   supportGridSpacing,4
;   maxOverhangAngle,45
;   supportAngles,0
;   temperatureName,Primary Extruder,Heated Bed
;   temperatureNumber,0,1
;   temperatureSetpointCount,1,1
;   temperatureSetpointLayers,1,1
;   temperatureSetpointTemperatures,225,80
;   temperatureStabilizeAtStartup,1,1
;   temperatureHeatedBed,0,1
;   temperatureRelayBetweenLayers,0,0
;   temperatureRelayBetweenLoops,0,0
;   fanLayers,1
;   fanSpeeds,0
;   blipFanToFullPower,1
;   adjustSpeedForCooling,1
;   minSpeedLayerTime,15
;   minCoolingSpeedSlowdown,20
;   increaseFanForCooling,0
;   minFanLayerTime,60
;   maxCoolingFanSpeed,100
;   increaseFanForBridging,0
;   bridgingFanSpeed,100
;   use5D,1
;   relativeEdistances,0
;   allowEaxisZeroing,1
;   independentExtruderAxes,0
;   includeM10123,0
;   stickySupport,1
;   applyToolheadOffsets,0
;   gcodeXoffset,0
;   gcodeYoffset,0
;   gcodeZoffset,0
;   overrideMachineDefinition,1
;   machineTypeOverride,1
;   strokeXoverride,197
;   strokeYoverride,197
;   strokeZoverride,375
;   originOffsetXoverride,98.5
;   originOffsetYoverride,98.5
;   originOffsetZoverride,0
;   homeXdirOverride,0
;   homeYdirOverride,0
;   homeZdirOverride,1
;   flipXoverride,1
;   flipYoverride,-1
;   flipZoverride,1
;   toolheadOffsets,0,0|0,0|0,0|0,0|0,0|0,0
;   overrideFirmwareConfiguration,1
;   firmwareTypeOverride,RepRap (Marlin/Repetier/Sprinter)
;   GPXconfigOverride,r2
;   baudRateOverride,115200
;   overridePrinterModels,1
;   printerModelsOverride
;   startingGcode,G28 ; home all axes
;   layerChangeGcode,
;   retractionGcode,
;   toolChangeGcode,
;   endingGcode,M104 S0 ; turn off extruder,M140 S0 ; turn off bed,G28 ; home axes,M84 ; disable motors
;   exportFileFormat,gcode
;   celebration,0
;   celebrationSong,Random Song
;   postProcessing,
;   defaultSpeed,3000
;   outlineUnderspeed,0.5
;   solidInfillUnderspeed,0.8
;   supportUnderspeed,0.8
;   rapidXYspeed,9000
;   rapidZspeed,1200
;   minBridgingArea,50
;   bridgingExtraInflation,0
;   bridgingExtrusionMultiplier,0.95
;   bridgingSpeedMultiplier,0.7
;   filamentDiameter,1.7
;   filamentPricePerKg,33.98
;   filamentDensity,1.25
;   useMinPrintHeight,0
;   minPrintHeight,0
;   useMaxPrintHeight,0
;   maxPrintHeight,0
;   useDiaphragm,0
;   diaphragmLayerInterval,20
;   robustSlicing,1
;   mergeAllIntoSolid,0
;   onlyRetractWhenCrossingOutline,1
;   retractBetweenLayers,1
;   useRetractionMinTravel,0
;   retractionMinTravel,3
;   retractWhileWiping,0
;   onlyWipeOutlines,1
;   avoidCrossingOutline,0
;   maxMovementDetourFactor,3
;   toolChangeRetractionDistance,12
;   toolChangeExtraRestartDistance,-0.5
;   toolChangeRetractionSpeed,600
;   allowThinWallGapFill,0
;   thinWallAllowedOverlapPercentage,10
;   horizontalSizeCompensation,0
G90
M82
M106 S0
M140 S80
M190 S80
M104 S225 T0
M109 S225 T0
G28 ; home all axes
G92 E0
G1 E-6.0000 F6600
G1 Z0.615 F1200
; layer 1, Z = 0.315
T0
; tool H0.350 W0.500
; skirt
G1 X-6.707 Y-3.288 F9000
G1 Z0.315 F1200
G1 E0.0000 F1980
G92 E0
G1 X4.268 Y7.687 E1.1966 F1200
G1 X4.382 Y7.963 E1.2196
G1 X4.383 Y11.574 E1.4981
G1 X4.269 Y11.850 E1.5211
G1 X-23.172 Y39.309 E4.5141
G1 X-23.274 Y39.382 E4.5237
G1 X-24.590 Y40.024 E4.6366
G1 X-24.709 Y40.059 E4.6462
G1 X-41.529 Y42.124 E5.9528
G1 X-41.857 Y42.012 E5.9795
G1 X-44.861 Y39.008 E6.3070
G1 X-44.973 Y38.680 E6.3337
G1 X-42.908 Y21.860 E7.6403
G1 X-42.873 Y21.740 E7.6499
G1 X-42.231 Y20.425 E7.7628
G1 X-42.158 Y20.323 E7.7724
G1 X-19.088 Y-2.731 E10.2870
G1 X-41.806 Y-2.731 E12.0385
G1 X-42.082 Y-2.846 E12.0615
G1 X-44.636 Y-5.400 E12.3400
G1 X-44.750 Y-5.675 E12.3630
G1 X-44.750 Y-36.088 E14.7078
G1 X-44.749 Y-36.111 E14.7096
G1 X-44.733 Y-36.377 E14.7302
G1 X-44.731 Y-36.400 E14.7319
G1 X-40.642 Y-69.701 E17.3187
G1 X-40.514 Y-69.944 E17.3398
G1 X-38.038 Y-72.134 E17.5947
G1 X-37.782 Y-72.231 E17.6159
G1 X-23.194 Y-72.231 E18.7406
G1 X-22.918 Y-72.117 E18.7636
G1 X-20.364 Y-69.563 E19.0421
G1 X-20.250 Y-69.288 E19.0651
G1 X-20.250 Y-27.231 E22.3076
G1 X21.806 Y-27.231 E25.5500
G1 X22.082 Y-27.117 E25.5731
G1 X24.636 Y-24.563 E25.8515
G1 X24.750 Y-24.288 E25.8745
G1 X24.750 Y-9.700 E26.9992
G1 X24.653 Y-9.443 E27.0204
G1 X22.462 Y-6.967 E27.2753
G1 X22.219 Y-6.839 E27.2964
G1 X-6.707 Y-3.288 E29.5434
G92 E0
G1 E-6.0000 F6600
G1 Z0.615 F1200
G1 X-5.764 Y37.624 F9000
G1 Z0.315 F1200
G1 E0.0000 F6600
G92 E0
G1 X-0.101 Y37.401 E0.4370 F1200
G1 X-0.086 Y37.401 E0.4382
G1 X0.086 Y37.401 E0.4514
G1 X0.101 Y37.401 E0.4525
G1 X5.764 Y37.624 E0.8895
G1 X5.779 Y37.625 E0.8907
G1 X5.950 Y37.638 E0.9039
G1 X5.965 Y37.639 E0.9051
G1 X11.594 Y38.306 E1.3421
G1 X11.609 Y38.308 E1.3432
G1 X11.778 Y38.335 E1.3565
G1 X11.793 Y38.337 E1.3576
G1 X17.352 Y39.443 E1.7946
G1 X17.367 Y39.446 E1.7957
G1 X17.534 Y39.486 E1.8090
G1 X17.548 Y39.490 E1.8101
G1 X23.003 Y41.029 E2.2471
G1 X23.017 Y41.033 E2.2483
G1 X23.181 Y41.086 E2.2615
G1 X23.195 Y41.091 E2.2627
G1 X28.512 Y43.053 E2.6997
G1 X28.526 Y43.058 E2.7008
G1 X28.685 Y43.124 E2.7141
G1 X28.698 Y43.130 E2.7152
G1 X33.846 Y45.503 E3.1522
G1 X33.859 Y45.509 E3.1533
G1 X34.012 Y45.587 E3.1666
G1 X34.025 Y45.594 E3.1677
G1 X38.971 Y48.364 E3.6047
G1 X38.984 Y48.371 E3.6059
G1 X39.130 Y48.461 E3.6191
G1 X39.142 Y48.469 E3.6203
G1 X43.549 Y51.413 E4.0289
G1 X43.673 Y51.550 E4.0431
G1 X44.705 Y53.481 E4.2119
G1 X44.750 Y53.660 E4.2262
G1 X44.750 Y70.321 E5.5107
G1 X44.505 Y70.695 E5.5452
G1 X39.302 Y72.971 E5.9831
G1 X38.861 Y72.897 E6.0175
G1 X35.880 Y70.141 E6.3306
G1 X32.473 Y67.456 E6.6650
G1 X28.866 Y65.046 E6.9995
G1 X25.081 Y62.926 E7.3339
G1 X21.142 Y61.110 E7.6684
G1 X17.072 Y59.608 E8.0028
G1 X12.897 Y58.431 E8.3373
G1 X8.642 Y57.585 E8.6717
G1 X4.335 Y57.075 E9.0062
G1 X0.000 Y56.905 E9.3406
G1 X-4.335 Y57.075 E9.6751
G1 X-8.642 Y57.585 E10.0095
G1 X-12.897 Y58.431 E10.3440
G1 X-17.072 Y59.608 E10.6784
G1 X-21.142 Y61.110 E11.0129
G1 X-25.081 Y62.926 E11.3473
G1 X-28.866 Y65.046 E11.6818
G1 X-32.473 Y67.455 E12.0162
G1 X-35.886 Y70.147 E12.3513
G1 X-38.861 Y72.897 E12.6637
G1 X-39.302 Y72.971 E12.6982
G1 X-44.505 Y70.695 E13.1360
G1 X-44.750 Y70.321 E13.1705
G1 X-44.750 Y53.660 E14.4551
G1 X-44.705 Y53.481 E14.4693
G1 X-43.673 Y51.550 E14.6381
G1 X-43.549 Y51.413 E14.6524
G1 X-39.142 Y48.469 E15.0610
G1 X-39.130 Y48.461 E15.0621
G1 X-38.984 Y48.371 E15.0753
G1 X-38.971 Y48.364 E15.0765
G1 X-34.025 Y45.594 E15.5135
G1 X-34.012 Y45.587 E15.5146
G1 X-33.859 Y45.509 E15.5279
G1 X-33.846 Y45.503 E15.5290
G1 X-28.698 Y43.130 E15.9660
G1 X-28.685 Y43.124 E15.9672
G1 X-28.526 Y43.058 E15.9804
G1 X-28.512 Y43.053 E15.9815
G1 X-23.195 Y41.091 E16.4186
G1 X-23.181 Y41.086 E16.4197
G1 X-23.017 Y41.033 E16.4329
G1 X-23.003 Y41.029 E16.4341
G1 X-17.548 Y39.490 E16.8711
G1 X-17.534 Y39.486 E16.8722
G1 X-17.367 Y39.446 E16.8855
G1 X-17.352 Y39.443 E16.8866
G1 X-11.793 Y38.337 E17.3236
G1 X-11.778 Y38.335 E17.3248
G1 X-11.609 Y38.308 E17.3380
G1 X-11.594 Y38.306 E17.3391
G1 X-5.965 Y37.639 E17.7762
G1 X-5.950 Y37.638 E17.7773
G1 X-5.779 Y37.625 E17.7905
G1 X-5.764 Y37.624 E17.7917
G1 X-5.740 Y38.123 F9000
G92 E0
G1 X-0.086 Y37.901 E0.4363 F1200
G1 X-0.081 Y37.901 E0.4366
G1 X0.081 Y37.901 E0.4491
G1 X0.086 Y37.901 E0.4495
G1 X5.740 Y38.123 E0.8858
G1 X5.745 Y38.123 E0.8861
G1 X5.906 Y38.136 E0.8986
G1 X5.911 Y38.137 E0.8990
G1 X11.530 Y38.802 E1.3353
G1 X11.535 Y38.802 E1.3356
G1 X11.695 Y38.828 E1.3481
G1 X11.700 Y38.829 E1.3485
G1 X17.250 Y39.932 E1.7848
G1 X17.255 Y39.933 E1.7852
G1 X17.412 Y39.971 E1.7976
G1 X17.417 Y39.973 E1.7980
G1 X22.863 Y41.508 E2.2343
G1 X22.867 Y41.510 E2.2347
G1 X23.022 Y41.560 E2.2471
G1 X23.026 Y41.562 E2.2475
G1 X28.335 Y43.520 E2.6838
G1 X28.339 Y43.522 E2.6842
G1 X28.489 Y43.584 E2.6967
G1 X28.494 Y43.586 E2.6970
G1 X33.632 Y45.955 E3.1333
G1 X33.637 Y45.957 E3.1337
G1 X33.781 Y46.030 E3.1462
G1 X33.785 Y46.033 E3.1465
G1 X38.722 Y48.798 E3.5828
G1 X38.726 Y48.800 E3.5832
G1 X38.865 Y48.885 E3.5957
G1 X38.869 Y48.887 E3.5960
G1 X43.220 Y51.795 E3.9995
G1 X43.261 Y51.840 E4.0043
G1 X44.235 Y53.662 E4.1635
G1 X44.250 Y53.722 E4.1683
G1 X44.250 Y70.172 E5.4366
G1 X44.168 Y70.297 E5.4481
G1 X39.238 Y72.454 E5.8630
G1 X39.091 Y72.429 E5.8745
G1 X36.205 Y69.761 E6.1775
G1 X32.767 Y67.051 E6.5150
G1 X29.128 Y64.619 E6.8525
G1 X25.309 Y62.480 E7.1900
G1 X21.333 Y60.648 E7.5274
G1 X17.227 Y59.133 E7.8649
G1 X13.014 Y57.944 E8.2024
G1 X8.721 Y57.090 E8.5399
G1 X4.374 Y56.576 E8.8774
G1 X0.000 Y56.404 E9.2148
G1 X-4.374 Y56.576 E9.5523
G1 X-8.721 Y57.090 E9.8898
G1 X-13.014 Y57.944 E10.2273
G1 X-17.227 Y59.133 E10.5648
G1 X-21.333 Y60.648 E10.9023
G1 X-25.309 Y62.480 E11.2397
G1 X-29.128 Y64.619 E11.5772
G1 X-32.767 Y67.051 E11.9147
G1 X-36.211 Y69.767 E12.2528
G1 X-39.091 Y72.429 E12.5552
G1 X-39.238 Y72.454 E12.5667
G1 X-44.168 Y70.297 E12.9816
G1 X-44.250 Y70.172 E12.9931
G1 X-44.250 Y53.722 E14.2614
G1 X-44.235 Y53.662 E14.2662
G1 X-43.261 Y51.840 E14.4254
G1 X-43.220 Y51.795 E14.4302
G1 X-38.869 Y48.887 E14.8337
G1 X-38.865 Y48.885 E14.8340
G1 X-38.726 Y48.800 E14.8465
G1 X-38.722 Y48.798 E14.8469
G1 X-33.785 Y46.033 E15.2832
G1 X-33.781 Y46.030 E15.2835
G1 X-33.637 Y45.957 E15.2960
G1 X-33.632 Y45.955 E15.2964
G1 X-28.494 Y43.586 E15.7327
G1 X-28.489 Y43.584 E15.7330
G1 X-28.339 Y43.522 E15.7455
G1 X-28.335 Y43.520 E15.7459
G1 X-23.026 Y41.562 E16.1822
G1 X-23.022 Y41.560 E16.1826
G1 X-22.867 Y41.510 E16.1950
G1 X-22.863 Y41.508 E16.1954
G1 X-17.417 Y39.973 E16.6317
G1 X-17.412 Y39.971 E16.6321
G1 X-17.255 Y39.933 E16.6445
G1 X-17.250 Y39.932 E16.6449
G1 X-11.700 Y38.829 E17.0812
G1 X-11.695 Y38.828 E17.0816
G1 X-11.535 Y38.802 E17.0940
G1 X-11.530 Y38.802 E17.0944
G1 X-5.911 Y38.137 E17.5307
G1 X-5.906 Y38.136 E17.5311
G1 X-5.745 Y38.123 E17.5436
G1 X-5.740 Y38.123 E17.5439
G1 X-23.497 Y38.926 F9000
G92 E0
G1 X-23.530 Y38.950 E0.0032 F1200
G1 X-24.772 Y39.556 E0.1097
G1 X-24.811 Y39.568 E0.1129
G1 X-41.476 Y41.614 E1.4073
G1 X-41.585 Y41.576 E1.4162
G1 X-44.426 Y38.736 E1.7260
G1 X-44.463 Y38.627 E1.7349
G1 X-42.417 Y21.962 E3.0293
G1 X-42.405 Y21.922 E3.0325
G1 X-41.800 Y20.681 E3.1390
G1 X-41.775 Y20.647 E3.1422
G1 X-17.880 Y-3.231 E5.7467
G1 X-41.707 Y-3.231 E7.5837
G1 X-41.798 Y-3.270 E7.5914
G1 X-44.212 Y-5.683 E7.8546
G1 X-44.250 Y-5.775 E7.8622
G1 X-44.250 Y-36.080 E10.1987
G1 X-44.250 Y-36.088 E10.1993
G1 X-44.234 Y-36.339 E10.2187
G1 X-44.234 Y-36.347 E10.2193
G1 X-40.157 Y-69.549 E12.7984
G1 X-40.114 Y-69.630 E12.8055
G1 X-37.776 Y-71.699 E13.0462
G1 X-37.690 Y-71.731 E13.0533
G1 X-23.293 Y-71.731 E14.1633
G1 X-23.202 Y-71.693 E14.1709
G1 X-20.788 Y-69.280 E14.4341
G1 X-20.750 Y-69.188 E14.4417
G1 X-20.750 Y-26.731 E17.7151
G1 X21.707 Y-26.731 E20.9885
G1 X21.798 Y-26.693 E20.9962
G1 X24.212 Y-24.280 E21.2593
G1 X24.250 Y-24.188 E21.2670
G1 X24.250 Y-9.791 E22.3769
G1 X24.218 Y-9.706 E22.3840
G1 X22.149 Y-7.367 E22.6247
G1 X22.068 Y-7.325 E22.6318
G1 X-7.785 Y-3.659 E24.9507
G1 X3.844 Y7.970 E26.2187
G1 X3.882 Y8.062 E26.2264
G1 X3.883 Y11.475 E26.4895
G1 X3.845 Y11.566 E26.4972
G1 X-23.497 Y38.926 E29.4793
G92 E0
G1 E-6.0000 F6600
G1 Z0.615 F1200
; inner perimeter
G1 X-26.614 Y34.248 F9000
G1 Z0.315 F1200
G1 E0.0000 F6600
G92 E0
G1 X-38.564 Y35.715 E0.9283 F1000
G1 X-37.097 Y23.764 E1.8566
G1 X-12.618 Y-0.714 E4.5256
G1 X-2.135 Y9.769 E5.6686
G1 X-26.614 Y34.248 E8.3376
; inner perimeter
G1 X-26.382 Y34.723 F9000
G92 E0
G1 X-39.139 Y36.289 E0.9909 F800
G1 X-37.572 Y23.532 E1.9818
G1 X-12.618 Y-1.421 E4.7026
G1 X-1.428 Y9.769 E5.9227
G1 X-26.382 Y34.723 E8.6436
; outer perimeter
G1 X-26.151 Y35.198 F9000
G92 E0
G1 X-39.713 Y36.864 E1.0535 F600
G1 X-38.048 Y23.300 E2.1071
G1 X-12.618 Y-2.128 E4.8797
G1 X-0.721 Y9.769 E6.1769
G1 X-26.151 Y35.198 E8.9496
G1 X-31.113 Y35.808 F3000
; solid layer
G1 X-38.025 Y34.807 F9000
G92 E0
G1 X-37.656 Y35.175 E0.0401 F960
G1 X-37.027 Y35.098 E0.0891
G1 X-37.947 Y34.178 E0.1894
G1 X-37.870 Y33.548 E0.2384
G1 X-36.397 Y35.021 E0.3990
G1 X-35.767 Y34.944 E0.4479
G1 X-37.793 Y32.918 E0.6688
G1 X-37.715 Y32.288 E0.7177
G1 X-35.137 Y34.866 E0.9988
G1 X-34.508 Y34.789 E1.0477
G1 X-37.638 Y31.658 E1.3890
G1 X-37.561 Y31.029 E1.4379
G1 X-33.878 Y34.712 E1.8395
G1 X-33.248 Y34.634 E1.8884
G1 X-37.483 Y30.399 E2.3502
G1 X-37.406 Y29.769 E2.3991
G1 X-32.618 Y34.557 E2.9212
G1 X-31.988 Y34.480 E2.9701
G1 X-37.329 Y29.139 E3.5524
G1 X-37.251 Y28.510 E3.6013
G1 X-31.359 Y34.402 E4.2438
G1 X-30.729 Y34.325 E4.2927
G1 X-37.174 Y27.880 E4.9955
G1 X-37.097 Y27.250 E5.0444
G1 X-30.099 Y34.248 E5.8074
G1 X-29.469 Y34.170 E5.8563
G1 X-37.019 Y26.620 E6.6795
G1 X-36.942 Y25.990 E6.7284
G1 X-28.840 Y34.093 E7.6119
G1 X-28.210 Y34.016 E7.6608
G1 X-36.865 Y25.361 E8.6045
G1 X-36.787 Y24.731 E8.6534
G1 X-27.580 Y33.938 E9.6574
G1 X-26.950 Y33.861 E9.7063
G1 X-36.710 Y24.101 E10.7704
G1 X-36.693 Y23.961 E10.7813
G1 X-36.418 Y23.686 E10.8113
G1 X-26.536 Y33.568 E11.8888
G1 X-26.182 Y33.215 E11.9274
G1 X-36.064 Y23.333 E13.0049
G1 X-35.711 Y22.979 E13.0434
G1 X-25.829 Y32.861 E14.1209
G1 X-25.475 Y32.508 E14.1595
G1 X-35.357 Y22.626 E15.2370
G1 X-35.004 Y22.272 E15.2755
G1 X-25.121 Y32.154 E16.3530
G1 X-24.768 Y31.801 E16.3916
G1 X-34.650 Y21.918 E17.4691
G1 X-34.297 Y21.565 E17.5076
G1 X-24.414 Y31.447 E18.5851
G1 X-24.061 Y31.093 E18.6237
G1 X-33.943 Y21.211 E19.7012
G1 X-33.589 Y20.858 E19.7397
G1 X-23.707 Y30.740 E20.8172
G1 X-23.354 Y30.386 E20.8558
G1 X-33.236 Y20.504 E21.9333
G1 X-32.882 Y20.151 E21.9718
G1 X-23.000 Y30.033 E23.0493
G1 X-22.647 Y29.679 E23.0879
G1 X-32.529 Y19.797 E24.1654
G1 X-32.175 Y19.444 E24.2039
G1 X-22.293 Y29.326 E25.2814
G1 X-21.940 Y28.972 E25.3200
G1 X-31.822 Y19.090 E26.3975
G1 X-31.468 Y18.736 E26.4360
G1 X-21.586 Y28.619 E27.5135
G1 X-21.232 Y28.265 E27.5521
G1 X-31.115 Y18.383 E28.6296
G1 X-30.761 Y18.029 E28.6681
G1 X-20.879 Y27.912 E29.7456
G1 X-20.525 Y27.558 E29.7842
