; G-Code generated by Simplify3D(R) Version 3.1.1
; Dec 14, 2016 at 1:33:26 AM
; Settings Summary
;   processName,Process1
;   applyToModels,Caliblock
;   profileName,Rostock MAX v2 (modified)
;   profileVersion,2015-05-01 08:00:00
;   baseProfile,
;   printMaterial,Iron PLA
;   printQuality,Medium
;   printExtruders,
;   extruderName,Primary Extruder
;   extruderToolheadNumber,0
;   extruderDiameter,0.4
;   extruderAutoWidth,1
;   extruderWidth,0.48
;   extrusionMultiplier,1.1
;   extruderUseRetract,1
;   extruderRetractionDistance,2
;   extruderExtraRestartDistance,-0.2
;   extruderRetractionZLift,0
;   extruderRetractionSpeed,1800
;   extruderUseCoasting,1
;   extruderCoastingDistance,0.5
;   extruderUseWipe,0
;   extruderWipeDistance,5
;   primaryExtruder,0
;   layerHeight,0.3
;   topSolidLayers,3
;   bottomSolidLayers,3
;   perimeterOutlines,3
;   printPerimetersInsideOut,1
;   startPointOption,2
;   startPointOriginX,0
;   startPointOriginY,0
;   startPointOriginZ,300
;   sequentialIslands,0
;   spiralVaseMode,0
;   firstLayerHeightPercentage,25
;   firstLayerWidthPercentage,100
;   firstLayerUnderspeed,0.4
;   useRaft,0
;   raftExtruder,0
;   raftLayers,3
;   raftOffset,15
;   raftSeparationDistance,0.14
;   raftInfill,85
;   disableRaftBaseLayers,0
;   useSkirt,1
;   skirtExtruder,0
;   skirtLayers,1
;   skirtOutlines,2
;   skirtOffset,5
;   usePrimePillar,0
;   primePillarExtruder,999
;   primePillarWidth,12
;   primePillarLocation,7
;   primePillarSpeedMultiplier,1
;   useOozeShield,0
;   oozeShieldExtruder,999
;   oozeShieldOffset,2
;   oozeShieldOutlines,1
;   oozeShieldSidewallShape,1
;   oozeShieldSidewallAngle,30
;   oozeShieldSpeedMultiplier,1
;   infillExtruder,0
;   internalInfillPattern,Rectilinear
;   externalInfillPattern,Rectilinear
;   infillPercentage,85
;   outlineOverlapPercentage,40
;   infillExtrusionWidthPercentage,100
;   minInfillLength,3
;   infillLayerInterval,1
;   infillAngles,45,-45
;   overlapInfillAngles,0
;   generateSupport,0
;   supportExtruder,0
;   supportInfillPercentage,30
;   supportExtraInflation,0
;   denseSupportLayers,0
;   denseSupportInfillPercentage,70
;   supportLayerInterval,1
;   supportHorizontalPartOffset,0.3
;   supportUpperSeparationLayers,1
;   supportLowerSeparationLayers,1
;   supportType,0
;   supportGridSpacing,4
;   maxOverhangAngle,70
;   supportAngles,0
;   temperatureName,Primary Extruder,Heated Bed
;   temperatureNumber,0,1
;   temperatureSetpointCount,1,1
;   temperatureSetpointLayers,1,1
;   temperatureSetpointTemperatures,215,60
;   temperatureStabilizeAtStartup,1,1
;   temperatureHeatedBed,0,1
;   temperatureRelayBetweenLayers,0,0
;   temperatureRelayBetweenLoops,0,0
;   fanLayers,1,2
;   fanSpeeds,0,100
;   blipFanToFullPower,1
;   adjustSpeedForCooling,1
;   minSpeedLayerTime,5
;   minCoolingSpeedSlowdown,80
;   increaseFanForCooling,0
;   minFanLayerTime,60
;   maxCoolingFanSpeed,100
;   increaseFanForBridging,0
;   bridgingFanSpeed,100
;   use5D,1
;   relativeEdistances,0
;   allowEaxisZeroing,1
;   independentExtruderAxes,0
;   includeM10123,0
;   stickySupport,1
;   applyToolheadOffsets,0
;   gcodeXoffset,0
;   gcodeYoffset,0
;   gcodeZoffset,0
;   overrideMachineDefinition,1
;   machineTypeOverride,1
;   strokeXoverride,197
;   strokeYoverride,197
;   strokeZoverride,375
;   originOffsetXoverride,98.5
;   originOffsetYoverride,98.5
;   originOffsetZoverride,0
;   homeXdirOverride,0
;   homeYdirOverride,0
;   homeZdirOverride,1
;   flipXoverride,1
;   flipYoverride,-1
;   flipZoverride,1
;   toolheadOffsets,0,0|0,0|0,0|0,0|0,0|0,0
;   overrideFirmwareConfiguration,1
;   firmwareTypeOverride,RepRap (Marlin/Repetier/Sprinter)
;   GPXconfigOverride,r2
;   baudRateOverride,115200
;   overridePrinterModels,1
;   printerModelsOverride
;   startingGcode,G28 ; home all axes
;   layerChangeGcode,
;   retractionGcode,
;   toolChangeGcode,
;   endingGcode,M104 S0 ; turn off extruder,M140 S0 ; turn off bed,G28 ; home axes,M84 ; disable motors
;   exportFileFormat,gcode
;   celebration,0
;   celebrationSong,Random Song
;   postProcessing,
;   defaultSpeed,1000
;   outlineUnderspeed,0.5
;   solidInfillUnderspeed,0.8
;   supportUnderspeed,0.8
;   rapidXYspeed,9000
;   rapidZspeed,1200
;   minBridgingArea,50
;   bridgingExtraInflation,0
;   bridgingExtrusionMultiplier,0.8
;   bridgingSpeedMultiplier,1.25
;   filamentDiameter,1.75
;   filamentPricePerKg,22
;   filamentDensity,1.25
;   useMinPrintHeight,0
;   minPrintHeight,0.05
;   useMaxPrintHeight,0
;   maxPrintHeight,0
;   useDiaphragm,0
;   diaphragmLayerInterval,20
;   robustSlicing,1
;   mergeAllIntoSolid,0
;   onlyRetractWhenCrossingOutline,0
;   retractBetweenLayers,0
;   useRetractionMinTravel,0
;   retractionMinTravel,3
;   retractWhileWiping,1
;   onlyWipeOutlines,1
;   avoidCrossingOutline,1
;   maxMovementDetourFactor,1.5
;   toolChangeRetractionDistance,12
;   toolChangeExtraRestartDistance,-0.5
;   toolChangeRetractionSpeed,600
;   allowThinWallGapFill,0
;   thinWallAllowedOverlapPercentage,10
;   horizontalSizeCompensation,0
G90
M82
M106 S0
M140 S60
M190 S60
M104 S215 T0
M109 S215 T0
G28 ; home all axes
G92 E0
G1 E-2.0000 F1800
G1 Z0.075 F1200
; layer 1, Z = 0.075
T0
; tool H0.300 W0.480
; skirt
G1 X10.946 Y-3.650 F9000
G1 E-0.2000 F540
G92 E0
G1 X3.650 Y-10.946 E0.6795 F400
G1 X3.571 Y-11.064 E0.6888
G1 X2.755 Y-13.032 E0.8292
G1 X2.728 Y-13.171 E0.8385
G1 X2.728 Y-30.499 E1.9796
G1 X2.837 Y-30.763 E1.9984
G1 X5.969 Y-33.895 E2.2901
G1 X6.233 Y-34.004 E2.3090
G1 X15.066 Y-34.004 E2.8906
G1 X15.205 Y-33.977 E2.9000
G1 X17.174 Y-33.161 E3.0403
G1 X17.292 Y-33.082 E3.0496
G1 X33.082 Y-17.292 E4.5203
G1 X33.161 Y-17.174 E4.5296
G1 X33.977 Y-15.205 E4.6699
G1 X34.004 Y-15.066 E4.6793
G1 X34.004 Y-6.234 E5.2609
G1 X33.895 Y-5.969 E5.2798
G1 X30.763 Y-2.837 E5.5715
G1 X30.499 Y-2.728 E5.5903
G1 X13.171 Y-2.728 E6.7314
G1 X13.032 Y-2.755 E6.7407
G1 X11.394 Y-3.434 E6.8575
G1 X11.063 Y-3.571 F400
G1 X10.946 Y-3.650 F400
G92 E0
G1 E-2.0000 F1800
G1 X13.032 Y2.755 F9000
G1 E-0.2000 F1800
G92 E0
G1 X13.171 Y2.728 E0.0093 F400
G1 X30.499 Y2.728 E1.1504
G1 X30.763 Y2.837 E1.1693
G1 X33.895 Y5.969 E1.4609
G1 X34.004 Y6.234 E1.4798
G1 X34.004 Y15.066 E2.0615
G1 X33.977 Y15.205 E2.0708
G1 X33.161 Y17.174 E2.2112
G1 X33.082 Y17.292 E2.2205
G1 X17.292 Y33.082 E3.6911
G1 X17.174 Y33.161 E3.7004
G1 X15.205 Y33.977 E3.8408
G1 X15.066 Y34.004 E3.8501
G1 X6.233 Y34.004 E4.4318
G1 X5.969 Y33.895 E4.4507
G1 X2.837 Y30.763 E4.7423
G1 X2.728 Y30.499 E4.7612
G1 X2.728 Y13.171 E5.9022
G1 X2.755 Y13.032 E5.9116
G1 X3.571 Y11.064 E6.0519
G1 X3.650 Y10.946 E6.0613
G1 X10.946 Y3.650 E6.7407
G1 X11.063 Y3.571 E6.7501
G1 X12.570 Y2.947 E6.8575
G1 X13.032 Y2.755 F400
G92 E0
G1 E-2.0000 F1800
G1 X-3.571 Y11.064 F9000
G1 E-0.2000 F1800
G92 E0
G1 X-2.756 Y13.032 E0.1403 F400
G1 X-2.728 Y13.171 E0.1497
G1 X-2.728 Y30.499 E1.2908
G1 X-2.837 Y30.763 E1.3096
G1 X-5.969 Y33.895 E1.6013
G1 X-6.234 Y34.004 E1.6201
G1 X-15.066 Y34.004 E2.2018
G1 X-15.205 Y33.977 E2.2111
G1 X-17.174 Y33.161 E2.3515
G1 X-17.292 Y33.082 E2.3608
G1 X-33.082 Y17.292 E3.8314
G1 X-33.161 Y17.174 E3.8408
G1 X-33.977 Y15.205 E3.9811
G1 X-34.004 Y15.066 E3.9904
G1 X-34.004 Y6.234 E4.5721
G1 X-33.895 Y5.969 E4.5910
G1 X-30.763 Y2.837 E4.8826
G1 X-30.499 Y2.728 E4.9015
G1 X-13.171 Y2.728 E6.0426
G1 X-13.032 Y2.755 E6.0519
G1 X-11.064 Y3.571 E6.1922
G1 X-10.946 Y3.650 E6.2016
G1 X-3.903 Y10.692 E6.8575
G1 X-3.650 Y10.946 F400
G1 X-3.571 Y11.064 F400
G92 E0
G1 E-2.0000 F1800
G1 X-11.064 Y-3.571 F9000
G1 E-0.2000 F1800
G92 E0
G1 X-13.032 Y-2.755 E0.1403 F400
G1 X-13.171 Y-2.728 E0.1497
G1 X-30.499 Y-2.728 E1.2908
G1 X-30.763 Y-2.837 E1.3096
G1 X-33.895 Y-5.969 E1.6013
G1 X-34.004 Y-6.234 E1.6201
G1 X-34.004 Y-15.066 E2.2018
G1 X-33.977 Y-15.205 E2.2111
G1 X-33.161 Y-17.174 E2.3515
G1 X-33.082 Y-17.292 E2.3608
G1 X-17.292 Y-33.082 E3.8314
G1 X-17.174 Y-33.161 E3.8408
G1 X-15.205 Y-33.977 E3.9811
G1 X-15.066 Y-34.004 E3.9904
G1 X-6.234 Y-34.004 E4.5721
G1 X-5.969 Y-33.895 E4.5910
G1 X-2.837 Y-30.763 E4.8826
G1 X-2.728 Y-30.499 E4.9015
G1 X-2.728 Y-13.171 E6.0426
G1 X-2.756 Y-13.032 E6.0519
G1 X-3.571 Y-11.064 E6.1922
G1 X-3.650 Y-10.946 E6.2016
G1 X-10.692 Y-3.903 E6.8575
G1 X-10.946 Y-3.650 F400
G1 X-11.064 Y-3.571 F400
G92 E0
G1 E-2.0000 F1800
G1 X-11.291 Y-3.996 F9000
G1 E-0.2000 F1800
G92 E0
G1 X-13.172 Y-3.217 E0.1341 F400
G1 X-13.219 Y-3.208 E0.1372
G1 X-30.403 Y-3.208 E1.2689
G1 X-30.491 Y-3.244 E1.2752
G1 X-33.488 Y-6.241 E1.5543
G1 X-33.524 Y-6.329 E1.5605
G1 X-33.524 Y-15.019 E2.1328
G1 X-33.515 Y-15.065 E2.1359
G1 X-32.736 Y-16.947 E2.2700
G1 X-32.710 Y-16.986 E2.2731
G1 X-16.986 Y-32.709 E3.7375
G1 X-16.947 Y-32.736 E3.7406
G1 X-15.065 Y-33.515 E3.8748
G1 X-15.019 Y-33.524 E3.8779
G1 X-6.329 Y-33.524 E4.4501
G1 X-6.241 Y-33.488 E4.4564
G1 X-3.244 Y-30.491 E4.7355
G1 X-3.208 Y-30.403 E4.7418
G1 X-3.208 Y-13.219 E5.8735
G1 X-3.217 Y-13.172 E5.8766
G1 X-3.996 Y-11.291 E6.0107
G1 X-4.023 Y-11.252 E6.0138
G1 X-10.932 Y-4.343 E6.6572
G1 X-11.252 Y-4.023 F400
G1 X-11.291 Y-3.996 F400
G92 E0
G1 E-2.0000 F1800
G1 X-13.172 Y3.217 F9000
G1 E-0.2000 F1800
G92 E0
G1 X-11.291 Y3.996 E0.1341 F400
G1 X-11.252 Y4.023 E0.1372
G1 X-4.023 Y11.252 E0.8105
G1 X-3.996 Y11.291 E0.8136
G1 X-3.217 Y13.172 E0.9477
G1 X-3.208 Y13.219 E0.9508
G1 X-3.208 Y30.403 E2.0825
G1 X-3.244 Y30.491 E2.0888
G1 X-6.241 Y33.488 E2.3679
G1 X-6.329 Y33.524 E2.3741
G1 X-15.019 Y33.524 E2.9464
G1 X-15.065 Y33.515 E2.9495
G1 X-16.947 Y32.736 E3.0836
G1 X-16.986 Y32.709 E3.0867
G1 X-32.710 Y16.986 E4.5511
G1 X-32.736 Y16.947 E4.5542
G1 X-33.515 Y15.065 E4.6883
G1 X-33.524 Y15.019 E4.6915
G1 X-33.524 Y6.329 E5.2637
G1 X-33.488 Y6.241 E5.2700
G1 X-30.491 Y3.244 E5.5491
G1 X-30.403 Y3.208 E5.5554
G1 X-13.671 Y3.208 E6.6572
G1 X-13.219 Y3.208 F400
G1 X-13.172 Y3.217 F400
G92 E0
G1 E-2.0000 F1800
G1 X3.996 Y11.291 F9000
G1 E-0.2000 F1800
G92 E0
G1 X4.022 Y11.252 E0.0031 F400
G1 X11.252 Y4.023 E0.6764
G1 X11.291 Y3.996 E0.6795
G1 X13.172 Y3.217 E0.8136
G1 X13.219 Y3.208 E0.8167
G1 X30.403 Y3.208 E1.9484
G1 X30.491 Y3.244 E1.9547
G1 X33.488 Y6.241 E2.2338
G1 X33.524 Y6.329 E2.2400
G1 X33.524 Y15.019 E2.8123
G1 X33.515 Y15.065 E2.8154
G1 X32.736 Y16.947 E2.9495
G1 X32.710 Y16.986 E2.9527
G1 X16.986 Y32.709 E4.4170
G1 X16.947 Y32.736 E4.4201
G1 X15.065 Y33.515 E4.5543
G1 X15.019 Y33.524 E4.5574
G1 X6.329 Y33.524 E5.1296
G1 X6.241 Y33.488 E5.1359
G1 X3.244 Y30.491 E5.4150
G1 X3.208 Y30.403 E5.4213
G1 X3.208 Y13.219 E6.5530
G1 X3.217 Y13.172 E6.5561
G1 X3.805 Y11.753 E6.6573
G1 X3.996 Y11.291 F400
G92 E0
G1 E-2.0000 F1800
G1 X11.291 Y-3.996 F9000
G1 E-0.2000 F1800
G92 E0
G1 X11.252 Y-4.023 E0.0031 F400
G1 X4.022 Y-11.252 E0.6764
G1 X3.996 Y-11.291 E0.6795
G1 X3.217 Y-13.172 E0.8136
G1 X3.208 Y-13.219 E0.8167
G1 X3.208 Y-30.403 E1.9484
G1 X3.244 Y-30.491 E1.9547
G1 X6.241 Y-33.488 E2.2337
G1 X6.329 Y-33.524 E2.2400
G1 X15.019 Y-33.524 E2.8123
G1 X15.065 Y-33.515 E2.8154
G1 X16.947 Y-32.736 E2.9495
G1 X16.986 Y-32.709 E2.9526
G1 X32.710 Y-16.986 E4.4170
G1 X32.736 Y-16.947 E4.4201
G1 X33.515 Y-15.065 E4.5542
G1 X33.524 Y-15.019 E4.5574
G1 X33.524 Y-6.329 E5.1296
G1 X33.488 Y-6.241 E5.1359
G1 X30.491 Y-3.244 E5.4150
G1 X30.403 Y-3.208 E5.4213
G1 X13.219 Y-3.208 E6.5530
G1 X13.172 Y-3.217 E6.5561
G1 X11.753 Y-3.805 E6.6573
G1 X11.291 Y-3.996 F400
G92 E0
G1 E-2.0000 F1800
; inner perimeter
G1 X14.734 Y-9.648 F9000
G1 E-0.2000 F1800
G92 E0
G1 X9.648 Y-14.734 E0.4737 F333
G1 X9.648 Y-27.084 E1.2870
G1 X13.504 Y-27.084 E1.5410
G1 X27.084 Y-13.504 E2.8058
G1 X27.084 Y-9.648 E3.0597
G1 X15.234 Y-9.648 E3.8401
G1 X14.734 Y-9.648 F333
G92 E0
G1 E-2.0000 F1800
; inner perimeter
G1 X14.535 Y-9.168 F9000
G1 E-0.2000 F1800
G92 E0
G1 X9.168 Y-14.535 E0.4999 F267
G1 X9.168 Y-27.564 E1.3579
G1 X13.703 Y-27.564 E1.6565
G1 X27.564 Y-13.702 E2.9475
G1 X27.564 Y-9.168 E3.2462
G1 X15.035 Y-9.168 E4.0713
G1 X14.535 Y-9.168 F267
G92 E0
G1 E-2.0000 F1800
; outer perimeter
G1 X14.336 Y-8.688 F9000
G1 E-0.2000 F1800
G92 E0
G1 X8.688 Y-14.336 E0.5261 F200
G1 X8.688 Y-28.044 E1.4288
G1 X13.901 Y-28.044 E1.7721
G1 X28.044 Y-13.901 E3.0893
G1 X28.044 Y-8.688 E3.4327
G1 X14.836 Y-8.688 E4.3025
G1 X14.336 Y-8.688 F200
G92 E0
G1 E-2.0000 F1800
; inner perimeter
G1 X19.633 Y-11.532 F9000
G1 E-0.2000 F1800
G92 E0
G1 X23.252 Y-15.151 E0.3370 F333
G1 X15.151 Y-23.252 E1.0915
G1 X11.532 Y-19.633 E1.4285
G1 X13.583 Y-17.583 E1.6195
G1 X14.605 Y-18.605 E1.7147
G1 X18.605 Y-14.606 E2.0872
G1 X17.583 Y-13.583 E2.1825
G1 X19.280 Y-11.886 E2.3406
G1 X19.633 Y-11.532 F333
G92 E0
G1 E-2.0000 F1800
; inner perimeter
G1 X19.633 Y-12.211 F9000
G1 E-0.2000 F1800
G92 E0
G1 X22.573 Y-15.151 E0.2738 F267
G1 X15.151 Y-22.573 E0.9651
G1 X12.211 Y-19.633 E1.2389
G1 X13.583 Y-18.262 E1.3666
G1 X14.605 Y-19.284 E1.4619
G1 X19.284 Y-14.606 E1.8976
G1 X18.261 Y-13.583 E1.9928
G1 X19.280 Y-12.565 E2.0877
G1 X19.633 Y-12.211 F267
G92 E0
G1 E-2.0000 F1800
; outer perimeter
G1 X19.633 Y-12.890 F9000
G1 E-0.2000 F1800
G92 E0
G1 X21.894 Y-15.151 E0.2106 F200
G1 X15.151 Y-21.894 E0.8386
G1 X12.890 Y-19.633 E1.0492
G1 X13.583 Y-18.940 E1.1137
G1 X14.605 Y-19.963 E1.2090
G1 X19.963 Y-14.606 E1.7079
G1 X18.940 Y-13.583 E1.8032
G1 X19.280 Y-13.243 E1.8348
G1 X19.633 Y-12.890 F200
G92 E0
G1 E-2.0000 F1800
; solid layer
G1 X23.601 Y-15.092 F9000
G1 E-0.2000 F1800
G92 E0
G1 X26.796 Y-11.897 E0.2976 F320
G1 X26.796 Y-11.218 E0.3423
G1 X23.261 Y-14.753 E0.6716
G1 X22.922 Y-14.413 E0.7032
G1 X26.796 Y-10.539 E1.0640
G1 X26.796 Y-9.936 E1.1037
G1 X26.721 Y-9.936 E1.1087
G1 X22.582 Y-14.074 E1.4941
G1 X22.243 Y-13.735 E1.5257
G1 X26.042 Y-9.936 E1.8795
G1 X25.363 Y-9.936 E1.9242
G1 X21.904 Y-13.395 E2.2464
G1 X21.564 Y-13.056 E2.2780
G1 X24.684 Y-9.936 E2.5686
G1 X24.005 Y-9.936 E2.6133
G1 X21.225 Y-12.716 E2.8723
G1 X20.885 Y-12.377 E2.9039
G1 X23.327 Y-9.936 E3.1312
G1 X22.648 Y-9.936 E3.1759
G1 X20.546 Y-12.038 E3.3717
G1 X20.207 Y-11.698 E3.4033
G1 X21.969 Y-9.936 E3.5674
G1 X21.290 Y-9.936 E3.6121
G1 X19.867 Y-11.359 E3.7446
G1 X19.633 Y-11.125 E3.7664
G1 X17.175 Y-13.583 E3.9953
G1 X17.409 Y-13.817 E4.0171
G1 X13.817 Y-17.409 E4.3517
G1 X14.156 Y-17.749 E4.3833
G1 X17.749 Y-14.156 E4.7179
G1 X18.088 Y-14.495 E4.7495
G1 X14.849 Y-17.734 E5.0512
G1 X14.495 Y-18.088 F320
G92 E0
G1 E-2.0000 F1800
G1 X15.181 Y-9.936 F9000
G1 E-0.2000 F1800
G92 E0
G1 X9.936 Y-15.181 E0.4885 F320
G1 X9.936 Y-15.860 E0.5332
G1 X15.859 Y-9.936 E1.0849
G1 X16.538 Y-9.936 E1.1296
G1 X9.936 Y-16.538 E1.7445
G1 X9.936 Y-17.217 E1.7892
G1 X17.217 Y-9.936 E2.4673
G1 X17.896 Y-9.936 E2.5120
G1 X9.936 Y-17.896 E3.2534
G1 X9.936 Y-18.575 E3.2981
G1 X18.575 Y-9.936 E4.1027
G1 X19.254 Y-9.936 E4.1474
G1 X9.936 Y-19.254 E5.0152
G1 X9.936 Y-19.932 E5.0599
G1 X19.932 Y-9.936 E5.9909
G1 X20.611 Y-9.936 E6.0356
G1 X9.936 Y-20.611 E7.0299
G1 X9.936 Y-21.290 E7.0746
G1 X11.359 Y-19.867 E7.2071
G1 X11.698 Y-20.206 E7.2387
G1 X9.936 Y-21.969 E7.4029
G1 X9.936 Y-22.648 E7.4476
G1 X12.038 Y-20.546 E7.6433
G1 X12.377 Y-20.885 E7.6749
G1 X9.936 Y-23.327 E7.9023
G1 X9.936 Y-24.005 E7.9470
G1 X12.716 Y-21.225 E8.2060
G1 X13.056 Y-21.564 E8.2376
G1 X9.936 Y-24.684 E8.5282
G1 X9.936 Y-25.363 E8.5729
G1 X13.395 Y-21.904 E8.8951
G1 X13.735 Y-22.243 E8.9267
G1 X9.936 Y-26.042 E9.2805
G1 X9.936 Y-26.721 E9.3252
G1 X14.074 Y-22.582 E9.7106
G1 X14.413 Y-22.922 E9.7422
G1 X10.539 Y-26.796 E10.1030
G1 X11.218 Y-26.796 E10.1477
G1 X14.753 Y-23.261 E10.4770
G1 X15.092 Y-23.601 E10.5086
G1 X11.897 Y-26.796 E10.8062
G1 X12.575 Y-26.796 E10.8509
G1 X26.796 Y-12.575 E12.1753
G1 X26.796 Y-13.254 E12.2200
G1 X13.608 Y-26.443 E13.4483
G1 X13.254 Y-26.796 F320
G92 E0
G1 E-2.0000 F1800
; inner perimeter
G1 X-9.648 Y-27.084 F9000
G1 E-0.2000 F1800
G92 E0
G1 X-9.648 Y-14.734 E0.8133 F333
G1 X-14.734 Y-9.648 E1.2870
G1 X-27.084 Y-9.648 E2.1004
G1 X-27.084 Y-13.504 E2.3543
G1 X-13.504 Y-27.084 E3.6191
G1 X-10.148 Y-27.084 E3.8401
G1 X-9.648 Y-27.084 F333
G92 E0
G1 E-2.0000 F1800
; inner perimeter
G1 X-9.168 Y-27.564 F9000
G1 E-0.2000 F1800
G92 E0
G1 X-9.168 Y-14.535 E0.8580 F267
G1 X-14.535 Y-9.168 E1.3579
G1 X-27.564 Y-9.168 E2.2159
