; G-Code generated by Simplify3D(R) Version 3.1.0
; Jul 5, 2016 at 9:55:57 PM
; Settings Summary
;   processName,Process1
;   applyToModels,5dollar Stabilizer,5dollar Stabilizer(2),5dollar Stabilizer(3),5dollar Stabilizer(4)
;   profileName,Rostock MAX v2 (modified)
;   profileVersion,2015-05-01 08:00:00
;   baseProfile,
;   printMaterial,PLA
;   printQuality,Medium
;   printExtruders,
;   extruderName,Primary Extruder
;   extruderToolheadNumber,0
;   extruderDiameter,0.4
;   extruderAutoWidth,1
;   extruderWidth,0.48
;   extrusionMultiplier,1.1
;   extruderUseRetract,1
;   extruderRetractionDistance,6
;   extruderExtraRestartDistance,0
;   extruderRetractionZLift,0.3
;   extruderRetractionSpeed,6600
;   extruderUseCoasting,0
;   extruderCoastingDistance,1
;   extruderUseWipe,1
;   extruderWipeDistance,5
;   primaryExtruder,0
;   layerHeight,0.2
;   topSolidLayers,3
;   bottomSolidLayers,3
;   perimeterOutlines,3
;   printPerimetersInsideOut,1
;   startPointOption,2
;   startPointOriginX,0
;   startPointOriginY,0
;   startPointOriginZ,300
;   sequentialIslands,0
;   spiralVaseMode,0
;   firstLayerHeightPercentage,100
;   firstLayerWidthPercentage,100
;   firstLayerUnderspeed,0.4
;   useRaft,0
;   raftExtruder,0
;   raftLayers,3
;   raftOffset,3
;   raftSeparationDistance,0.14
;   raftInfill,85
;   disableRaftBaseLayers,0
;   useSkirt,1
;   skirtExtruder,0
;   skirtLayers,1
;   skirtOutlines,2
;   skirtOffset,4
;   usePrimePillar,0
;   primePillarExtruder,999
;   primePillarWidth,12
;   primePillarLocation,7
;   primePillarSpeedMultiplier,1
;   useOozeShield,0
;   oozeShieldExtruder,999
;   oozeShieldOffset,2
;   oozeShieldOutlines,1
;   oozeShieldSidewallShape,1
;   oozeShieldSidewallAngle,30
;   oozeShieldSpeedMultiplier,1
;   infillExtruder,0
;   internalInfillPattern,Rectilinear
;   externalInfillPattern,Rectilinear
;   infillPercentage,50
;   outlineOverlapPercentage,25
;   infillExtrusionWidthPercentage,150
;   minInfillLength,5
;   infillLayerInterval,1
;   infillAngles,45,-45
;   overlapInfillAngles,0
;   generateSupport,0
;   supportExtruder,0
;   supportInfillPercentage,30
;   supportExtraInflation,0
;   denseSupportLayers,0
;   denseSupportInfillPercentage,70
;   supportLayerInterval,1
;   supportHorizontalPartOffset,0.3
;   supportUpperSeparationLayers,1
;   supportLowerSeparationLayers,1
;   supportType,0
;   supportGridSpacing,4
;   maxOverhangAngle,45
;   supportAngles,0
;   temperatureName,Primary Extruder,Heated Bed
;   temperatureNumber,0,1
;   temperatureSetpointCount,1,1
;   temperatureSetpointLayers,1,1
;   temperatureSetpointTemperatures,215,70
;   temperatureStabilizeAtStartup,1,1
;   temperatureHeatedBed,0,1
;   temperatureRelayBetweenLayers,0,0
;   temperatureRelayBetweenLoops,0,0
;   fanLayers,1,2
;   fanSpeeds,0,100
;   blipFanToFullPower,1
;   adjustSpeedForCooling,1
;   minSpeedLayerTime,15
;   minCoolingSpeedSlowdown,20
;   increaseFanForCooling,0
;   minFanLayerTime,60
;   maxCoolingFanSpeed,100
;   increaseFanForBridging,0
;   bridgingFanSpeed,100
;   use5D,1
;   relativeEdistances,0
;   allowEaxisZeroing,1
;   independentExtruderAxes,0
;   includeM10123,0
;   stickySupport,1
;   applyToolheadOffsets,0
;   gcodeXoffset,0
;   gcodeYoffset,0
;   gcodeZoffset,0
;   overrideMachineDefinition,1
;   machineTypeOverride,1
;   strokeXoverride,197
;   strokeYoverride,197
;   strokeZoverride,375
;   originOffsetXoverride,98.5
;   originOffsetYoverride,98.5
;   originOffsetZoverride,0
;   homeXdirOverride,0
;   homeYdirOverride,0
;   homeZdirOverride,1
;   flipXoverride,1
;   flipYoverride,-1
;   flipZoverride,1
;   toolheadOffsets,0,0|0,0|0,0|0,0|0,0|0,0
;   overrideFirmwareConfiguration,1
;   firmwareTypeOverride,RepRap (Marlin/Repetier/Sprinter)
;   GPXconfigOverride,r2
;   baudRateOverride,115200
;   overridePrinterModels,1
;   printerModelsOverride
;   startingGcode,G28 ; home all axes
;   layerChangeGcode,
;   retractionGcode,
;   toolChangeGcode,
;   endingGcode,M104 S0 ; turn off extruder,M140 S0 ; turn off bed,G28 ; home axes,M84 ; disable motors
;   exportFileFormat,gcode
;   celebration,0
;   celebrationSong,Random Song
;   postProcessing,
;   defaultSpeed,1500
;   outlineUnderspeed,0.5
;   solidInfillUnderspeed,0.8
;   supportUnderspeed,0.8
;   rapidXYspeed,9000
;   rapidZspeed,1200
;   minBridgingArea,50
;   bridgingExtraInflation,0
;   bridgingExtrusionMultiplier,0.95
;   bridgingSpeedMultiplier,0.7
;   filamentDiameter,1.7
;   filamentPricePerKg,33.98
;   filamentDensity,1.25
;   useMinPrintHeight,0
;   minPrintHeight,0
;   useMaxPrintHeight,0
;   maxPrintHeight,0
;   useDiaphragm,0
;   diaphragmLayerInterval,20
;   robustSlicing,1
;   mergeAllIntoSolid,0
;   onlyRetractWhenCrossingOutline,1
;   retractBetweenLayers,0
;   useRetractionMinTravel,0
;   retractionMinTravel,3
;   retractWhileWiping,0
;   onlyWipeOutlines,1
;   avoidCrossingOutline,0
;   maxMovementDetourFactor,1
;   toolChangeRetractionDistance,12
;   toolChangeExtraRestartDistance,-0.5
;   toolChangeRetractionSpeed,600
;   allowThinWallGapFill,1
;   thinWallAllowedOverlapPercentage,10
;   horizontalSizeCompensation,0
G90
M82
M106 S0
M140 S70
M190 S70
M104 S215 T0
M109 S215 T0
G28 ; home all axes
G92 E0
G1 E-6.0000 F6600
G1 Z0.500 F1200
; layer 1, Z = 0.2
T0
; tool H0.200 W0.480
; skirt
G1 X1.808 Y-47.617 F9000
G1 Z0.200 F1200
G1 E0.0000 F1980
G92 E0
G1 X1.890 Y-47.815 E0.0099 F600
G1 X4.435 Y-50.360 E0.1774
G1 X4.700 Y-50.470 E0.1908
G1 X12.800 Y-50.470 E0.5676
G1 X13.065 Y-50.360 E0.5809
G1 X15.610 Y-47.815 E0.7484
G1 X15.720 Y-47.550 E0.7618
G1 X15.720 Y-43.970 E0.9283
G1 X19.200 Y-43.970 E1.0902
G1 X19.209 Y-44.068 E1.0948
G1 X19.211 Y-44.079 E1.0953
G1 X19.229 Y-44.221 E1.1020
G1 X19.231 Y-44.233 E1.1025
G1 X19.441 Y-45.503 E1.1624
G1 X19.443 Y-45.515 E1.1630
G1 X19.471 Y-45.655 E1.1696
G1 X19.473 Y-45.666 E1.1702
G1 X19.766 Y-46.920 E1.2301
G1 X19.769 Y-46.932 E1.2306
G1 X19.806 Y-47.070 E1.2373
G1 X19.809 Y-47.081 E1.2378
G1 X20.183 Y-48.314 E1.2977
G1 X20.186 Y-48.325 E1.2983
G1 X20.232 Y-48.460 E1.3049
G1 X20.236 Y-48.471 E1.3055
G1 X20.690 Y-49.676 E1.3654
G1 X20.694 Y-49.687 E1.3659
G1 X20.749 Y-49.819 E1.3726
G1 X20.753 Y-49.830 E1.3731
G1 X21.285 Y-51.003 E1.4330
G1 X21.290 Y-51.014 E1.4336
G1 X21.353 Y-51.142 E1.4402
G1 X21.358 Y-51.152 E1.4408
G1 X21.966 Y-52.288 E1.5007
G1 X21.971 Y-52.298 E1.5012
G1 X22.043 Y-52.422 E1.5079
G1 X22.049 Y-52.432 E1.5084
G1 X22.729 Y-53.525 E1.5683
G1 X22.735 Y-53.535 E1.5689
G1 X22.814 Y-53.654 E1.5755
G1 X22.821 Y-53.664 E1.5761
G1 X23.571 Y-54.711 E1.6360
G1 X23.578 Y-54.720 E1.6365
G1 X23.665 Y-54.833 E1.6432
G1 X23.672 Y-54.842 E1.6437
G1 X24.489 Y-55.838 E1.7036
G1 X24.497 Y-55.847 E1.7042
G1 X24.591 Y-55.954 E1.7108
G1 X24.599 Y-55.963 E1.7114
G1 X25.479 Y-56.903 E1.7713
G1 X25.488 Y-56.911 E1.7718
G1 X25.589 Y-57.012 E1.7785
G1 X25.597 Y-57.021 E1.7790
G1 X26.537 Y-57.901 E1.8389
G1 X26.546 Y-57.909 E1.8395
G1 X26.653 Y-58.003 E1.8461
G1 X26.662 Y-58.011 E1.8467
G1 X27.658 Y-58.828 E1.9066
G1 X27.667 Y-58.835 E1.9072
G1 X27.780 Y-58.922 E1.9138
G1 X27.789 Y-58.929 E1.9143
G1 X28.836 Y-59.679 E1.9743
G1 X28.846 Y-59.686 E1.9748
G1 X28.965 Y-59.765 E1.9814
G1 X28.975 Y-59.771 E1.9820
G1 X30.068 Y-60.451 E2.0419
G1 X30.078 Y-60.457 E2.0424
G1 X30.202 Y-60.529 E2.0491
G1 X30.212 Y-60.534 E2.0496
G1 X31.348 Y-61.142 E2.1095
G1 X31.358 Y-61.147 E2.1101
G1 X31.486 Y-61.210 E2.1167
G1 X31.497 Y-61.215 E2.1173
G1 X32.530 Y-61.683 E2.1700
G1 X32.530 Y-81.800 E3.1060
G1 X32.640 Y-82.065 E3.1193
G1 X35.185 Y-84.610 E3.2868
G1 X35.450 Y-84.720 E3.3001
G1 X44.550 Y-84.720 E3.7235
G1 X44.815 Y-84.610 E3.7368
G1 X47.360 Y-82.065 E3.9043
G1 X47.470 Y-81.800 E3.9176
G1 X47.470 Y-80.720 E3.9679
G1 X47.550 Y-80.720 E3.9716
G1 X47.815 Y-80.610 E3.9849
G1 X50.360 Y-78.065 E4.1524
G1 X50.470 Y-77.800 E4.1657
G1 X50.470 Y-69.700 E4.5426
G1 X50.360 Y-69.435 E4.5559
G1 X47.815 Y-66.890 E4.7234
G1 X47.550 Y-66.780 E4.7367
G1 X43.970 Y-66.780 E4.9033
G1 X43.970 Y-63.300 E5.0652
G1 X44.068 Y-63.291 E5.0698
G1 X44.080 Y-63.289 E5.0703
G1 X44.221 Y-63.271 E5.0770
G1 X44.233 Y-63.269 E5.0775
G1 X45.503 Y-63.059 E5.1374
G1 X45.515 Y-63.057 E5.1380
G1 X45.655 Y-63.029 E5.1446
G1 X45.666 Y-63.027 E5.1452
G1 X46.920 Y-62.734 E5.2051
G1 X46.932 Y-62.731 E5.2056
G1 X47.070 Y-62.694 E5.2123
G1 X47.081 Y-62.691 E5.2128
G1 X48.314 Y-62.317 E5.2727
G1 X48.325 Y-62.314 E5.2733
G1 X48.460 Y-62.268 E5.2799
G1 X48.471 Y-62.264 E5.2805
G1 X49.676 Y-61.810 E5.3404
G1 X49.687 Y-61.806 E5.3409
G1 X49.819 Y-61.751 E5.3476
G1 X49.830 Y-61.747 E5.3481
G1 X51.003 Y-61.215 E5.4080
G1 X51.014 Y-61.210 E5.4086
G1 X51.142 Y-61.147 E5.4152
G1 X51.152 Y-61.142 E5.4158
G1 X52.288 Y-60.534 E5.4757
G1 X52.298 Y-60.529 E5.4762
G1 X52.422 Y-60.457 E5.4829
G1 X52.432 Y-60.451 E5.4834
G1 X53.525 Y-59.771 E5.5433
G1 X53.535 Y-59.765 E5.5439
G1 X53.654 Y-59.686 E5.5505
G1 X53.664 Y-59.679 E5.5511
G1 X54.711 Y-58.929 E5.6110
G1 X54.720 Y-58.922 E5.6115
G1 X54.833 Y-58.835 E5.6182
G1 X54.842 Y-58.828 E5.6187
G1 X55.838 Y-58.011 E5.6786
G1 X55.847 Y-58.003 E5.6792
G1 X55.954 Y-57.909 E5.6858
G1 X55.963 Y-57.901 E5.6864
G1 X56.903 Y-57.021 E5.7463
G1 X56.911 Y-57.012 E5.7468
G1 X57.012 Y-56.911 E5.7535
G1 X57.021 Y-56.903 E5.7540
G1 X57.901 Y-55.963 E5.8139
G1 X57.909 Y-55.954 E5.8145
G1 X58.003 Y-55.847 E5.8211
G1 X58.011 Y-55.838 E5.8217
G1 X58.828 Y-54.842 E5.8816
G1 X58.835 Y-54.833 E5.8821
G1 X58.922 Y-54.720 E5.8888
G1 X58.929 Y-54.711 E5.8893
G1 X59.679 Y-53.664 E5.9492
G1 X59.686 Y-53.654 E5.9498
G1 X59.765 Y-53.535 E5.9564
G1 X59.771 Y-53.525 E5.9570
G1 X60.451 Y-52.432 E6.0169
G1 X60.457 Y-52.422 E6.0174
G1 X60.529 Y-52.298 E6.0241
G1 X60.534 Y-52.288 E6.0246
G1 X61.142 Y-51.152 E6.0845
G1 X61.147 Y-51.142 E6.0851
G1 X61.210 Y-51.014 E6.0917
G1 X61.215 Y-51.003 E6.0923
G1 X61.683 Y-49.970 E6.1450
G1 X81.800 Y-49.970 E7.0810
G1 X82.065 Y-49.860 E7.0943
G1 X84.610 Y-47.315 E7.2618
G1 X84.720 Y-47.050 E7.2751
G1 X84.720 Y-37.950 E7.6985
G1 X84.610 Y-37.685 E7.7118
G1 X82.065 Y-35.140 E7.8793
G1 X81.800 Y-35.030 E7.8926
G1 X80.720 Y-35.030 E7.9429
G1 X80.720 Y-34.950 E7.9466
G1 X80.610 Y-34.685 E7.9599
G1 X78.065 Y-32.140 E8.1274
G1 X77.800 Y-32.030 E8.1407
G1 X69.700 Y-32.030 E8.5176
G1 X69.435 Y-32.140 E8.5309
G1 X66.890 Y-34.685 E8.6984
G1 X66.780 Y-34.950 E8.7117
G1 X66.780 Y-38.530 E8.8783
G1 X63.300 Y-38.530 E9.0402
G1 X63.291 Y-38.432 E9.0448
G1 X63.289 Y-38.421 E9.0453
G1 X63.271 Y-38.279 E9.0519
G1 X63.269 Y-38.267 E9.0525
G1 X63.059 Y-36.997 E9.1124
G1 X63.057 Y-36.985 E9.1130
G1 X63.029 Y-36.845 E9.1196
G1 X63.027 Y-36.834 E9.1201
G1 X62.734 Y-35.580 E9.1801
G1 X62.731 Y-35.568 E9.1806
G1 X62.694 Y-35.430 E9.1872
G1 X62.691 Y-35.419 E9.1878
G1 X62.317 Y-34.186 E9.2477
G1 X62.314 Y-34.175 E9.2483
G1 X62.268 Y-34.040 E9.2549
G1 X62.264 Y-34.029 E9.2554
G1 X61.810 Y-32.824 E9.3154
G1 X61.806 Y-32.813 E9.3159
G1 X61.751 Y-32.681 E9.3225
G1 X61.747 Y-32.670 E9.3231
G1 X61.215 Y-31.497 E9.3830
G1 X61.210 Y-31.486 E9.3836
G1 X61.147 Y-31.358 E9.3902
G1 X61.141 Y-31.348 E9.3908
G1 X60.534 Y-30.212 E9.4507
G1 X60.529 Y-30.202 E9.4512
G1 X60.457 Y-30.078 E9.4579
G1 X60.451 Y-30.068 E9.4584
G1 X59.771 Y-28.975 E9.5183
G1 X59.765 Y-28.965 E9.5189
G1 X59.686 Y-28.846 E9.5255
G1 X59.679 Y-28.836 E9.5260
G1 X58.929 Y-27.789 E9.5860
G1 X58.922 Y-27.780 E9.5865
G1 X58.835 Y-27.667 E9.5931
G1 X58.828 Y-27.658 E9.5937
G1 X58.011 Y-26.662 E9.6536
G1 X58.003 Y-26.653 E9.6542
G1 X57.909 Y-26.546 E9.6608
G1 X57.901 Y-26.537 E9.6614
G1 X57.021 Y-25.597 E9.7213
G1 X57.012 Y-25.589 E9.7218
G1 X56.911 Y-25.488 E9.7285
G1 X56.903 Y-25.479 E9.7290
G1 X55.963 Y-24.599 E9.7889
G1 X55.954 Y-24.591 E9.7895
G1 X55.847 Y-24.497 E9.7961
G1 X55.838 Y-24.489 E9.7967
G1 X54.842 Y-23.672 E9.8566
G1 X54.833 Y-23.665 E9.8571
G1 X54.720 Y-23.578 E9.8638
G1 X54.711 Y-23.571 E9.8643
G1 X53.664 Y-22.821 E9.9242
G1 X53.654 Y-22.814 E9.9248
G1 X53.535 Y-22.735 E9.9314
G1 X53.525 Y-22.729 E9.9320
G1 X52.432 Y-22.049 E9.9919
G1 X52.422 Y-22.043 E9.9924
G1 X52.298 Y-21.971 E9.9991
G1 X52.288 Y-21.966 E9.9996
G1 X51.152 Y-21.358 E10.0595
G1 X51.142 Y-21.353 E10.0601
G1 X51.014 Y-21.290 E10.0667
G1 X51.003 Y-21.285 E10.0673
G1 X49.970 Y-20.817 E10.1200
G1 X49.970 Y-0.700 E11.0559
G1 X49.860 Y-0.435 E11.0693
G1 X47.617 Y1.808 E11.2169
G1 X47.815 Y1.890 E11.2268
G1 X50.360 Y4.435 E11.3943
G1 X50.470 Y4.700 E11.4076
G1 X50.470 Y12.800 E11.7845
G1 X50.360 Y13.065 E11.7978
G1 X47.815 Y15.610 E11.9653
G1 X47.550 Y15.720 E11.9786
G1 X43.970 Y15.720 E12.1452
G1 X43.970 Y19.200 E12.3071
G1 X44.068 Y19.209 E12.3116
G1 X44.079 Y19.211 E12.3122
G1 X44.221 Y19.229 E12.3188
G1 X44.233 Y19.231 E12.3194
G1 X45.503 Y19.441 E12.3793
G1 X45.515 Y19.443 E12.3798
G1 X45.655 Y19.471 E12.3865
G1 X45.666 Y19.473 E12.3870
G1 X46.920 Y19.766 E12.4469
G1 X46.932 Y19.769 E12.4475
G1 X47.070 Y19.806 E12.4541
G1 X47.081 Y19.809 E12.4547
G1 X48.314 Y20.183 E12.5146
G1 X48.325 Y20.186 E12.5151
G1 X48.460 Y20.232 E12.5218
G1 X48.471 Y20.236 E12.5223
G1 X49.676 Y20.690 E12.5822
G1 X49.687 Y20.694 E12.5828
G1 X49.819 Y20.749 E12.5894
G1 X49.830 Y20.753 E12.5900
G1 X51.003 Y21.285 E12.6499
G1 X51.014 Y21.290 E12.6504
G1 X51.142 Y21.353 E12.6571
G1 X51.152 Y21.358 E12.6576
G1 X52.288 Y21.966 E12.7176
G1 X52.298 Y21.971 E12.7181
G1 X52.422 Y22.043 E12.7247
G1 X52.432 Y22.049 E12.7253
G1 X53.525 Y22.729 E12.7852
G1 X53.535 Y22.735 E12.7857
G1 X53.654 Y22.814 E12.7924
G1 X53.664 Y22.821 E12.7929
G1 X54.711 Y23.571 E12.8528
G1 X54.720 Y23.578 E12.8534
G1 X54.833 Y23.665 E12.8600
G1 X54.842 Y23.672 E12.8606
G1 X55.838 Y24.489 E12.9205
G1 X55.847 Y24.497 E12.9210
G1 X55.954 Y24.591 E12.9277
G1 X55.963 Y24.599 E12.9282
G1 X56.903 Y25.479 E12.9881
G1 X56.911 Y25.488 E12.9887
G1 X57.012 Y25.588 E12.9953
G1 X57.021 Y25.597 E12.9959
G1 X57.901 Y26.537 E13.0558
G1 X57.909 Y26.546 E13.0563
G1 X58.003 Y26.653 E13.0630
G1 X58.011 Y26.662 E13.0635
G1 X58.828 Y27.658 E13.1235
G1 X58.835 Y27.667 E13.1240
G1 X58.922 Y27.780 E13.1306
G1 X58.929 Y27.789 E13.1312
G1 X59.679 Y28.836 E13.1911
G1 X59.686 Y28.846 E13.1916
G1 X59.765 Y28.965 E13.1983
G1 X59.771 Y28.974 E13.1988
G1 X60.451 Y30.068 E13.2587
G1 X60.457 Y30.078 E13.2593
G1 X60.529 Y30.202 E13.2659
G1 X60.534 Y30.212 E13.2665
G1 X61.142 Y31.348 E13.3264
G1 X61.147 Y31.358 E13.3269
G1 X61.210 Y31.486 E13.3336
G1 X61.215 Y31.497 E13.3341
G1 X61.683 Y32.530 E13.3869
G1 X81.800 Y32.530 E14.3228
G1 X82.065 Y32.640 E14.3361
G1 X84.610 Y35.185 E14.5036
G1 X84.720 Y35.450 E14.5170
G1 X84.720 Y44.550 E14.9403
G1 X84.610 Y44.815 E14.9537
G1 X82.065 Y47.360 E15.1212
G1 X81.800 Y47.470 E15.1345
G1 X80.720 Y47.470 E15.1847
G1 X80.720 Y47.550 E15.1885
G1 X80.610 Y47.815 E15.2018
G1 X78.065 Y50.360 E15.3693
G1 X77.800 Y50.470 E15.3826
G1 X69.700 Y50.470 E15.7595
G1 X69.435 Y50.360 E15.7728
G1 X66.890 Y47.815 E15.9403
G1 X66.780 Y47.550 E15.9536
G1 X66.780 Y43.970 E16.1202
G1 X63.300 Y43.970 E16.2820
G1 X63.291 Y44.068 E16.2866
G1 X63.289 Y44.080 E16.2872
G1 X63.271 Y44.221 E16.2938
G1 X63.269 Y44.233 E16.2944
G1 X63.059 Y45.503 E16.3543
G1 X63.057 Y45.515 E16.3548
G1 X63.029 Y45.655 E16.3615
G1 X63.027 Y45.666 E16.3620
G1 X62.734 Y46.920 E16.4219
G1 X62.731 Y46.932 E16.4225
G1 X62.694 Y47.070 E16.4291
G1 X62.691 Y47.081 E16.4297
G1 X62.317 Y48.314 E16.4896
G1 X62.314 Y48.325 E16.4901
G1 X62.268 Y48.460 E16.4968
G1 X62.264 Y48.471 E16.4973
G1 X61.810 Y49.676 E16.5572
G1 X61.806 Y49.687 E16.5578
G1 X61.751 Y49.819 E16.5644
G1 X61.747 Y49.830 E16.5650
G1 X61.215 Y51.003 E16.6249
G1 X61.210 Y51.014 E16.6254
G1 X61.147 Y51.142 E16.6321
G1 X61.142 Y51.152 E16.6326
G1 X60.534 Y52.288 E16.6925
G1 X60.529 Y52.298 E16.6931
G1 X60.457 Y52.422 E16.6997
G1 X60.451 Y52.432 E16.7003
G1 X59.771 Y53.526 E16.7602
G1 X59.765 Y53.535 E16.7607
G1 X59.686 Y53.654 E16.7674
G1 X59.679 Y53.664 E16.7679
G1 X58.929 Y54.711 E16.8278
G1 X58.922 Y54.720 E16.8284
G1 X58.835 Y54.833 E16.8350
G1 X58.828 Y54.842 E16.8356
G1 X58.011 Y55.838 E16.8955
G1 X58.003 Y55.847 E16.8960
G1 X57.909 Y55.954 E16.9027
G1 X57.901 Y55.963 E16.9032
G1 X57.021 Y56.903 E16.9631
G1 X57.012 Y56.911 E16.9637
