; G-Code generated by Simplify3D(R) Version 3.1.1
; Jan 2, 2017 at 1:25:45 AM
; Settings Summary
;   processName,Process1
;   applyToModels,bot_mid_joint,top_mid_joint
;   profileName,Rostock MAX v2 (modified)
;   profileVersion,2015-05-01 08:00:00
;   baseProfile,
;   printMaterial,Iron PLA
;   printQuality,Medium
;   printExtruders,
;   extruderName,Primary Extruder
;   extruderToolheadNumber,0
;   extruderDiameter,0.6
;   extruderAutoWidth,1
;   extruderWidth,0.72
;   extrusionMultiplier,1
;   extruderUseRetract,1
;   extruderRetractionDistance,2
;   extruderExtraRestartDistance,-0.2
;   extruderRetractionZLift,0
;   extruderRetractionSpeed,1800
;   extruderUseCoasting,1
;   extruderCoastingDistance,0.5
;   extruderUseWipe,1
;   extruderWipeDistance,5
;   primaryExtruder,0
;   layerHeight,0.3
;   topSolidLayers,3
;   bottomSolidLayers,2
;   perimeterOutlines,2
;   printPerimetersInsideOut,1
;   startPointOption,2
;   startPointOriginX,0
;   startPointOriginY,0
;   startPointOriginZ,300
;   sequentialIslands,0
;   spiralVaseMode,0
;   firstLayerHeightPercentage,20
;   firstLayerWidthPercentage,100
;   firstLayerUnderspeed,0.4
;   useRaft,0
;   raftExtruder,0
;   raftLayers,3
;   raftOffset,15
;   raftSeparationDistance,0.14
;   raftInfill,85
;   disableRaftBaseLayers,0
;   useSkirt,1
;   skirtExtruder,0
;   skirtLayers,1
;   skirtOutlines,2
;   skirtOffset,5
;   usePrimePillar,0
;   primePillarExtruder,999
;   primePillarWidth,12
;   primePillarLocation,7
;   primePillarSpeedMultiplier,1
;   useOozeShield,0
;   oozeShieldExtruder,999
;   oozeShieldOffset,2
;   oozeShieldOutlines,1
;   oozeShieldSidewallShape,1
;   oozeShieldSidewallAngle,30
;   oozeShieldSpeedMultiplier,1
;   infillExtruder,0
;   internalInfillPattern,Fast Honeycomb
;   externalInfillPattern,Rectilinear
;   infillPercentage,50
;   outlineOverlapPercentage,40
;   infillExtrusionWidthPercentage,100
;   minInfillLength,3
;   infillLayerInterval,1
;   infillAngles,0
;   overlapInfillAngles,0
;   generateSupport,0
;   supportExtruder,0
;   supportInfillPercentage,30
;   supportExtraInflation,0
;   denseSupportLayers,0
;   denseSupportInfillPercentage,70
;   supportLayerInterval,1
;   supportHorizontalPartOffset,0.3
;   supportUpperSeparationLayers,1
;   supportLowerSeparationLayers,1
;   supportType,0
;   supportGridSpacing,4
;   maxOverhangAngle,70
;   supportAngles,0
;   temperatureName,Primary Extruder,Heated Bed
;   temperatureNumber,0,1
;   temperatureSetpointCount,1,1
;   temperatureSetpointLayers,1,1
;   temperatureSetpointTemperatures,205,60
;   temperatureStabilizeAtStartup,1,1
;   temperatureHeatedBed,0,1
;   temperatureRelayBetweenLayers,0,0
;   temperatureRelayBetweenLoops,0,0
;   fanLayers,1,2
;   fanSpeeds,0,80
;   blipFanToFullPower,1
;   adjustSpeedForCooling,1
;   minSpeedLayerTime,5
;   minCoolingSpeedSlowdown,80
;   increaseFanForCooling,0
;   minFanLayerTime,60
;   maxCoolingFanSpeed,100
;   increaseFanForBridging,0
;   bridgingFanSpeed,100
;   use5D,1
;   relativeEdistances,0
;   allowEaxisZeroing,1
;   independentExtruderAxes,0
;   includeM10123,0
;   stickySupport,1
;   applyToolheadOffsets,0
;   gcodeXoffset,0
;   gcodeYoffset,0
;   gcodeZoffset,0
;   overrideMachineDefinition,1
;   machineTypeOverride,1
;   strokeXoverride,197
;   strokeYoverride,197
;   strokeZoverride,375
;   originOffsetXoverride,98.5
;   originOffsetYoverride,98.5
;   originOffsetZoverride,0
;   homeXdirOverride,0
;   homeYdirOverride,0
;   homeZdirOverride,1
;   flipXoverride,1
;   flipYoverride,-1
;   flipZoverride,1
;   toolheadOffsets,0,0|0,0|0,0|0,0|0,0|0,0
;   overrideFirmwareConfiguration,1
;   firmwareTypeOverride,RepRap (Marlin/Repetier/Sprinter)
;   GPXconfigOverride,r2
;   baudRateOverride,115200
;   overridePrinterModels,1
;   printerModelsOverride
;   startingGcode,G28 ; home all axes
;   layerChangeGcode,
;   retractionGcode,
;   toolChangeGcode,
;   endingGcode,M104 S0 ; turn off extruder,M140 S0 ; turn off bed,G28 ; home axes,M84 ; disable motors
;   exportFileFormat,gcode
;   celebration,0
;   celebrationSong,Random Song
;   postProcessing,
;   defaultSpeed,2500
;   outlineUnderspeed,0.5
;   solidInfillUnderspeed,0.8
;   supportUnderspeed,0.8
;   rapidXYspeed,9000
;   rapidZspeed,1200
;   minBridgingArea,50
;   bridgingExtraInflation,0
;   bridgingExtrusionMultiplier,0.8
;   bridgingSpeedMultiplier,1.25
;   filamentDiameter,1.75
;   filamentPricePerKg,22
;   filamentDensity,1.25
;   useMinPrintHeight,0
;   minPrintHeight,0.05
;   useMaxPrintHeight,0
;   maxPrintHeight,0
;   useDiaphragm,0
;   diaphragmLayerInterval,20
;   robustSlicing,1
;   mergeAllIntoSolid,0
;   onlyRetractWhenCrossingOutline,0
;   retractBetweenLayers,0
;   useRetractionMinTravel,0
;   retractionMinTravel,3
;   retractWhileWiping,1
;   onlyWipeOutlines,1
;   avoidCrossingOutline,1
;   maxMovementDetourFactor,1.5
;   toolChangeRetractionDistance,12
;   toolChangeExtraRestartDistance,-0.5
;   toolChangeRetractionSpeed,600
;   allowThinWallGapFill,0
;   thinWallAllowedOverlapPercentage,10
;   horizontalSizeCompensation,0
G90
M82
M106 S0
M140 S60
M190 S60
M104 S205 T0
M109 S205 T0
G28 ; home all axes
G92 E0
G1 E-2.0000 F1800
G1 Z0.060 F1200
; layer 1, Z = 0.06
T0
; tool H0.300 W0.720
; skirt
G1 X18.588 Y12.250 F9000
G1 E-0.2000 F540
G92 E0
G1 X26.125 Y19.786 E0.9571 F1000
G1 X26.252 Y20.429 E1.0159
G1 X23.445 Y27.207 E1.6748
G1 X22.900 Y27.571 E1.7337
G1 X-22.900 Y27.571 E5.8466
G1 X-23.445 Y27.207 E5.9054
G1 X-26.252 Y20.429 E6.5643
G1 X-26.125 Y19.786 E6.6232
G1 X-18.588 Y12.250 E7.5803
G1 X-26.125 Y4.714 E8.5374
G1 X-26.252 Y4.071 E8.5962
G1 X-24.566 Y0.000 E8.9919
G1 X-26.252 Y-4.071 E9.3876
G1 X-26.125 Y-4.714 E9.4465
G1 X-18.588 Y-12.250 E10.4036
G1 X-26.125 Y-19.786 E11.3607
G1 X-26.252 Y-20.429 E11.4195
G1 X-23.445 Y-27.207 E12.0784
G1 X-22.900 Y-27.571 E12.1372
G1 X22.900 Y-27.571 E16.2502
G1 X23.445 Y-27.207 E16.3090
G1 X26.252 Y-20.429 E16.9679
G1 X26.125 Y-19.786 E17.0267
G1 X18.588 Y-12.250 E17.9838
G1 X26.125 Y-4.714 E18.9409
G1 X26.252 Y-4.071 E18.9998
G1 X24.566 Y0.000 E19.3955
G1 X26.252 Y4.071 E19.7912
G1 X26.125 Y4.714 E19.8501
G1 X18.942 Y11.896 E20.7622
G1 X18.588 Y12.250 F1000
G92 E0
G1 E-2.0000 F1800
G1 X17.570 Y12.250 F9000
G1 E-0.2000 F1800
G92 E0
G1 X25.461 Y20.141 E1.0021 F1000
G1 X25.504 Y20.355 E1.0218
G1 X22.863 Y26.730 E1.6414
G1 X22.682 Y26.851 E1.6610
G1 X-22.682 Y26.851 E5.7347
G1 X-22.863 Y26.730 E5.7543
G1 X-25.504 Y20.355 E6.3740
G1 X-25.461 Y20.141 E6.3936
G1 X-17.570 Y12.250 E7.3958
G1 X-25.461 Y4.359 E8.3979
G1 X-25.504 Y4.145 E8.4175
G1 X-23.787 Y0.000 E8.8204
G1 X-25.504 Y-4.145 E9.2233
G1 X-25.461 Y-4.359 E9.2429
G1 X-17.570 Y-12.250 E10.2450
G1 X-25.461 Y-20.141 E11.2472
G1 X-25.504 Y-20.355 E11.2668
G1 X-22.863 Y-26.730 E11.8865
G1 X-22.682 Y-26.851 E11.9061
G1 X22.682 Y-26.851 E15.9798
G1 X22.863 Y-26.730 E15.9994
G1 X25.504 Y-20.355 E16.6190
G1 X25.461 Y-20.141 E16.6387
G1 X17.570 Y-12.250 E17.6408
G1 X25.461 Y-4.359 E18.6429
G1 X25.504 Y-4.145 E18.6625
G1 X23.787 Y0.000 E19.0654
G1 X25.504 Y4.145 E19.4683
G1 X25.461 Y4.359 E19.4879
G1 X17.924 Y11.896 E20.4452
G1 X17.570 Y12.250 F1000
G92 E0
G1 E-2.0000 F1800
; inner perimeter
G1 X16.624 Y20.411 F9000
G1 E-0.2000 F1800
G92 E0
G1 X-16.624 Y20.411 E2.9858 F750
G1 X-8.463 Y12.250 E4.0223
G1 X-16.624 Y4.089 E5.0588
G1 X16.624 Y4.089 E8.0445
G1 X8.463 Y12.250 E9.0810
G1 X16.271 Y20.058 E10.0726
G1 X16.624 Y20.411 F750
G92 E0
G1 E-2.0000 F1800
; outer perimeter
G1 X9.481 Y12.250 F9000
G1 E-0.2000 F1800
G92 E0
G1 X18.362 Y21.131 E1.1279 F500
G1 X-18.362 Y21.131 E4.4259
G1 X-9.481 Y12.250 E5.5538
G1 X-18.362 Y3.369 E6.6818
G1 X18.362 Y3.369 E9.9797
G1 X9.834 Y11.896 E11.0628
G1 X9.481 Y12.250 F500
G92 E0
G1 X11.445 Y14.214 E-2.0000 F2500
G1 X13.016 Y15.786 F2500
; solid layer
G1 X13.018 Y15.777 F9000
G1 X9.491 Y12.250 F9000
G1 X14.260 Y7.481 F9000
G1 X14.703 Y4.521 F9000
G1 E-0.2000 F1800
G92 E0
G1 X15.142 Y4.960 E0.0558 F800
G1 X14.633 Y5.469 E0.1204
G1 X13.685 Y4.521 E0.2408
G1 X12.666 Y4.521 E0.3323
G1 X14.124 Y5.978 E0.5174
G1 X13.615 Y6.487 E0.5820
G1 X11.648 Y4.521 E0.8318
G1 X10.630 Y4.521 E0.9232
G1 X13.106 Y6.996 E1.2376
G1 X12.596 Y7.505 E1.3022
G1 X9.612 Y4.521 E1.6813
G1 X8.594 Y4.521 E1.7727
G1 X12.087 Y8.014 E2.2165
G1 X11.578 Y8.524 E2.2811
G1 X7.575 Y4.521 E2.7895
G1 X6.557 Y4.521 E2.8809
G1 X11.069 Y9.033 E3.4539
G1 X10.560 Y9.542 E3.5186
G1 X5.539 Y4.521 E4.1563
G1 X4.521 Y4.521 E4.2477
G1 X10.051 Y10.051 E4.9501
G1 X9.542 Y10.560 E5.0147
G1 X3.502 Y4.521 E5.7817
G1 X2.484 Y4.521 E5.8732
G1 X9.033 Y11.069 E6.7048
G1 X8.524 Y11.578 E6.7695
G1 X1.466 Y4.521 E7.6658
G1 X0.448 Y4.521 E7.7572
G1 X8.014 Y12.087 E8.7182
G1 X7.852 Y12.250 E8.7389
G1 X15.581 Y19.979 E9.7205
G1 X14.888 Y19.979 E9.7827
G1 X-0.571 Y4.521 E11.7460
G1 X-1.589 Y4.521 E11.8374
G1 X13.870 Y19.979 E13.8007
G1 X12.852 Y19.979 E13.8921
G1 X-2.607 Y4.521 E15.8554
G1 X-3.625 Y4.521 E15.9468
G1 X11.834 Y19.979 E17.9101
G1 X10.815 Y19.979 E18.0015
G1 X-4.643 Y4.521 E19.9648
G1 X-5.662 Y4.521 E20.0562
G1 X9.797 Y19.979 E22.0195
G1 X8.779 Y19.979 E22.1109
G1 X-6.680 Y4.521 E24.0742
G1 X-7.698 Y4.521 E24.1656
G1 X7.761 Y19.979 E26.1289
G1 X6.742 Y19.979 E26.2203
G1 X-8.716 Y4.521 E28.1836
G1 X-9.735 Y4.521 E28.2750
G1 X5.724 Y19.979 E30.2383
G1 X4.706 Y19.979 E30.3297
G1 X-10.753 Y4.521 E32.2930
G1 X-11.771 Y4.521 E32.3844
G1 X3.688 Y19.979 E34.3477
G1 X2.669 Y19.979 E34.4392
G1 X-12.789 Y4.521 E36.4024
G1 X-13.808 Y4.521 E36.4939
G1 X1.651 Y19.979 E38.4571
G1 X0.633 Y19.979 E38.5486
G1 X-14.826 Y4.521 E40.5118
G1 X-15.581 Y4.521 E40.5796
G1 X-7.852 Y12.250 E41.5613
G1 X-7.983 Y12.381 E41.5780
G1 X-0.385 Y19.979 E42.5429
G1 X-1.403 Y19.979 E42.6344
G1 X-8.492 Y12.891 E43.5346
G1 X-9.001 Y13.400 E43.5993
G1 X-2.422 Y19.979 E44.4349
G1 X-3.440 Y19.979 E44.5263
G1 X-9.511 Y13.909 E45.2973
G1 X-10.020 Y14.418 E45.3620
G1 X-4.458 Y19.979 E46.0683
G1 X-5.476 Y19.979 E46.1597
G1 X-10.529 Y14.927 E46.8014
G1 X-11.038 Y15.436 E46.8660
G1 X-6.495 Y19.979 E47.4430
G1 X-7.513 Y19.979 E47.5344
G1 X-11.547 Y15.945 E48.0468
G1 X-12.056 Y16.454 E48.1114
G1 X-8.531 Y19.979 E48.5591
G1 X-9.549 Y19.979 E48.6505
G1 X-12.565 Y16.964 E49.0336
G1 X-13.074 Y17.473 E49.0982
G1 X-10.568 Y19.979 E49.4166
G1 X-11.586 Y19.979 E49.5080
G1 X-13.583 Y17.982 E49.7617
G1 X-14.093 Y18.491 E49.8264
G1 X-12.604 Y19.979 E50.0154
G1 X-13.622 Y19.979 E50.1069
G1 X-14.602 Y19.000 E50.2312
G1 X-15.111 Y19.509 E50.2959
G1 X-14.994 Y19.626 E50.3107
G1 X-14.641 Y19.979 F800
G92 E0
G1 E-2.0000 F1800
; inner perimeter
G1 X-14.837 Y17.596 F9000
G1 X-9.491 Y12.250 F9000
G1 X-15.797 Y5.944 F9000
G1 X-16.624 Y-4.089 F9000
G1 E-0.2000 F1800
G92 E0
G1 X-8.463 Y-12.250 E1.0365 F750
G1 X-16.624 Y-20.411 E2.0730
G1 X16.624 Y-20.411 E5.0588
G1 X8.463 Y-12.250 E6.0952
G1 X16.624 Y-4.089 E7.1317
G1 X-16.124 Y-4.089 E10.0726
G1 X-16.624 Y-4.089 F750
G92 E0
G1 E-2.0000 F1800
; outer perimeter
G1 X-18.362 Y-3.369 F9000
G1 E-0.2000 F1800
G92 E0
G1 X-9.481 Y-12.250 E1.1279 F500
G1 X-18.362 Y-21.131 E2.2559
G1 X18.362 Y-21.131 E5.5538
G1 X9.481 Y-12.250 E6.6818
G1 X18.362 Y-3.369 E7.8097
G1 X-17.862 Y-3.369 E11.0628
G1 X-18.362 Y-3.369 F500
G92 E0
G1 X-16.398 Y-5.333 E-2.0000 F2500
G1 X-14.827 Y-6.904 F2500
; solid layer
G1 X-14.703 Y-4.521 F9000
G1 E-0.2000 F1800
G92 E0
G1 X-15.142 Y-4.960 E0.0558 F800
G1 X-14.633 Y-5.469 E0.1204
G1 X-13.685 Y-4.521 E0.2408
G1 X-12.666 Y-4.521 E0.3323
G1 X-14.124 Y-5.978 E0.5174
G1 X-13.615 Y-6.487 E0.5820
G1 X-11.648 Y-4.521 E0.8318
G1 X-10.630 Y-4.521 E0.9232
G1 X-13.106 Y-6.996 E1.2376
G1 X-12.596 Y-7.505 E1.3023
G1 X-9.612 Y-4.521 E1.6813
G1 X-8.594 Y-4.521 E1.7728
G1 X-12.087 Y-8.014 E2.2165
G1 X-11.578 Y-8.524 E2.2811
G1 X-7.575 Y-4.521 E2.7895
G1 X-6.557 Y-4.521 E2.8809
G1 X-11.069 Y-9.033 E3.4540
G1 X-10.560 Y-9.542 E3.5186
G1 X-5.539 Y-4.521 E4.1563
G1 X-4.521 Y-4.521 E4.2477
G1 X-10.051 Y-10.051 E4.9501
G1 X-9.542 Y-10.560 E5.0147
G1 X-3.502 Y-4.521 E5.7817
G1 X-2.484 Y-4.521 E5.8732
G1 X-9.033 Y-11.069 E6.7048
G1 X-8.524 Y-11.578 E6.7695
G1 X-1.466 Y-4.521 E7.6658
G1 X-0.448 Y-4.521 E7.7573
G1 X-8.014 Y-12.087 E8.7182
G1 X-7.852 Y-12.250 E8.7389
G1 X-15.581 Y-19.979 E9.7205
G1 X-14.888 Y-19.979 E9.7827
G1 X0.571 Y-4.521 E11.7460
G1 X1.589 Y-4.521 E11.8374
G1 X-13.870 Y-19.979 E13.8007
G1 X-12.852 Y-19.979 E13.8921
G1 X2.607 Y-4.521 E15.8554
G1 X3.625 Y-4.521 E15.9468
G1 X-11.834 Y-19.979 E17.9101
G1 X-10.815 Y-19.979 E18.0015
G1 X4.644 Y-4.521 E19.9648
G1 X5.662 Y-4.521 E20.0562
G1 X-9.797 Y-19.979 E22.0195
G1 X-8.779 Y-19.979 E22.1109
G1 X6.680 Y-4.521 E24.0742
G1 X7.698 Y-4.521 E24.1657
G1 X-7.761 Y-19.979 E26.1289
G1 X-6.742 Y-19.979 E26.2204
G1 X8.716 Y-4.521 E28.1836
G1 X9.735 Y-4.521 E28.2751
G1 X-5.724 Y-19.979 E30.2383
G1 X-4.706 Y-19.979 E30.3298
G1 X10.753 Y-4.521 E32.2930
G1 X11.771 Y-4.521 E32.3845
G1 X-3.688 Y-19.979 E34.3477
G1 X-2.669 Y-19.979 E34.4392
G1 X12.789 Y-4.521 E36.4024
G1 X13.808 Y-4.521 E36.4939
G1 X-1.651 Y-19.979 E38.4571
G1 X-0.633 Y-19.979 E38.5486
G1 X14.826 Y-4.521 E40.5118
G1 X15.581 Y-4.521 E40.5796
G1 X7.852 Y-12.250 E41.5613
G1 X7.983 Y-12.381 E41.5780
G1 X0.385 Y-19.979 E42.5429
G1 X1.404 Y-19.979 E42.6344
G1 X8.492 Y-12.891 E43.5346
G1 X9.001 Y-13.400 E43.5993
G1 X2.422 Y-19.979 E44.4349
G1 X3.440 Y-19.979 E44.5263
G1 X9.511 Y-13.909 E45.2973
G1 X10.020 Y-14.418 E45.3620
G1 X4.458 Y-19.979 E46.0683
G1 X5.476 Y-19.979 E46.1597
G1 X10.529 Y-14.927 E46.8013
G1 X11.038 Y-15.436 E46.8660
G1 X6.495 Y-19.979 E47.4430
G1 X7.513 Y-19.979 E47.5344
G1 X11.547 Y-15.945 E48.0468
G1 X12.056 Y-16.454 E48.1114
G1 X8.531 Y-19.979 E48.5591
G1 X9.549 Y-19.979 E48.6505
G1 X12.565 Y-16.964 E49.0335
G1 X13.074 Y-17.473 E49.0982
G1 X10.568 Y-19.979 E49.4166
G1 X11.586 Y-19.979 E49.5080
G1 X13.583 Y-17.982 E49.7617
G1 X14.093 Y-18.491 E49.8263
G1 X12.604 Y-19.979 E50.0154
G1 X13.622 Y-19.979 E50.1068
G1 X14.602 Y-19.000 E50.2312
G1 X15.111 Y-19.509 E50.2959
G1 X14.994 Y-19.626 E50.3107
G1 X14.641 Y-19.979 F800
G92 E0
G1 E-2.0000 F1800
; layer 2, Z = 0.36
M106 S204
; inner perimeter
G1 X17.050 Y-20.588 F9000
G1 Z0.360 F1200
G1 E-0.2000 F1800
G92 E0
G1 X8.712 Y-12.250 E1.0589 F1875
G1 X17.050 Y-3.912 E2.1178
G1 X-17.050 Y-3.912 E5.1800
G1 X-8.712 Y-12.250 E6.2389
G1 X-17.050 Y-20.588 E7.2978
G1 X16.550 Y-20.588 E10.3152
G1 X17.050 Y-20.588 F1875
G92 E0
G1 E-2.0000 F1800
; outer perimeter
G1 X18.788 Y-21.308 F9000
G1 E-0.2000 F1800
G92 E0
G1 X9.730 Y-12.250 E1.1503 F1250
G1 X18.788 Y-3.192 E2.3007
G1 X-18.788 Y-3.192 E5.6751
G1 X-9.730 Y-12.250 E6.8255
G1 X-18.788 Y-21.308 E7.9758
G1 X18.288 Y-21.308 E11.3053
G1 X18.788 Y-21.308 F1250
G92 E0
G1 X16.824 Y-19.344 E-2.0000 F2500
G1 X15.253 Y-17.772 F2500
; solid layer
G1 X15.253 Y-17.762 F9000
G1 X9.741 Y-12.250 F9000
G1 X15.708 Y-6.282 F9000
G1 X15.776 Y-4.575 F9000
G1 E-0.2000 F1800
G92 E0
G1 X15.545 Y-4.344 E0.0293 F2000
G1 X14.527 Y-4.344 E0.1208
G1 X15.267 Y-5.084 E0.2148
G1 X14.758 Y-5.594 E0.2795
G1 X13.508 Y-4.344 E0.4381
G1 X12.490 Y-4.344 E0.5296
G1 X14.249 Y-6.103 E0.7529
G1 X13.739 Y-6.612 E0.8175
G1 X11.472 Y-4.344 E1.1055
G1 X10.454 Y-4.344 E1.1970
G1 X13.230 Y-7.121 E1.5496
G1 X12.721 Y-7.630 E1.6142
G1 X9.435 Y-4.344 E2.0315
G1 X8.417 Y-4.344 E2.1230
G1 X12.212 Y-8.139 E2.6049
G1 X11.703 Y-8.648 E2.6696
G1 X7.399 Y-4.344 E3.2162
G1 X6.381 Y-4.344 E3.3076
G1 X11.194 Y-9.157 E3.9189
G1 X10.685 Y-9.666 E3.9836
G1 X5.362 Y-4.344 E4.6595
G1 X4.344 Y-4.344 E4.7509
G1 X10.176 Y-10.176 E5.4915
G1 X9.666 Y-10.685 E5.5562
G1 X3.326 Y-4.344 E6.3614
G1 X2.308 Y-4.344 E6.4529
G1 X9.157 Y-11.194 E7.3228
G1 X8.648 Y-11.703 E7.3874
G1 X1.290 Y-4.344 E8.3220
G1 X0.271 Y-4.344 E8.4134
G1 X8.139 Y-12.212 E9.4126
G1 X8.101 Y-12.250 E9.4174
G1 X16.007 Y-20.156 E10.4215
G1 X15.065 Y-20.156 E10.5061
G1 X-0.747 Y-4.344 E12.5142
G1 X-1.765 Y-4.344 E12.6056
G1 X14.046 Y-20.156 E14.6137
G1 X13.028 Y-20.156 E14.7051
G1 X-2.783 Y-4.344 E16.7132
G1 X-3.802 Y-4.344 E16.8046
G1 X12.010 Y-20.156 E18.8127
G1 X10.992 Y-20.156 E18.9041
G1 X-4.820 Y-4.344 E20.9122
G1 X-5.838 Y-4.344 E21.0036
G1 X9.973 Y-20.156 E23.0117
G1 X8.955 Y-20.156 E23.1031
