; G-Code generated by Simplify3D(R) Version 3.1.1
; Dec 25, 2016 at 9:14:31 PM
; Settings Summary
;   processName,Process1
;   applyToModels,neck
;   profileName,Rostock MAX v2 (modified)
;   profileVersion,2015-05-01 08:00:00
;   baseProfile,
;   printMaterial,Iron PLA
;   printQuality,Medium
;   printExtruders,
;   extruderName,Primary Extruder
;   extruderToolheadNumber,0
;   extruderDiameter,0.6
;   extruderAutoWidth,1
;   extruderWidth,0.72
;   extrusionMultiplier,1.1
;   extruderUseRetract,1
;   extruderRetractionDistance,2
;   extruderExtraRestartDistance,-0.2
;   extruderRetractionZLift,0
;   extruderRetractionSpeed,1800
;   extruderUseCoasting,1
;   extruderCoastingDistance,0.5
;   extruderUseWipe,0
;   extruderWipeDistance,5
;   primaryExtruder,0
;   layerHeight,0.3
;   topSolidLayers,2
;   bottomSolidLayers,2
;   perimeterOutlines,2
;   printPerimetersInsideOut,1
;   startPointOption,2
;   startPointOriginX,0
;   startPointOriginY,0
;   startPointOriginZ,300
;   sequentialIslands,0
;   spiralVaseMode,0
;   firstLayerHeightPercentage,25
;   firstLayerWidthPercentage,100
;   firstLayerUnderspeed,0.4
;   useRaft,0
;   raftExtruder,0
;   raftLayers,3
;   raftOffset,15
;   raftSeparationDistance,0.14
;   raftInfill,85
;   disableRaftBaseLayers,0
;   useSkirt,0
;   skirtExtruder,0
;   skirtLayers,1
;   skirtOutlines,1
;   skirtOffset,5
;   usePrimePillar,0
;   primePillarExtruder,999
;   primePillarWidth,12
;   primePillarLocation,7
;   primePillarSpeedMultiplier,1
;   useOozeShield,0
;   oozeShieldExtruder,999
;   oozeShieldOffset,2
;   oozeShieldOutlines,1
;   oozeShieldSidewallShape,1
;   oozeShieldSidewallAngle,30
;   oozeShieldSpeedMultiplier,1
;   infillExtruder,0
;   internalInfillPattern,Rectilinear
;   externalInfillPattern,Rectilinear
;   infillPercentage,50
;   outlineOverlapPercentage,40
;   infillExtrusionWidthPercentage,100
;   minInfillLength,3
;   infillLayerInterval,1
;   infillAngles,45,-45
;   overlapInfillAngles,0
;   generateSupport,0
;   supportExtruder,0
;   supportInfillPercentage,40
;   supportExtraInflation,0
;   denseSupportLayers,0
;   denseSupportInfillPercentage,70
;   supportLayerInterval,1
;   supportHorizontalPartOffset,0.5
;   supportUpperSeparationLayers,1
;   supportLowerSeparationLayers,1
;   supportType,0
;   supportGridSpacing,3
;   maxOverhangAngle,70
;   supportAngles,0
;   temperatureName,Primary Extruder,Heated Bed
;   temperatureNumber,0,1
;   temperatureSetpointCount,1,1
;   temperatureSetpointLayers,1,1
;   temperatureSetpointTemperatures,215,60
;   temperatureStabilizeAtStartup,1,1
;   temperatureHeatedBed,0,1
;   temperatureRelayBetweenLayers,0,0
;   temperatureRelayBetweenLoops,0,0
;   fanLayers,1,2
;   fanSpeeds,0,80
;   blipFanToFullPower,1
;   adjustSpeedForCooling,1
;   minSpeedLayerTime,5
;   minCoolingSpeedSlowdown,80
;   increaseFanForCooling,0
;   minFanLayerTime,60
;   maxCoolingFanSpeed,100
;   increaseFanForBridging,0
;   bridgingFanSpeed,100
;   use5D,1
;   relativeEdistances,0
;   allowEaxisZeroing,1
;   independentExtruderAxes,0
;   includeM10123,0
;   stickySupport,1
;   applyToolheadOffsets,0
;   gcodeXoffset,0
;   gcodeYoffset,0
;   gcodeZoffset,0
;   overrideMachineDefinition,1
;   machineTypeOverride,1
;   strokeXoverride,197
;   strokeYoverride,197
;   strokeZoverride,375
;   originOffsetXoverride,98.5
;   originOffsetYoverride,98.5
;   originOffsetZoverride,0
;   homeXdirOverride,0
;   homeYdirOverride,0
;   homeZdirOverride,1
;   flipXoverride,1
;   flipYoverride,-1
;   flipZoverride,1
;   toolheadOffsets,0,0|0,0|0,0|0,0|0,0|0,0
;   overrideFirmwareConfiguration,1
;   firmwareTypeOverride,RepRap (Marlin/Repetier/Sprinter)
;   GPXconfigOverride,r2
;   baudRateOverride,115200
;   overridePrinterModels,1
;   printerModelsOverride
;   startingGcode,G28 ; home all axes
;   layerChangeGcode,
;   retractionGcode,
;   toolChangeGcode,
;   endingGcode,M104 S0 ; turn off extruder,M140 S0 ; turn off bed,G28 ; home axes,M84 ; disable motors
;   exportFileFormat,gcode
;   celebration,0
;   celebrationSong,Random Song
;   postProcessing,
;   defaultSpeed,1000
;   outlineUnderspeed,0.5
;   solidInfillUnderspeed,0.8
;   supportUnderspeed,0.8
;   rapidXYspeed,9000
;   rapidZspeed,1200
;   minBridgingArea,50
;   bridgingExtraInflation,0
;   bridgingExtrusionMultiplier,0.8
;   bridgingSpeedMultiplier,1.25
;   filamentDiameter,1.75
;   filamentPricePerKg,22
;   filamentDensity,1.25
;   useMinPrintHeight,0
;   minPrintHeight,0.05
;   useMaxPrintHeight,0
;   maxPrintHeight,0
;   useDiaphragm,0
;   diaphragmLayerInterval,20
;   robustSlicing,1
;   mergeAllIntoSolid,0
;   onlyRetractWhenCrossingOutline,0
;   retractBetweenLayers,0
;   useRetractionMinTravel,0
;   retractionMinTravel,3
;   retractWhileWiping,1
;   onlyWipeOutlines,1
;   avoidCrossingOutline,1
;   maxMovementDetourFactor,1.5
;   toolChangeRetractionDistance,12
;   toolChangeExtraRestartDistance,-0.5
;   toolChangeRetractionSpeed,600
;   allowThinWallGapFill,0
;   thinWallAllowedOverlapPercentage,10
;   horizontalSizeCompensation,0
G90
M82
M106 S0
M140 S60
M190 S60
M104 S215 T0
M109 S215 T0
G28 ; home all axes
G92 E0
G1 E-2.0000 F1800
G1 Z0.075 F1200
; layer 1, Z = 0.075
T0
; tool H0.300 W0.720
; inner perimeter
G1 X4.104 Y-10.895 F9000
G1 E-0.2000 F540
G92 E0
G1 X-4.632 Y-13.301 E0.8951 F300
G1 X-9.009 Y-14.477 E1.3428
G1 X-17.760 Y-16.808 E2.2374
G1 X-29.045 Y-19.766 E3.3898
G1 X-35.271 Y-21.379 E4.0252
G1 X-42.428 Y-23.180 E4.7542
G1 X-38.736 Y-19.699 E5.2554
G1 X-38.189 Y-19.141 E5.3327
G1 X-37.660 Y-18.558 E5.4104
G1 X-36.892 Y-17.631 E5.5293
G1 X-36.176 Y-16.658 E5.6486
G1 X-35.735 Y-15.998 E5.7271
G1 X-35.106 Y-14.954 E5.8474
G1 X-34.726 Y-14.253 E5.9262
G1 X-34.193 Y-13.151 E6.0471
G1 X-33.876 Y-12.410 E6.1267
G1 X-33.584 Y-11.652 E6.2070
G1 X-33.320 Y-10.887 E6.2869
G1 X-32.972 Y-9.705 E6.4086
G1 X-32.778 Y-8.916 E6.4889
G1 X-32.612 Y-8.120 E6.5692
G1 X-32.415 Y-6.902 E6.6911
G1 X-32.284 Y-5.673 E6.8132
G1 X-32.233 Y-4.858 E6.8939
G1 X-32.212 Y-4.040 E6.9747
G1 X-32.234 Y-2.800 E7.0972
G1 X-32.323 Y-1.562 E7.2198
G1 X-32.418 Y-0.748 E7.3008
G1 X-32.542 Y0.068 E7.3823
G1 X-32.695 Y0.874 E7.4634
G1 X-32.981 Y2.089 E7.5866
G1 X-33.204 Y2.878 E7.6677
G1 X-33.455 Y3.660 E7.7487
G1 X-33.888 Y4.829 E7.8719
G1 X-34.205 Y5.579 E7.9524
G1 X-34.740 Y6.704 E8.0754
G1 X-35.124 Y7.426 E8.1562
G1 X-35.532 Y8.134 E8.2369
G1 X-36.201 Y9.180 E8.3596
G1 X-36.670 Y9.847 E8.4401
G1 X-37.165 Y10.499 E8.5210
G1 X-37.680 Y11.128 E8.6013
G1 X-38.503 Y12.048 E8.7232
G1 X-39.066 Y12.623 E8.8027
G1 X-39.966 Y13.461 E8.9242
G1 X-40.581 Y13.983 E9.0038
G1 X-41.217 Y14.485 E9.0839
G1 X-41.866 Y14.959 E9.1633
G1 X-42.883 Y15.633 E9.2838
G1 X-43.565 Y16.041 E9.3624
G1 X-44.636 Y16.616 E9.4824
G1 X-45.350 Y16.957 E9.5606
G1 X-46.464 Y17.428 E9.6801
G1 X-47.204 Y17.700 E9.7579
G1 X-48.353 Y18.062 E9.8769
G1 X-49.117 Y18.264 E9.9550
G1 X-49.891 Y18.438 E10.0334
G1 X-50.666 Y18.581 E10.1112
G1 X-51.852 Y18.742 E10.2295
G1 X-52.635 Y18.810 E10.3070
G1 X-53.418 Y18.849 E10.3845
G1 X-54.606 Y18.850 E10.5019
G1 X-55.791 Y18.783 E10.6191
G1 X-56.569 Y18.701 E10.6964
G1 X-57.348 Y18.589 E10.7741
G1 X-58.122 Y18.447 E10.8519
G1 X-58.884 Y18.277 E10.9290
G1 X-60.032 Y17.961 E11.0466
G1 X-60.770 Y17.720 E11.1233
G1 X-61.878 Y17.297 E11.2405
G1 X-62.961 Y16.811 E11.3577
G1 X-63.659 Y16.456 E11.4351
G1 X-64.344 Y16.074 E11.5126
G1 X-65.355 Y15.446 E11.6302
G1 X-66.330 Y14.759 E11.7480
G1 X-66.952 Y14.276 E11.8258
G1 X-67.556 Y13.768 E11.9037
G1 X-68.440 Y12.951 E12.0226
G1 X-68.992 Y12.390 E12.1003
G1 X-69.794 Y11.494 E12.2191
G1 X-70.547 Y10.552 E12.3383
G1 X-71.015 Y9.906 E12.4171
G1 X-71.460 Y9.243 E12.4959
G1 X-72.088 Y8.205 E12.6158
G1 X-72.659 Y7.131 E12.7360
G1 X-73.002 Y6.408 E12.8150
G1 X-73.477 Y5.277 E12.9362
G1 X-73.754 Y4.523 E13.0155
G1 X-74.125 Y3.348 E13.1372
G1 X-74.333 Y2.569 E13.2168
G1 X-74.598 Y1.362 E13.3390
G1 X-74.736 Y0.564 E13.4189
G1 X-74.892 Y-0.666 E13.5414
G1 X-74.958 Y-1.475 E13.6216
G1 X-75.003 Y-2.717 E13.7444
G1 X-74.997 Y-3.531 E13.8248
G1 X-74.932 Y-4.775 E13.9478
G1 X-74.854 Y-5.586 E14.0284
G1 X-74.679 Y-6.821 E14.1516
G1 X-74.529 Y-7.623 E14.2321
G1 X-74.246 Y-8.833 E14.3549
G1 X-73.900 Y-10.027 E14.4777
G1 X-73.638 Y-10.799 E14.5582
G1 X-73.186 Y-11.961 E14.6814
G1 X-72.855 Y-12.711 E14.7623
G1 X-72.498 Y-13.448 E14.8432
G1 X-71.906 Y-14.542 E14.9661
G1 X-71.486 Y-15.242 E15.0468
G1 X-71.039 Y-15.931 E15.1279
G1 X-70.568 Y-16.602 E15.2089
G1 X-70.077 Y-17.252 E15.2893
G1 X-69.288 Y-18.203 E15.4114
G1 X-68.743 Y-18.803 E15.4915
G1 X-68.173 Y-19.386 E15.5720
G1 X-67.584 Y-19.947 E15.6524
G1 X-66.979 Y-20.482 E15.7321
G1 X-66.025 Y-21.251 E15.8532
G1 X-65.381 Y-21.724 E15.9321
G1 X-64.365 Y-22.400 E16.0527
G1 X-63.683 Y-22.809 E16.1312
G1 X-62.618 Y-23.383 E16.2507
G1 X-61.530 Y-23.894 E16.3695
G1 X-60.418 Y-24.341 E16.4879
G1 X-59.280 Y-24.726 E16.6065
G1 X-58.525 Y-24.942 E16.6841
G1 X-57.361 Y-25.217 E16.8023
G1 X-56.190 Y-25.424 E16.9197
G1 X-55.012 Y-25.563 E17.0369
G1 X-53.829 Y-25.635 E17.1540
G1 X-52.658 Y-25.639 E17.2697
G1 X-51.478 Y-25.575 E17.3864
G1 X-50.299 Y-25.442 E17.5036
G1 X-49.533 Y-25.319 E17.5803
G1 X-47.316 Y-24.851 E17.8041
G1 X-45.993 Y-30.330 E18.3609
G1 X-76.756 Y-40.394 E21.5583
G1 X-77.302 Y-39.081 E21.6987
G1 X-77.370 Y-38.956 E21.7127
G1 X-77.522 Y-38.722 E21.7404
G1 X-77.623 Y-38.589 E21.7568
G1 X-77.815 Y-38.373 E21.7854
G1 X-78.136 Y-38.076 E21.8286
G1 X-78.295 Y-37.950 E21.8487
G1 X-78.583 Y-37.749 E21.8833
G1 X-79.155 Y-37.419 E21.9486
G1 X-79.816 Y-37.117 E22.0203
G1 X-80.401 Y-36.901 E22.0819
G1 X-81.230 Y-36.655 E22.1674
G1 X-81.944 Y-36.486 E22.2399
G1 X-82.923 Y-36.307 E22.3381
G1 X-83.974 Y-36.169 E22.4429
G1 X-85.343 Y-36.058 E22.5785
G1 X-86.302 Y-36.018 E22.6734
G1 X-87.308 Y-36.005 E22.7727
G1 X-88.348 Y-36.021 E22.8755
G1 X-89.989 Y-36.097 E23.0377
G1 X-91.116 Y-36.182 E23.1494
G1 X-92.277 Y-36.295 E23.2646
G1 X-93.465 Y-36.435 E23.3828
G1 X-94.677 Y-36.603 E23.5037
G1 X-95.912 Y-36.799 E23.6272
G1 X-97.172 Y-37.022 E23.7536
G1 X-99.085 Y-37.404 E23.9463
G1 X-101.025 Y-37.844 E24.1428
G1 X-102.322 Y-38.166 E24.2749
G1 X-104.288 Y-38.697 E24.4760
G1 X-105.596 Y-39.078 E24.6106
G1 X-106.900 Y-39.481 E24.7454
G1 X-108.855 Y-40.126 E24.9488
G1 X-110.142 Y-40.579 E25.0835
G1 X-111.419 Y-41.051 E25.2180
G1 X-112.679 Y-41.541 E25.3516
G1 X-114.541 Y-42.307 E25.5504
G1 X-116.353 Y-43.106 E25.7461
G1 X-117.525 Y-43.653 E25.8738
G1 X-119.230 Y-44.495 E26.0617
G1 X-120.326 Y-45.068 E26.1839
G1 X-121.916 Y-45.949 E26.3634
G1 X-122.923 Y-46.542 E26.4788
G1 X-123.890 Y-47.139 E26.5911
G1 X-125.266 Y-48.045 E26.7538
G1 X-126.540 Y-48.954 E26.9085
G1 X-127.325 Y-49.556 E27.0061
G1 X-128.060 Y-50.155 E27.0998
G1 X-128.909 Y-50.901 E27.2114
G1 X-129.672 Y-51.634 E27.3160
G1 X-130.347 Y-52.353 E27.4134
G1 X-130.933 Y-53.053 E27.5036
G1 X-131.427 Y-53.730 E27.5863
G1 X-131.829 Y-54.377 E27.6616
G1 X-132.139 Y-54.991 E27.7296
G1 X-132.364 Y-55.578 E27.7917
G1 X-132.453 Y-55.897 E27.8244
G1 X-132.494 Y-56.090 E27.8439
G1 X-132.539 Y-56.402 E27.8750
G1 X-132.551 Y-56.574 E27.8921
G1 X-132.550 Y-56.861 E27.9204
G1 X-132.537 Y-57.016 E27.9357
G1 X-132.493 Y-57.281 E27.9623
G1 X-132.457 Y-57.423 E27.9768
G1 X-132.370 Y-57.672 E28.0028
G1 X-132.307 Y-57.815 E28.0182
G1 X-132.233 Y-57.956 E28.0340
G1 X-132.084 Y-58.191 E28.0615
G1 X-131.985 Y-58.324 E28.0778
G1 X-131.787 Y-58.551 E28.1077
G1 X-131.654 Y-58.683 E28.1261
G1 X-131.416 Y-58.890 E28.1573
G1 X-130.926 Y-59.239 E28.2167
G1 X-130.347 Y-59.562 E28.2822
G1 X-129.812 Y-59.804 E28.3402
G1 X-129.696 Y-59.851 E28.3526
G1 X-129.236 Y-60.020 E28.4009
G1 X-128.761 Y-60.171 E28.4503
G1 X-128.066 Y-60.356 E28.5213
G1 X-127.517 Y-60.478 E28.5768
G1 X-126.929 Y-60.587 E28.6359
G1 X-126.326 Y-60.680 E28.6962
G1 X-125.013 Y-60.826 E28.8266
G1 X-123.606 Y-60.909 E28.9659
G1 X-122.103 Y-60.931 E29.1144
G1 X-120.513 Y-60.890 E29.2715
G1 X-118.845 Y-60.787 E29.4366
G1 X-117.105 Y-60.620 E29.6092
G1 X-115.916 Y-60.475 E29.7276
G1 X-114.701 Y-60.302 E29.8488
G1 X-112.834 Y-59.992 E30.0357
G1 X-110.931 Y-59.623 E30.2272
G1 X-108.999 Y-59.197 E30.4227
G1 X-107.047 Y-58.715 E30.6213
G1 X-105.085 Y-58.179 E30.8222
G1 X-103.122 Y-57.593 E31.0246
G1 X-101.168 Y-56.959 E31.2275
G1 X-99.232 Y-56.281 E31.4302
G1 X-97.958 Y-55.806 E31.5644
G1 X-96.701 Y-55.314 E31.6978
G1 X-94.845 Y-54.544 E31.8963
G1 X-93.040 Y-53.742 E32.0913
G1 X-91.294 Y-52.912 E32.2823
G1 X-89.614 Y-52.056 E32.4686
G1 X-88.539 Y-51.476 E32.5893
G1 X-87.500 Y-50.889 E32.7072
G1 X-86.006 Y-49.992 E32.8793
G1 X-85.067 Y-49.392 E32.9894
G1 X-84.173 Y-48.790 E33.0958
G1 X-82.911 Y-47.881 E33.2494
G1 X-81.759 Y-46.975 E33.3943
G1 X-81.058 Y-46.378 E33.4852
G1 X-80.569 Y-45.934 E33.5504
G1 X-80.109 Y-45.496 E33.6132
G1 X-79.540 Y-44.912 E33.6938
G1 X-79.156 Y-44.488 E33.7502
G1 X-78.686 Y-43.924 E33.8228
G1 X-78.380 Y-43.519 E33.8729
G1 X-77.793 Y-42.661 E33.9756
G1 X78.583 Y8.497 E50.2284
G1 X79.723 Y8.103 E50.3476
G1 X80.322 Y7.919 E50.4095
G1 X80.982 Y7.745 E50.4769
G1 X81.680 Y7.598 E50.5474
G1 X82.151 Y7.524 E50.5944
G1 X82.925 Y7.447 E50.6713
G1 X83.620 Y7.427 E50.7400
G1 X84.090 Y7.444 E50.7865
G1 X84.603 Y7.490 E50.8374
G1 X85.039 Y7.553 E50.8808
G1 X85.748 Y7.707 E50.9525
G1 X86.250 Y7.856 E51.0042
G1 X89.520 Y8.931 E51.3443
G1 X89.841 Y9.086 E51.3795
G1 X89.927 Y9.140 E51.3895
G1 X90.094 Y9.266 E51.4102
G1 X90.176 Y9.339 E51.4210
G1 X90.307 Y9.477 E51.4398
G1 X90.503 Y9.747 E51.4728
G1 X90.585 Y9.896 E51.4896
G1 X90.645 Y10.036 E51.5046
G1 X90.728 Y10.306 E51.5325
G1 X90.769 Y10.571 E51.5590
G1 X90.774 Y10.852 E51.5867
G1 X90.758 Y11.013 E51.6027
G1 X90.720 Y11.210 E51.6225
G1 X89.977 Y14.283 E51.9349
G1 X89.151 Y13.996 E52.0214
G1 X62.571 Y6.127 E54.7597
G1 X38.022 Y-1.107 E57.2877
G1 X21.536 Y-5.922 E58.9843
G1 X12.825 Y-8.430 E59.8798
G1 X4.586 Y-10.759 E60.7255
G1 X4.104 Y-10.895 F300
G92 E0
G1 E-2.0000 F1800
G1 X89.596 Y24.101 F9000
G1 E-0.2000 F1800
G92 E0
G1 X107.573 Y28.441 E1.8268 F300
G1 X108.388 Y26.679 E2.0186
G1 X108.845 Y25.757 E2.1202
G1 X109.320 Y24.860 E2.2205
G1 X109.812 Y23.993 E2.3190
G1 X110.587 Y22.733 E2.4651
G1 X111.118 Y21.939 E2.5594
G1 X111.669 Y21.169 E2.6530
G1 X112.224 Y20.443 E2.7433
G1 X112.796 Y19.747 E2.8322
G1 X113.377 Y19.087 E2.9191
G1 X113.966 Y18.465 E3.0037
G1 X114.564 Y17.882 E3.0862
G1 X115.166 Y17.339 E3.1663
G1 X115.778 Y16.834 E3.2447
G1 X116.384 Y16.377 E3.3197
G1 X116.996 Y15.959 E3.3929
G1 X117.608 Y15.584 E3.4638
G1 X118.222 Y15.250 E3.5329
G1 X118.825 Y14.964 E3.5987
G1 X119.428 Y14.720 E3.6630
G1 X120.025 Y14.519 E3.7253
G1 X120.620 Y14.361 E3.7861
G1 X121.049 Y14.273 E3.8293
G1 X121.635 Y14.189 E3.8877
G1 X122.198 Y14.150 E3.9435
G1 X122.756 Y14.151 E3.9986
G1 X123.304 Y14.194 E4.0529
G1 X123.846 Y14.278 E4.1072
G1 X124.371 Y14.402 E4.1604
G1 X124.894 Y14.569 E4.2147
G1 X125.267 Y14.716 E4.2542
G1 X125.897 Y15.021 E4.3234
G1 X126.514 Y15.393 E4.3945
G1 X126.862 Y15.639 E4.4367
G1 X127.205 Y15.909 E4.4798
G1 X127.780 Y16.425 E4.5561
G1 X128.325 Y17.001 E4.6345
G1 X128.847 Y17.641 E4.7160
G1 X129.343 Y18.344 E4.8010
G1 X129.813 Y19.115 E4.8902
G1 X130.076 Y19.596 E4.9444
G1 X130.327 Y20.100 E4.9999
G1 X130.726 Y20.998 E5.0971
G1 X131.088 Y21.945 E5.1972
G1 X131.412 Y22.941 E5.3006
G1 X131.753 Y24.209 E5.4303
G1 X131.947 Y25.086 E5.5191
G1 X132.113 Y25.978 E5.6087
G1 X132.317 Y27.385 E5.7492
G1 X132.417 Y28.337 E5.8437
G1 X132.517 Y29.818 E5.9903
G1 X132.555 Y31.335 E6.1403
G1 X132.545 Y32.355 E6.2410
G1 X132.477 Y33.923 E6.3961
G1 X132.397 Y34.968 E6.4996
G1 X132.224 Y36.564 E6.6582
G1 X132.076 Y37.621 E6.7636
G1 X131.800 Y39.225 E6.9244
G1 X131.584 Y40.284 E7.0311
G1 X131.342 Y41.339 E7.1381
G1 X130.928 Y42.921 E7.2996
G1 X130.623 Y43.953 E7.4059
G1 X130.117 Y45.492 E7.5659
G1 X129.558 Y46.998 E7.7246
G1 X129.160 Y47.976 E7.8289
G1 X128.739 Y48.936 E7.9325
G1 X128.297 Y49.876 E8.0351
G1 X127.836 Y50.792 E8.1364
G1 X127.353 Y51.690 E8.2371
G1 X126.859 Y52.548 E8.3349
G1 X126.345 Y53.384 E8.4318
G1 X125.816 Y54.190 E8.5270
G1 X125.269 Y54.969 E8.6211
G1 X124.717 Y55.705 E8.7120
G1 X124.150 Y56.409 E8.8012
