; G-Code generated by Simplify3D(R) Version 3.1.0
; Sep 3, 2016 at 1:06:27 AM
; Settings Summary
;   processName,Process1
;   applyToModels,action-btns
;   profileName,Rostock MAX v2 (modified)
;   profileVersion,2015-05-01 08:00:00
;   baseProfile,
;   printMaterial,semiflex
;   printQuality,Medium
;   printExtruders,
;   extruderName,Primary Extruder
;   extruderToolheadNumber,0
;   extruderDiameter,0.6
;   extruderAutoWidth,1
;   extruderWidth,0.72
;   extrusionMultiplier,1.1
;   extruderUseRetract,1
;   extruderRetractionDistance,2
;   extruderExtraRestartDistance,0
;   extruderRetractionZLift,0
;   extruderRetractionSpeed,1800
;   extruderUseCoasting,1
;   extruderCoastingDistance,1
;   extruderUseWipe,0
;   extruderWipeDistance,5
;   primaryExtruder,0
;   layerHeight,0.2
;   topSolidLayers,3
;   bottomSolidLayers,3
;   perimeterOutlines,3
;   printPerimetersInsideOut,1
;   startPointOption,2
;   startPointOriginX,0
;   startPointOriginY,0
;   startPointOriginZ,300
;   sequentialIslands,0
;   spiralVaseMode,0
;   firstLayerHeightPercentage,25
;   firstLayerWidthPercentage,100
;   firstLayerUnderspeed,0.4
;   useRaft,0
;   raftExtruder,0
;   raftLayers,3
;   raftOffset,15
;   raftSeparationDistance,0.14
;   raftInfill,85
;   disableRaftBaseLayers,0
;   useSkirt,1
;   skirtExtruder,0
;   skirtLayers,1
;   skirtOutlines,2
;   skirtOffset,5
;   usePrimePillar,0
;   primePillarExtruder,999
;   primePillarWidth,12
;   primePillarLocation,7
;   primePillarSpeedMultiplier,1
;   useOozeShield,0
;   oozeShieldExtruder,999
;   oozeShieldOffset,2
;   oozeShieldOutlines,1
;   oozeShieldSidewallShape,1
;   oozeShieldSidewallAngle,30
;   oozeShieldSpeedMultiplier,1
;   infillExtruder,0
;   internalInfillPattern,Rectilinear
;   externalInfillPattern,Rectilinear
;   infillPercentage,85
;   outlineOverlapPercentage,40
;   infillExtrusionWidthPercentage,100
;   minInfillLength,3
;   infillLayerInterval,1
;   infillAngles,45,-45
;   overlapInfillAngles,0
;   generateSupport,0
;   supportExtruder,0
;   supportInfillPercentage,30
;   supportExtraInflation,0
;   denseSupportLayers,0
;   denseSupportInfillPercentage,70
;   supportLayerInterval,1
;   supportHorizontalPartOffset,0.3
;   supportUpperSeparationLayers,1
;   supportLowerSeparationLayers,1
;   supportType,1
;   supportGridSpacing,4
;   maxOverhangAngle,45
;   supportAngles,0
;   temperatureName,Primary Extruder,Heated Bed
;   temperatureNumber,0,1
;   temperatureSetpointCount,1,1
;   temperatureSetpointLayers,1,1
;   temperatureSetpointTemperatures,220,80
;   temperatureStabilizeAtStartup,1,1
;   temperatureHeatedBed,0,1
;   temperatureRelayBetweenLayers,0,0
;   temperatureRelayBetweenLoops,0,0
;   fanLayers,1,2
;   fanSpeeds,0,100
;   blipFanToFullPower,1
;   adjustSpeedForCooling,1
;   minSpeedLayerTime,15
;   minCoolingSpeedSlowdown,20
;   increaseFanForCooling,0
;   minFanLayerTime,60
;   maxCoolingFanSpeed,100
;   increaseFanForBridging,0
;   bridgingFanSpeed,100
;   use5D,1
;   relativeEdistances,0
;   allowEaxisZeroing,1
;   independentExtruderAxes,0
;   includeM10123,0
;   stickySupport,1
;   applyToolheadOffsets,0
;   gcodeXoffset,0
;   gcodeYoffset,0
;   gcodeZoffset,0
;   overrideMachineDefinition,1
;   machineTypeOverride,1
;   strokeXoverride,197
;   strokeYoverride,197
;   strokeZoverride,375
;   originOffsetXoverride,98.5
;   originOffsetYoverride,98.5
;   originOffsetZoverride,0
;   homeXdirOverride,0
;   homeYdirOverride,0
;   homeZdirOverride,1
;   flipXoverride,1
;   flipYoverride,-1
;   flipZoverride,1
;   toolheadOffsets,0,0|0,0|0,0|0,0|0,0|0,0
;   overrideFirmwareConfiguration,1
;   firmwareTypeOverride,RepRap (Marlin/Repetier/Sprinter)
;   GPXconfigOverride,r2
;   baudRateOverride,115200
;   overridePrinterModels,1
;   printerModelsOverride
;   startingGcode,G28 ; home all axes
;   layerChangeGcode,
;   retractionGcode,
;   toolChangeGcode,
;   endingGcode,M104 S0 ; turn off extruder,M140 S0 ; turn off bed,G28 ; home axes,M84 ; disable motors
;   exportFileFormat,gcode
;   celebration,0
;   celebrationSong,Random Song
;   postProcessing,
;   defaultSpeed,1000
;   outlineUnderspeed,0.5
;   solidInfillUnderspeed,0.8
;   supportUnderspeed,0.8
;   rapidXYspeed,9000
;   rapidZspeed,1200
;   minBridgingArea,50
;   bridgingExtraInflation,0
;   bridgingExtrusionMultiplier,0.8
;   bridgingSpeedMultiplier,0.7
;   filamentDiameter,1.75
;   filamentPricePerKg,22
;   filamentDensity,1.25
;   useMinPrintHeight,0
;   minPrintHeight,0.05
;   useMaxPrintHeight,0
;   maxPrintHeight,0
;   useDiaphragm,0
;   diaphragmLayerInterval,20
;   robustSlicing,1
;   mergeAllIntoSolid,0
;   onlyRetractWhenCrossingOutline,0
;   retractBetweenLayers,0
;   useRetractionMinTravel,0
;   retractionMinTravel,3
;   retractWhileWiping,1
;   onlyWipeOutlines,1
;   avoidCrossingOutline,1
;   maxMovementDetourFactor,1.5
;   toolChangeRetractionDistance,12
;   toolChangeExtraRestartDistance,-0.5
;   toolChangeRetractionSpeed,600
;   allowThinWallGapFill,1
;   thinWallAllowedOverlapPercentage,10
;   horizontalSizeCompensation,0
G90
M82
M106 S0
M140 S80
M190 S80
M104 S220 T0
M109 S220 T0
G28 ; home all axes
G92 E0
G1 E-2.0000 F1800
G1 Z0.050 F1200
; layer 1, Z = 0.05
T0
; tool H0.200 W0.720
; skirt
G1 X-19.077 Y0.099 F9000
G1 E0.0000 F540
G92 E0
G1 X-19.077 Y0.083 E0.0011 F400
G1 X-19.077 Y-0.083 E0.0120
G1 X-19.077 Y-0.099 E0.0130
G1 X-19.049 Y-1.042 E0.0752
G1 X-19.048 Y-1.058 E0.0762
G1 X-19.038 Y-1.224 E0.0872
G1 X-19.037 Y-1.240 E0.0882
G1 X-18.952 Y-2.180 E0.1504
G1 X-18.951 Y-2.196 E0.1514
G1 X-18.931 Y-2.360 E0.1624
G1 X-18.929 Y-2.376 E0.1634
G1 X-18.788 Y-3.309 E0.2256
G1 X-18.785 Y-3.325 E0.2266
G1 X-18.756 Y-3.488 E0.2375
G1 X-18.753 Y-3.504 E0.2386
G1 X-18.556 Y-4.427 E0.3007
G1 X-18.553 Y-4.443 E0.3018
G1 X-18.513 Y-4.604 E0.3127
G1 X-18.509 Y-4.620 E0.3138
G1 X-18.258 Y-5.529 E0.3759
G1 X-18.254 Y-5.545 E0.3770
G1 X-18.205 Y-5.703 E0.3879
G1 X-18.200 Y-5.719 E0.3890
G1 X-17.895 Y-6.611 E0.4511
G1 X-17.890 Y-6.627 E0.4522
G1 X-17.831 Y-6.782 E0.4631
G1 X-17.825 Y-6.797 E0.4641
G1 X-17.468 Y-7.670 E0.5263
G1 X-17.461 Y-7.685 E0.5273
G1 X-17.394 Y-7.836 E0.5383
G1 X-17.387 Y-7.851 E0.5393
G1 X-16.978 Y-8.701 E0.6015
G1 X-16.970 Y-8.715 E0.6025
G1 X-16.894 Y-8.863 E0.6134
G1 X-16.886 Y-8.877 E0.6145
G1 X-16.427 Y-9.701 E0.6767
G1 X-16.419 Y-9.715 E0.6777
G1 X-16.334 Y-9.857 E0.6886
G1 X-16.325 Y-9.871 E0.6897
G1 X-15.817 Y-10.666 E0.7518
G1 X-15.808 Y-10.680 E0.7529
G1 X-15.715 Y-10.817 E0.7638
G1 X-15.706 Y-10.830 E0.7649
G1 X-15.151 Y-11.593 E0.8270
G1 X-15.141 Y-11.606 E0.8281
G1 X-15.040 Y-11.737 E0.8390
G1 X-15.030 Y-11.750 E0.8401
G1 X-14.431 Y-12.479 E0.9022
G1 X-14.420 Y-12.491 E0.9033
G1 X-14.311 Y-12.616 E0.9142
G1 X-14.300 Y-12.628 E0.9152
G1 X-13.659 Y-13.320 E0.9774
G1 X-13.647 Y-13.331 E0.9785
G1 X-13.531 Y-13.449 E0.9894
G1 X-13.519 Y-13.461 E0.9904
G1 X-12.837 Y-14.113 E1.0526
G1 X-12.826 Y-14.124 E1.0536
G1 X-12.702 Y-14.235 E1.0646
G1 X-12.690 Y-14.245 E1.0656
G1 X-11.971 Y-14.855 E1.1278
G1 X-11.958 Y-14.866 E1.1288
G1 X-11.829 Y-14.969 E1.1397
G1 X-11.816 Y-14.979 E1.1408
G1 X-11.061 Y-15.545 E1.2029
G1 X-11.048 Y-15.554 E1.2040
G1 X-10.912 Y-15.650 E1.2149
G1 X-10.899 Y-15.659 E1.2160
G1 X-10.111 Y-16.179 E1.2781
G1 X-10.098 Y-16.187 E1.2792
G1 X-9.957 Y-16.275 E1.2901
G1 X-9.943 Y-16.283 E1.2912
G1 X-9.126 Y-16.755 E1.3533
G1 X-9.111 Y-16.763 E1.3544
G1 X-8.965 Y-16.841 E1.3653
G1 X-8.951 Y-16.848 E1.3664
G1 X-8.107 Y-17.271 E1.4285
G1 X-8.093 Y-17.278 E1.4296
G1 X-7.942 Y-17.347 E1.4405
G1 X-7.928 Y-17.354 E1.4415
G1 X-7.060 Y-17.725 E1.5037
G1 X-7.045 Y-17.731 E1.5047
G1 X-6.891 Y-17.791 E1.5157
G1 X-6.876 Y-17.797 E1.5167
G1 X-5.987 Y-18.115 E1.5789
G1 X-5.972 Y-18.121 E1.5799
G1 X-5.814 Y-18.172 E1.5908
G1 X-5.799 Y-18.177 E1.5919
G1 X-4.893 Y-18.441 E1.6540
G1 X-4.878 Y-18.445 E1.6551
G1 X-4.717 Y-18.487 E1.6660
G1 X-4.701 Y-18.491 E1.6671
G1 X-3.781 Y-18.701 E1.7292
G1 X-3.766 Y-18.704 E1.7303
G1 X-3.603 Y-18.736 E1.7412
G1 X-3.587 Y-18.739 E1.7423
G1 X-2.656 Y-18.894 E1.8044
G1 X-2.640 Y-18.896 E1.8055
G1 X-2.476 Y-18.918 E1.8164
G1 X-2.460 Y-18.920 E1.8175
G1 X-1.522 Y-19.019 E1.8796
G1 X-1.506 Y-19.020 E1.8807
G1 X-1.340 Y-19.033 E1.8916
G1 X-1.324 Y-19.034 E1.8926
G1 X-0.382 Y-19.076 E1.9548
G1 X-0.365 Y-19.077 E1.9558
G1 X-0.200 Y-19.079 E1.9668
G1 X-0.183 Y-19.079 E1.9678
G1 X0.760 Y-19.065 E2.0300
G1 X0.776 Y-19.064 E2.0310
G1 X0.942 Y-19.057 E2.0419
G1 X0.958 Y-19.056 E2.0430
G1 X1.899 Y-18.986 E2.1051
G1 X1.915 Y-18.984 E2.1062
G1 X2.080 Y-18.967 E2.1171
G1 X2.096 Y-18.965 E2.1182
G1 X3.031 Y-18.838 E2.1803
G1 X3.047 Y-18.836 E2.1814
G1 X3.210 Y-18.809 E2.1923
G1 X3.226 Y-18.806 E2.1934
G1 X4.152 Y-18.623 E2.2555
G1 X4.168 Y-18.620 E2.2566
G1 X4.329 Y-18.583 E2.2675
G1 X4.345 Y-18.579 E2.2686
G1 X5.258 Y-18.342 E2.3307
G1 X5.274 Y-18.338 E2.3318
G1 X5.433 Y-18.291 E2.3427
G1 X5.448 Y-18.286 E2.3437
G1 X6.346 Y-17.995 E2.4059
G1 X6.361 Y-17.990 E2.4069
G1 X6.517 Y-17.934 E2.4178
G1 X6.532 Y-17.928 E2.4189
G1 X7.411 Y-17.583 E2.4811
G1 X7.426 Y-17.577 E2.4821
G1 X7.578 Y-17.512 E2.4930
G1 X7.593 Y-17.505 E2.4941
G1 X8.449 Y-17.109 E2.5562
G1 X8.464 Y-17.102 E2.5573
G1 X8.612 Y-17.028 E2.5682
G1 X8.626 Y-17.020 E2.5693
G1 X9.457 Y-16.573 E2.6314
G1 X9.471 Y-16.565 E2.6325
G1 X9.615 Y-16.482 E2.6434
G1 X9.629 Y-16.474 E2.6445
G1 X10.431 Y-15.978 E2.7066
G1 X10.445 Y-15.969 E2.7077
G1 X10.583 Y-15.878 E2.7186
G1 X10.597 Y-15.869 E2.7197
G1 X11.368 Y-15.326 E2.7818
G1 X11.381 Y-15.316 E2.7829
G1 X11.514 Y-15.217 E2.7938
G1 X11.527 Y-15.207 E2.7948
G1 X12.264 Y-14.619 E2.8570
G1 X12.277 Y-14.608 E2.8580
G1 X12.403 Y-14.501 E2.8690
G1 X12.415 Y-14.491 E2.8700
G1 X13.117 Y-13.859 E2.9322
G1 X13.128 Y-13.848 E2.9332
G1 X13.248 Y-13.734 E2.9441
G1 X13.260 Y-13.722 E2.9452
G1 X13.922 Y-13.050 E3.0073
G1 X13.933 Y-13.038 E3.0084
G1 X14.046 Y-12.917 E3.0193
G1 X14.057 Y-12.905 E3.0204
G1 X14.678 Y-12.194 E3.0825
G1 X14.688 Y-12.182 E3.0836
G1 X14.793 Y-12.054 E3.0945
G1 X14.803 Y-12.041 E3.0956
G1 X15.381 Y-11.295 E3.1577
G1 X15.390 Y-11.282 E3.1588
G1 X15.488 Y-11.148 E3.1697
G1 X15.497 Y-11.135 E3.1708
G1 X16.028 Y-10.355 E3.2329
G1 X16.037 Y-10.342 E3.2340
G1 X16.127 Y-10.202 E3.2449
G1 X16.135 Y-10.188 E3.2459
G1 X16.619 Y-9.378 E3.3081
G1 X16.627 Y-9.364 E3.3091
G1 X16.708 Y-9.219 E3.3201
G1 X16.716 Y-9.205 E3.3211
G1 X17.150 Y-8.368 E3.3833
G1 X17.157 Y-8.353 E3.3843
G1 X17.229 Y-8.204 E3.3952
G1 X17.236 Y-8.189 E3.3963
G1 X17.620 Y-7.327 E3.4584
G1 X17.626 Y-7.312 E3.4595
G1 X17.689 Y-7.159 E3.4704
G1 X17.695 Y-7.144 E3.4715
G1 X18.027 Y-6.261 E3.5336
G1 X18.032 Y-6.245 E3.5347
G1 X18.086 Y-6.088 E3.5456
G1 X18.091 Y-6.073 E3.5467
G1 X18.369 Y-5.171 E3.6088
G1 X18.373 Y-5.156 E3.6099
G1 X18.417 Y-4.996 E3.6208
G1 X18.421 Y-4.980 E3.6219
G1 X18.645 Y-4.064 E3.6840
G1 X18.649 Y-4.048 E3.6851
G1 X18.683 Y-3.886 E3.6960
G1 X18.686 Y-3.870 E3.6970
G1 X18.855 Y-2.942 E3.7592
G1 X18.857 Y-2.926 E3.7602
G1 X18.882 Y-2.762 E3.7712
G1 X18.884 Y-2.746 E3.7722
G1 X18.997 Y-1.809 E3.8344
G1 X18.999 Y-1.793 E3.8354
G1 X19.014 Y-1.628 E3.8463
G1 X19.015 Y-1.612 E3.8474
G1 X19.071 Y-0.670 E3.9095
G1 X19.072 Y-0.654 E3.9106
G1 X19.077 Y-0.488 E3.9215
G1 X19.077 Y-0.472 E3.9226
G1 X19.077 Y0.472 E3.9847
G1 X19.077 Y0.488 E3.9858
G1 X19.072 Y0.654 E3.9967
G1 X19.071 Y0.670 E3.9978
G1 X19.015 Y1.612 E4.0599
G1 X19.014 Y1.628 E4.0610
G1 X18.999 Y1.793 E4.0719
G1 X18.997 Y1.809 E4.0730
G1 X18.884 Y2.746 E4.1351
G1 X18.882 Y2.762 E4.1362
G1 X18.857 Y2.926 E4.1471
G1 X18.855 Y2.942 E4.1481
G1 X18.686 Y3.870 E4.2103
G1 X18.683 Y3.886 E4.2113
G1 X18.649 Y4.048 E4.2223
G1 X18.645 Y4.064 E4.2233
G1 X18.421 Y4.980 E4.2855
G1 X18.417 Y4.996 E4.2865
G1 X18.373 Y5.156 E4.2974
G1 X18.369 Y5.171 E4.2985
G1 X18.091 Y6.073 E4.3606
G1 X18.086 Y6.088 E4.3617
G1 X18.032 Y6.245 E4.3726
G1 X18.027 Y6.261 E4.3737
G1 X17.695 Y7.144 E4.4358
G1 X17.689 Y7.159 E4.4369
G1 X17.626 Y7.312 E4.4478
G1 X17.620 Y7.327 E4.4489
G1 X17.236 Y8.189 E4.5110
G1 X17.229 Y8.204 E4.5121
G1 X17.157 Y8.353 E4.5230
G1 X17.150 Y8.368 E4.5241
G1 X16.716 Y9.205 E4.5862
G1 X16.708 Y9.219 E4.5873
G1 X16.627 Y9.364 E4.5982
G1 X16.619 Y9.378 E4.5992
G1 X16.135 Y10.188 E4.6614
G1 X16.127 Y10.202 E4.6624
G1 X16.037 Y10.342 E4.6734
G1 X16.028 Y10.355 E4.6744
G1 X15.497 Y11.135 E4.7366
G1 X15.488 Y11.148 E4.7376
G1 X15.390 Y11.282 E4.7485
G1 X15.381 Y11.295 E4.7496
G1 X14.803 Y12.041 E4.8117
G1 X14.793 Y12.054 E4.8128
G1 X14.688 Y12.182 E4.8237
G1 X14.678 Y12.194 E4.8248
G1 X14.057 Y12.905 E4.8869
G1 X14.046 Y12.917 E4.8880
G1 X13.933 Y13.038 E4.8989
G1 X13.922 Y13.050 E4.9000
G1 X13.260 Y13.722 E4.9621
G1 X13.248 Y13.734 E4.9632
G1 X13.128 Y13.848 E4.9741
G1 X13.117 Y13.859 E4.9752
G1 X12.415 Y14.491 E5.0373
G1 X12.403 Y14.501 E5.0384
G1 X12.277 Y14.608 E5.0493
G1 X12.264 Y14.619 E5.0503
G1 X11.527 Y15.207 E5.1125
G1 X11.514 Y15.217 E5.1135
G1 X11.381 Y15.316 E5.1245
G1 X11.368 Y15.326 E5.1255
G1 X10.597 Y15.869 E5.1877
G1 X10.583 Y15.878 E5.1887
G1 X10.445 Y15.969 E5.1996
G1 X10.431 Y15.978 E5.2007
G1 X9.629 Y16.474 E5.2629
G1 X9.615 Y16.482 E5.2639
G1 X9.471 Y16.565 E5.2748
G1 X9.457 Y16.573 E5.2759
G1 X8.626 Y17.020 E5.3380
G1 X8.612 Y17.028 E5.3391
G1 X8.464 Y17.102 E5.3500
G1 X8.449 Y17.109 E5.3511
G1 X7.593 Y17.505 E5.4132
G1 X7.578 Y17.512 E5.4143
G1 X7.426 Y17.577 E5.4252
G1 X7.411 Y17.583 E5.4263
G1 X6.532 Y17.928 E5.4884
G1 X6.517 Y17.934 E5.4895
G1 X6.361 Y17.990 E5.5004
G1 X6.346 Y17.995 E5.5014
G1 X5.448 Y18.286 E5.5636
G1 X5.433 Y18.291 E5.5646
G1 X5.274 Y18.338 E5.5756
G1 X5.258 Y18.342 E5.5766
G1 X4.345 Y18.579 E5.6388
G1 X4.329 Y18.583 E5.6398
G1 X4.168 Y18.620 E5.6508
G1 X4.152 Y18.623 E5.6518
G1 X3.226 Y18.806 E5.7140
G1 X3.210 Y18.809 E5.7150
G1 X3.047 Y18.836 E5.7259
G1 X3.031 Y18.838 E5.7270
G1 X2.096 Y18.965 E5.7891
G1 X2.080 Y18.967 E5.7902
G1 X1.915 Y18.984 E5.8011
G1 X1.899 Y18.986 E5.8022
G1 X0.958 Y19.056 E5.8643
G1 X0.942 Y19.057 E5.8654
G1 X0.776 Y19.064 E5.8763
G1 X0.760 Y19.065 E5.8774
G1 X-0.183 Y19.079 E5.9395
G1 X-0.200 Y19.079 E5.9406
G1 X-0.365 Y19.077 E5.9515
G1 X-0.382 Y19.076 E5.9525
G1 X-1.324 Y19.034 E6.0147
G1 X-1.340 Y19.033 E6.0157
G1 X-1.506 Y19.020 E6.0267
G1 X-1.522 Y19.019 E6.0277
G1 X-2.460 Y18.920 E6.0899
G1 X-2.476 Y18.918 E6.0909
G1 X-2.640 Y18.896 E6.1018
G1 X-2.656 Y18.894 E6.1029
G1 X-3.587 Y18.739 E6.1651
G1 X-3.603 Y18.736 E6.1661
G1 X-3.766 Y18.704 E6.1770
G1 X-3.781 Y18.701 E6.1781
G1 X-4.701 Y18.491 E6.2402
G1 X-4.717 Y18.487 E6.2413
G1 X-4.878 Y18.445 E6.2522
G1 X-4.893 Y18.441 E6.2533
G1 X-5.799 Y18.177 E6.3154
G1 X-5.814 Y18.172 E6.3165
G1 X-5.972 Y18.121 E6.3274
G1 X-5.987 Y18.115 E6.3285
G1 X-6.876 Y17.797 E6.3906
G1 X-6.891 Y17.791 E6.3917
G1 X-7.045 Y17.731 E6.4026
G1 X-7.060 Y17.725 E6.4036
G1 X-7.928 Y17.354 E6.4658
G1 X-7.942 Y17.347 E6.4668
G1 X-8.093 Y17.278 E6.4778
G1 X-8.107 Y17.271 E6.4788
G1 X-8.951 Y16.848 E6.5410
G1 X-8.965 Y16.841 E6.5420
G1 X-9.111 Y16.763 E6.5529
G1 X-9.126 Y16.755 E6.5540
G1 X-9.943 Y16.283 E6.6162
G1 X-9.957 Y16.275 E6.6172
G1 X-10.098 Y16.187 E6.6281
G1 X-10.111 Y16.179 E6.6292
G1 X-10.899 Y15.659 E6.6913
G1 X-10.912 Y15.650 E6.6924
G1 X-11.048 Y15.554 E6.7033
G1 X-11.061 Y15.545 E6.7044
G1 X-11.816 Y14.979 E6.7665
G1 X-11.829 Y14.969 E6.7676
G1 X-11.958 Y14.866 E6.7785
G1 X-11.971 Y14.855 E6.7796
G1 X-12.690 Y14.245 E6.8417
G1 X-12.702 Y14.235 E6.8428
G1 X-12.826 Y14.124 E6.8537
G1 X-12.837 Y14.113 E6.8547
G1 X-13.519 Y13.461 E6.9169
G1 X-13.531 Y13.449 E6.9179
G1 X-13.647 Y13.331 E6.9289
G1 X-13.659 Y13.320 E6.9299
G1 X-14.300 Y12.628 E6.9921
G1 X-14.311 Y12.616 E6.9931
G1 X-14.420 Y12.491 E7.0041
G1 X-14.431 Y12.479 E7.0051
G1 X-15.030 Y11.750 E7.0673
G1 X-15.040 Y11.737 E7.0683
G1 X-15.141 Y11.606 E7.0792
G1 X-15.151 Y11.593 E7.0803
G1 X-15.706 Y10.830 E7.1424
G1 X-15.715 Y10.817 E7.1435
G1 X-15.808 Y10.680 E7.1544
G1 X-15.817 Y10.666 E7.1555
G1 X-16.325 Y9.871 E7.2176
G1 X-16.334 Y9.857 E7.2187
G1 X-16.419 Y9.715 E7.2296
G1 X-16.427 Y9.701 E7.2307
G1 X-16.886 Y8.877 E7.2928
G1 X-16.894 Y8.863 E7.2939
G1 X-16.970 Y8.715 E7.3048
G1 X-16.978 Y8.701 E7.3058
G1 X-17.387 Y7.851 E7.3680
