; G-Code generated by Simplify3D(R) Version 3.1.0
; Sep 3, 2016 at 12:14:51 AM
; Settings Summary
;   processName,Process1
;   applyToModels,dpad2
;   profileName,Rostock MAX v2 (modified)
;   profileVersion,2015-05-01 08:00:00
;   baseProfile,
;   printMaterial,semiflex
;   printQuality,Medium
;   printExtruders,
;   extruderName,Primary Extruder
;   extruderToolheadNumber,0
;   extruderDiameter,0.6
;   extruderAutoWidth,1
;   extruderWidth,0.72
;   extrusionMultiplier,1.1
;   extruderUseRetract,1
;   extruderRetractionDistance,2
;   extruderExtraRestartDistance,0
;   extruderRetractionZLift,0
;   extruderRetractionSpeed,1800
;   extruderUseCoasting,1
;   extruderCoastingDistance,1
;   extruderUseWipe,0
;   extruderWipeDistance,5
;   primaryExtruder,0
;   layerHeight,0.2
;   topSolidLayers,3
;   bottomSolidLayers,3
;   perimeterOutlines,3
;   printPerimetersInsideOut,1
;   startPointOption,2
;   startPointOriginX,0
;   startPointOriginY,0
;   startPointOriginZ,300
;   sequentialIslands,0
;   spiralVaseMode,0
;   firstLayerHeightPercentage,25
;   firstLayerWidthPercentage,100
;   firstLayerUnderspeed,0.4
;   useRaft,0
;   raftExtruder,0
;   raftLayers,3
;   raftOffset,15
;   raftSeparationDistance,0.14
;   raftInfill,85
;   disableRaftBaseLayers,0
;   useSkirt,1
;   skirtExtruder,0
;   skirtLayers,1
;   skirtOutlines,2
;   skirtOffset,5
;   usePrimePillar,0
;   primePillarExtruder,999
;   primePillarWidth,12
;   primePillarLocation,7
;   primePillarSpeedMultiplier,1
;   useOozeShield,0
;   oozeShieldExtruder,999
;   oozeShieldOffset,2
;   oozeShieldOutlines,1
;   oozeShieldSidewallShape,1
;   oozeShieldSidewallAngle,30
;   oozeShieldSpeedMultiplier,1
;   infillExtruder,0
;   internalInfillPattern,Rectilinear
;   externalInfillPattern,Rectilinear
;   infillPercentage,85
;   outlineOverlapPercentage,40
;   infillExtrusionWidthPercentage,100
;   minInfillLength,3
;   infillLayerInterval,1
;   infillAngles,45,-45
;   overlapInfillAngles,0
;   generateSupport,0
;   supportExtruder,0
;   supportInfillPercentage,30
;   supportExtraInflation,0
;   denseSupportLayers,0
;   denseSupportInfillPercentage,70
;   supportLayerInterval,1
;   supportHorizontalPartOffset,0.3
;   supportUpperSeparationLayers,1
;   supportLowerSeparationLayers,1
;   supportType,1
;   supportGridSpacing,4
;   maxOverhangAngle,45
;   supportAngles,0
;   temperatureName,Primary Extruder,Heated Bed
;   temperatureNumber,0,1
;   temperatureSetpointCount,1,1
;   temperatureSetpointLayers,1,1
;   temperatureSetpointTemperatures,220,80
;   temperatureStabilizeAtStartup,1,1
;   temperatureHeatedBed,0,1
;   temperatureRelayBetweenLayers,0,0
;   temperatureRelayBetweenLoops,0,0
;   fanLayers,1,2
;   fanSpeeds,0,100
;   blipFanToFullPower,1
;   adjustSpeedForCooling,1
;   minSpeedLayerTime,15
;   minCoolingSpeedSlowdown,20
;   increaseFanForCooling,0
;   minFanLayerTime,60
;   maxCoolingFanSpeed,100
;   increaseFanForBridging,0
;   bridgingFanSpeed,100
;   use5D,1
;   relativeEdistances,0
;   allowEaxisZeroing,1
;   independentExtruderAxes,0
;   includeM10123,0
;   stickySupport,1
;   applyToolheadOffsets,0
;   gcodeXoffset,0
;   gcodeYoffset,0
;   gcodeZoffset,0
;   overrideMachineDefinition,1
;   machineTypeOverride,1
;   strokeXoverride,197
;   strokeYoverride,197
;   strokeZoverride,375
;   originOffsetXoverride,98.5
;   originOffsetYoverride,98.5
;   originOffsetZoverride,0
;   homeXdirOverride,0
;   homeYdirOverride,0
;   homeZdirOverride,1
;   flipXoverride,1
;   flipYoverride,-1
;   flipZoverride,1
;   toolheadOffsets,0,0|0,0|0,0|0,0|0,0|0,0
;   overrideFirmwareConfiguration,1
;   firmwareTypeOverride,RepRap (Marlin/Repetier/Sprinter)
;   GPXconfigOverride,r2
;   baudRateOverride,115200
;   overridePrinterModels,1
;   printerModelsOverride
;   startingGcode,G28 ; home all axes
;   layerChangeGcode,
;   retractionGcode,
;   toolChangeGcode,
;   endingGcode,M104 S0 ; turn off extruder,M140 S0 ; turn off bed,G28 ; home axes,M84 ; disable motors
;   exportFileFormat,gcode
;   celebration,0
;   celebrationSong,Random Song
;   postProcessing,
;   defaultSpeed,1000
;   outlineUnderspeed,0.5
;   solidInfillUnderspeed,0.8
;   supportUnderspeed,0.8
;   rapidXYspeed,9000
;   rapidZspeed,1200
;   minBridgingArea,50
;   bridgingExtraInflation,0
;   bridgingExtrusionMultiplier,0.8
;   bridgingSpeedMultiplier,0.7
;   filamentDiameter,1.75
;   filamentPricePerKg,22
;   filamentDensity,1.25
;   useMinPrintHeight,0
;   minPrintHeight,0.05
;   useMaxPrintHeight,0
;   maxPrintHeight,0
;   useDiaphragm,0
;   diaphragmLayerInterval,20
;   robustSlicing,1
;   mergeAllIntoSolid,0
;   onlyRetractWhenCrossingOutline,0
;   retractBetweenLayers,0
;   useRetractionMinTravel,0
;   retractionMinTravel,3
;   retractWhileWiping,1
;   onlyWipeOutlines,1
;   avoidCrossingOutline,1
;   maxMovementDetourFactor,1.5
;   toolChangeRetractionDistance,12
;   toolChangeExtraRestartDistance,-0.5
;   toolChangeRetractionSpeed,600
;   allowThinWallGapFill,1
;   thinWallAllowedOverlapPercentage,10
;   horizontalSizeCompensation,0
G90
M82
M106 S0
M140 S80
M190 S80
M104 S220 T0
M109 S220 T0
G28 ; home all axes
G92 E0
G1 E-2.0000 F1800
G1 Z0.050 F1200
; layer 1, Z = 0.05
T0
; tool H0.200 W0.720
; skirt
G1 X-19.577 Y0.099 F9000
G1 E0.0000 F540
G92 E0
G1 X-19.577 Y0.083 E0.0011 F400
G1 X-19.577 Y-0.083 E0.0120
G1 X-19.577 Y-0.099 E0.0130
G1 X-19.548 Y-1.072 E0.0772
G1 X-19.547 Y-1.088 E0.0782
G1 X-19.537 Y-1.254 E0.0891
G1 X-19.536 Y-1.270 E0.0902
G1 X-19.449 Y-2.239 E0.1543
G1 X-19.447 Y-2.256 E0.1554
G1 X-19.427 Y-2.420 E0.1663
G1 X-19.425 Y-2.436 E0.1674
G1 X-19.280 Y-3.399 E0.2315
G1 X-19.277 Y-3.415 E0.2325
G1 X-19.248 Y-3.578 E0.2434
G1 X-19.244 Y-3.594 E0.2445
G1 X-19.042 Y-4.546 E0.3086
G1 X-19.038 Y-4.561 E0.3097
G1 X-18.999 Y-4.723 E0.3206
G1 X-18.995 Y-4.738 E0.3217
G1 X-18.736 Y-5.677 E0.3858
G1 X-18.732 Y-5.692 E0.3868
G1 X-18.683 Y-5.851 E0.3977
G1 X-18.678 Y-5.866 E0.3988
G1 X-18.363 Y-6.787 E0.4629
G1 X-18.358 Y-6.802 E0.4640
G1 X-18.299 Y-6.958 E0.4749
G1 X-18.293 Y-6.973 E0.4760
G1 X-17.924 Y-7.873 E0.5401
G1 X-17.918 Y-7.888 E0.5411
G1 X-17.850 Y-8.040 E0.5521
G1 X-17.844 Y-8.054 E0.5531
G1 X-17.421 Y-8.931 E0.6172
G1 X-17.414 Y-8.946 E0.6183
G1 X-17.338 Y-9.093 E0.6292
G1 X-17.330 Y-9.107 E0.6303
G1 X-16.856 Y-9.957 E0.6944
G1 X-16.848 Y-9.971 E0.6954
G1 X-16.763 Y-10.114 E0.7064
G1 X-16.754 Y-10.127 E0.7074
G1 X-16.230 Y-10.948 E0.7715
G1 X-16.221 Y-10.961 E0.7726
G1 X-16.128 Y-11.098 E0.7835
G1 X-16.119 Y-11.112 E0.7846
G1 X-15.547 Y-11.899 E0.8487
G1 X-15.537 Y-11.912 E0.8498
G1 X-15.435 Y-12.043 E0.8607
G1 X-15.425 Y-12.056 E0.8617
G1 X-14.807 Y-12.808 E0.9258
G1 X-14.797 Y-12.820 E0.9269
G1 X-14.688 Y-12.945 E0.9378
G1 X-14.677 Y-12.957 E0.9389
G1 X-14.015 Y-13.670 E1.0030
G1 X-14.003 Y-13.682 E1.0041
G1 X-13.887 Y-13.800 E1.0150
G1 X-13.876 Y-13.812 E1.0160
G1 X-13.172 Y-14.484 E1.0802
G1 X-13.160 Y-14.495 E1.0812
G1 X-13.037 Y-14.606 E1.0921
G1 X-13.025 Y-14.617 E1.0932
G1 X-12.282 Y-15.246 E1.1573
G1 X-12.270 Y-15.257 E1.1584
G1 X-12.140 Y-15.360 E1.1693
G1 X-12.127 Y-15.370 E1.1703
G1 X-11.348 Y-15.954 E1.2345
G1 X-11.335 Y-15.963 E1.2355
G1 X-11.200 Y-16.059 E1.2464
G1 X-11.186 Y-16.068 E1.2475
G1 X-10.374 Y-16.604 E1.3116
G1 X-10.360 Y-16.613 E1.3127
G1 X-10.219 Y-16.700 E1.3236
G1 X-10.206 Y-16.708 E1.3247
G1 X-9.362 Y-17.195 E1.3888
G1 X-9.348 Y-17.203 E1.3898
G1 X-9.202 Y-17.281 E1.4007
G1 X-9.188 Y-17.289 E1.4018
G1 X-8.317 Y-17.724 E1.4659
G1 X-8.303 Y-17.731 E1.4670
G1 X-8.152 Y-17.801 E1.4779
G1 X-8.138 Y-17.808 E1.4790
G1 X-7.242 Y-18.190 E1.5431
G1 X-7.228 Y-18.196 E1.5441
G1 X-7.073 Y-18.257 E1.5550
G1 X-7.058 Y-18.262 E1.5561
G1 X-6.142 Y-18.591 E1.6202
G1 X-6.126 Y-18.596 E1.6213
G1 X-5.969 Y-18.647 E1.6322
G1 X-5.953 Y-18.652 E1.6333
G1 X-5.019 Y-18.925 E1.6974
G1 X-5.003 Y-18.929 E1.6984
G1 X-4.843 Y-18.971 E1.7094
G1 X-4.827 Y-18.975 E1.7104
G1 X-3.878 Y-19.192 E1.7745
G1 X-3.862 Y-19.195 E1.7756
G1 X-3.700 Y-19.227 E1.7865
G1 X-3.684 Y-19.230 E1.7876
G1 X-2.723 Y-19.389 E1.8517
G1 X-2.707 Y-19.392 E1.8528
G1 X-2.543 Y-19.414 E1.8637
G1 X-2.527 Y-19.416 E1.8647
G1 X-1.559 Y-19.518 E1.9288
G1 X-1.543 Y-19.519 E1.9299
G1 X-1.377 Y-19.531 E1.9408
G1 X-1.361 Y-19.532 E1.9419
G1 X-0.389 Y-19.576 E2.0060
G1 X-0.373 Y-19.577 E2.0071
G1 X-0.207 Y-19.579 E2.0180
G1 X-0.191 Y-19.579 E2.0190
G1 X0.782 Y-19.564 E2.0831
G1 X0.799 Y-19.564 E2.0842
G1 X0.964 Y-19.557 E2.0951
G1 X0.980 Y-19.556 E2.0962
G1 X1.951 Y-19.483 E2.1603
G1 X1.967 Y-19.481 E2.1614
G1 X2.132 Y-19.464 E2.1723
G1 X2.148 Y-19.462 E2.1733
G1 X3.113 Y-19.331 E2.2375
G1 X3.129 Y-19.329 E2.2385
G1 X3.292 Y-19.302 E2.2494
G1 X3.308 Y-19.299 E2.2505
G1 X4.263 Y-19.111 E2.3146
G1 X4.279 Y-19.108 E2.3157
G1 X4.441 Y-19.071 E2.3266
G1 X4.456 Y-19.067 E2.3277
G1 X5.399 Y-18.822 E2.3918
G1 X5.414 Y-18.818 E2.3928
G1 X5.573 Y-18.771 E2.4037
G1 X5.589 Y-18.766 E2.4048
G1 X6.515 Y-18.466 E2.4689
G1 X6.530 Y-18.460 E2.4700
G1 X6.686 Y-18.404 E2.4809
G1 X6.701 Y-18.399 E2.4820
G1 X7.607 Y-18.043 E2.5461
G1 X7.622 Y-18.037 E2.5471
G1 X7.775 Y-17.972 E2.5580
G1 X7.789 Y-17.965 E2.5591
G1 X8.673 Y-17.556 E2.6232
G1 X8.687 Y-17.549 E2.6243
G1 X8.835 Y-17.475 E2.6352
G1 X8.850 Y-17.467 E2.6363
G1 X9.707 Y-17.006 E2.7004
G1 X9.721 Y-16.998 E2.7014
G1 X9.865 Y-16.915 E2.7124
G1 X9.879 Y-16.907 E2.7134
G1 X10.707 Y-16.395 E2.7775
G1 X10.720 Y-16.387 E2.7786
G1 X10.859 Y-16.295 E2.7895
G1 X10.872 Y-16.286 E2.7906
G1 X11.668 Y-15.726 E2.8547
G1 X11.681 Y-15.716 E2.8557
G1 X11.814 Y-15.617 E2.8667
G1 X11.827 Y-15.607 E2.8677
G1 X12.588 Y-15.000 E2.9318
G1 X12.600 Y-14.990 E2.9329
G1 X12.727 Y-14.883 E2.9438
G1 X12.739 Y-14.872 E2.9449
G1 X13.462 Y-14.221 E3.0090
G1 X13.474 Y-14.210 E3.0101
G1 X13.594 Y-14.095 E3.0210
G1 X13.605 Y-14.084 E3.0220
G1 X14.289 Y-13.390 E3.0861
G1 X14.300 Y-13.379 E3.0872
G1 X14.413 Y-13.257 E3.0981
G1 X14.423 Y-13.245 E3.0992
G1 X15.064 Y-12.512 E3.1633
G1 X15.074 Y-12.500 E3.1644
G1 X15.180 Y-12.372 E3.1753
G1 X15.190 Y-12.359 E3.1763
G1 X15.785 Y-11.589 E3.2404
G1 X15.795 Y-11.576 E3.2415
G1 X15.892 Y-11.442 E3.2524
G1 X15.902 Y-11.429 E3.2535
G1 X16.450 Y-10.624 E3.3176
G1 X16.459 Y-10.611 E3.3187
G1 X16.548 Y-10.471 E3.3296
G1 X16.557 Y-10.457 E3.3307
G1 X17.056 Y-9.622 E3.3948
G1 X17.064 Y-9.608 E3.3958
G1 X17.145 Y-9.463 E3.4067
G1 X17.152 Y-9.449 E3.4078
G1 X17.601 Y-8.585 E3.4719
G1 X17.608 Y-8.570 E3.4730
G1 X17.680 Y-8.421 E3.4839
G1 X17.687 Y-8.406 E3.4850
G1 X18.083 Y-7.517 E3.5491
G1 X18.089 Y-7.502 E3.5501
G1 X18.152 Y-7.349 E3.5610
G1 X18.158 Y-7.334 E3.5621
G1 X18.500 Y-6.422 E3.6262
G1 X18.505 Y-6.407 E3.6273
G1 X18.559 Y-6.250 E3.6382
G1 X18.564 Y-6.235 E3.6393
G1 X18.851 Y-5.304 E3.7034
G1 X18.855 Y-5.289 E3.7044
G1 X18.899 Y-5.129 E3.7154
G1 X18.904 Y-5.113 E3.7164
G1 X19.134 Y-4.168 E3.7805
G1 X19.138 Y-4.152 E3.7816
G1 X19.172 Y-3.990 E3.7925
G1 X19.175 Y-3.974 E3.7936
G1 X19.349 Y-3.016 E3.8577
G1 X19.352 Y-3.000 E3.8587
G1 X19.377 Y-2.836 E3.8697
G1 X19.379 Y-2.820 E3.8707
G1 X19.495 Y-1.854 E3.9348
G1 X19.497 Y-1.838 E3.9359
G1 X19.512 Y-1.673 E3.9468
G1 X19.513 Y-1.656 E3.9479
G1 X19.571 Y-0.685 E4.0120
G1 X19.572 Y-0.669 E4.0131
G1 X19.577 Y-0.503 E4.0240
G1 X19.577 Y-0.487 E4.0250
G1 X19.577 Y0.487 E4.0891
G1 X19.577 Y0.503 E4.0902
G1 X19.572 Y0.669 E4.1011
G1 X19.571 Y0.685 E4.1022
G1 X19.513 Y1.656 E4.1663
G1 X19.512 Y1.673 E4.1674
G1 X19.497 Y1.838 E4.1783
G1 X19.495 Y1.854 E4.1793
G1 X19.379 Y2.820 E4.2434
G1 X19.377 Y2.836 E4.2445
G1 X19.352 Y3.000 E4.2554
G1 X19.349 Y3.016 E4.2565
G1 X19.175 Y3.974 E4.3206
G1 X19.172 Y3.990 E4.3217
G1 X19.138 Y4.152 E4.3326
G1 X19.134 Y4.168 E4.3336
G1 X18.904 Y5.113 E4.3978
G1 X18.899 Y5.129 E4.3988
G1 X18.855 Y5.289 E4.4097
G1 X18.851 Y5.304 E4.4108
G1 X18.564 Y6.235 E4.4749
G1 X18.559 Y6.250 E4.4760
G1 X18.505 Y6.407 E4.4869
G1 X18.500 Y6.422 E4.4880
G1 X18.158 Y7.334 E4.5521
G1 X18.152 Y7.349 E4.5531
G1 X18.089 Y7.502 E4.5640
G1 X18.083 Y7.517 E4.5651
G1 X17.687 Y8.406 E4.6292
G1 X17.680 Y8.421 E4.6303
G1 X17.608 Y8.570 E4.6412
G1 X17.601 Y8.585 E4.6423
G1 X17.152 Y9.449 E4.7064
G1 X17.145 Y9.463 E4.7074
G1 X17.064 Y9.608 E4.7183
G1 X17.056 Y9.622 E4.7194
G1 X16.557 Y10.457 E4.7835
G1 X16.548 Y10.471 E4.7846
G1 X16.459 Y10.611 E4.7955
G1 X16.450 Y10.624 E4.7966
G1 X15.902 Y11.429 E4.8607
G1 X15.892 Y11.442 E4.8617
G1 X15.795 Y11.576 E4.8727
G1 X15.785 Y11.589 E4.8737
G1 X15.190 Y12.359 E4.9378
G1 X15.180 Y12.372 E4.9389
G1 X15.074 Y12.500 E4.9498
G1 X15.064 Y12.512 E4.9509
G1 X14.423 Y13.245 E5.0150
G1 X14.413 Y13.257 E5.0160
G1 X14.300 Y13.379 E5.0270
G1 X14.289 Y13.390 E5.0280
G1 X13.605 Y14.084 E5.0921
G1 X13.594 Y14.095 E5.0932
G1 X13.474 Y14.210 E5.1041
G1 X13.462 Y14.221 E5.1052
G1 X12.739 Y14.872 E5.1693
G1 X12.727 Y14.883 E5.1704
G1 X12.600 Y14.990 E5.1813
G1 X12.588 Y15.000 E5.1823
G1 X11.827 Y15.607 E5.2464
G1 X11.814 Y15.617 E5.2475
G1 X11.681 Y15.716 E5.2584
G1 X11.668 Y15.726 E5.2595
G1 X10.872 Y16.286 E5.3236
G1 X10.859 Y16.295 E5.3247
G1 X10.720 Y16.387 E5.3356
G1 X10.707 Y16.395 E5.3366
G1 X9.879 Y16.907 E5.4008
G1 X9.865 Y16.915 E5.4018
G1 X9.721 Y16.998 E5.4127
G1 X9.707 Y17.006 E5.4138
G1 X8.850 Y17.467 E5.4779
G1 X8.835 Y17.475 E5.4790
G1 X8.687 Y17.549 E5.4899
G1 X8.673 Y17.556 E5.4910
G1 X7.789 Y17.965 E5.5551
G1 X7.775 Y17.972 E5.5561
G1 X7.622 Y18.037 E5.5670
G1 X7.607 Y18.043 E5.5681
G1 X6.701 Y18.399 E5.6322
G1 X6.686 Y18.404 E5.6333
G1 X6.530 Y18.460 E5.6442
G1 X6.515 Y18.466 E5.6453
G1 X5.589 Y18.766 E5.7094
G1 X5.573 Y18.771 E5.7104
G1 X5.414 Y18.818 E5.7214
G1 X5.399 Y18.822 E5.7224
G1 X4.456 Y19.067 E5.7865
G1 X4.441 Y19.071 E5.7876
G1 X4.279 Y19.108 E5.7985
G1 X4.263 Y19.111 E5.7996
G1 X3.308 Y19.299 E5.8637
G1 X3.292 Y19.302 E5.8647
G1 X3.129 Y19.329 E5.8757
G1 X3.113 Y19.331 E5.8767
G1 X2.148 Y19.462 E5.9408
G1 X2.132 Y19.464 E5.9419
G1 X1.967 Y19.481 E5.9528
G1 X1.951 Y19.483 E5.9539
G1 X0.980 Y19.556 E6.0180
G1 X0.964 Y19.557 E6.0190
G1 X0.799 Y19.564 E6.0300
G1 X0.782 Y19.564 E6.0310
G1 X-0.191 Y19.579 E6.0951
G1 X-0.207 Y19.579 E6.0962
G1 X-0.373 Y19.577 E6.1071
G1 X-0.389 Y19.576 E6.1082
G1 X-1.361 Y19.532 E6.1723
G1 X-1.377 Y19.531 E6.1733
G1 X-1.543 Y19.519 E6.1843
G1 X-1.559 Y19.518 E6.1853
G1 X-2.527 Y19.416 E6.2494
G1 X-2.543 Y19.414 E6.2505
G1 X-2.707 Y19.392 E6.2614
G1 X-2.723 Y19.389 E6.2625
G1 X-3.684 Y19.230 E6.3266
G1 X-3.700 Y19.227 E6.3277
G1 X-3.862 Y19.195 E6.3386
G1 X-3.878 Y19.192 E6.3396
G1 X-4.827 Y18.975 E6.4038
G1 X-4.843 Y18.971 E6.4048
G1 X-5.003 Y18.929 E6.4157
G1 X-5.019 Y18.925 E6.4168
G1 X-5.953 Y18.652 E6.4809
G1 X-5.969 Y18.647 E6.4820
G1 X-6.126 Y18.596 E6.4929
G1 X-6.142 Y18.591 E6.4939
G1 X-7.058 Y18.262 E6.5581
G1 X-7.073 Y18.257 E6.5591
G1 X-7.228 Y18.196 E6.5700
G1 X-7.242 Y18.190 E6.5711
G1 X-8.138 Y17.808 E6.6352
G1 X-8.152 Y17.801 E6.6363
G1 X-8.303 Y17.731 E6.6472
G1 X-8.317 Y17.724 E6.6483
G1 X-9.188 Y17.289 E6.7124
G1 X-9.202 Y17.281 E6.7134
G1 X-9.348 Y17.203 E6.7243
G1 X-9.362 Y17.195 E6.7254
G1 X-10.205 Y16.708 E6.7895
G1 X-10.219 Y16.700 E6.7906
G1 X-10.360 Y16.613 E6.8015
G1 X-10.374 Y16.604 E6.8026
G1 X-11.186 Y16.068 E6.8667
G1 X-11.200 Y16.059 E6.8677
G1 X-11.335 Y15.963 E6.8787
G1 X-11.348 Y15.954 E6.8797
G1 X-12.127 Y15.370 E6.9438
G1 X-12.140 Y15.360 E6.9449
G1 X-12.270 Y15.257 E6.9558
G1 X-12.282 Y15.246 E6.9569
G1 X-13.025 Y14.617 E7.0210
G1 X-13.037 Y14.606 E7.0220
G1 X-13.160 Y14.495 E7.0330
G1 X-13.172 Y14.484 E7.0340
G1 X-13.876 Y13.812 E7.0981
G1 X-13.887 Y13.800 E7.0992
G1 X-14.003 Y13.682 E7.1101
G1 X-14.015 Y13.670 E7.1112
G1 X-14.677 Y12.957 E7.1753
G1 X-14.688 Y12.945 E7.1763
G1 X-14.797 Y12.820 E7.1873
G1 X-14.807 Y12.808 E7.1883
G1 X-15.425 Y12.056 E7.2524
G1 X-15.435 Y12.043 E7.2535
G1 X-15.537 Y11.912 E7.2644
G1 X-15.547 Y11.899 E7.2655
G1 X-16.119 Y11.112 E7.3296
G1 X-16.128 Y11.098 E7.3307
G1 X-16.221 Y10.961 E7.3416
G1 X-16.230 Y10.948 E7.3426
G1 X-16.754 Y10.127 E7.4068
G1 X-16.763 Y10.114 E7.4078
G1 X-16.848 Y9.971 E7.4187
G1 X-16.856 Y9.957 E7.4198
G1 X-17.330 Y9.107 E7.4839
G1 X-17.338 Y9.093 E7.4850
G1 X-17.414 Y8.946 E7.4959
G1 X-17.421 Y8.931 E7.4969
G1 X-17.844 Y8.054 E7.5611
