; G-Code generated by Simplify3D(R) Version 3.1.0
; Sep 3, 2016 at 1:45:03 AM
; Settings Summary
;   processName,Process1
;   applyToModels,pause-start,shoulder-btns,pitft-btns
;   profileName,Rostock MAX v2 (modified)
;   profileVersion,2015-05-01 08:00:00
;   baseProfile,
;   printMaterial,semiflex
;   printQuality,Medium
;   printExtruders,
;   extruderName,Primary Extruder
;   extruderToolheadNumber,0
;   extruderDiameter,0.6
;   extruderAutoWidth,1
;   extruderWidth,0.72
;   extrusionMultiplier,1.1
;   extruderUseRetract,1
;   extruderRetractionDistance,1
;   extruderExtraRestartDistance,0
;   extruderRetractionZLift,0
;   extruderRetractionSpeed,1800
;   extruderUseCoasting,1
;   extruderCoastingDistance,1
;   extruderUseWipe,0
;   extruderWipeDistance,5
;   primaryExtruder,0
;   layerHeight,0.2
;   topSolidLayers,3
;   bottomSolidLayers,3
;   perimeterOutlines,3
;   printPerimetersInsideOut,1
;   startPointOption,2
;   startPointOriginX,0
;   startPointOriginY,0
;   startPointOriginZ,300
;   sequentialIslands,0
;   spiralVaseMode,0
;   firstLayerHeightPercentage,25
;   firstLayerWidthPercentage,100
;   firstLayerUnderspeed,0.4
;   useRaft,0
;   raftExtruder,0
;   raftLayers,3
;   raftOffset,15
;   raftSeparationDistance,0.14
;   raftInfill,85
;   disableRaftBaseLayers,0
;   useSkirt,1
;   skirtExtruder,0
;   skirtLayers,1
;   skirtOutlines,2
;   skirtOffset,5
;   usePrimePillar,0
;   primePillarExtruder,999
;   primePillarWidth,12
;   primePillarLocation,7
;   primePillarSpeedMultiplier,1
;   useOozeShield,0
;   oozeShieldExtruder,999
;   oozeShieldOffset,2
;   oozeShieldOutlines,1
;   oozeShieldSidewallShape,1
;   oozeShieldSidewallAngle,30
;   oozeShieldSpeedMultiplier,1
;   infillExtruder,0
;   internalInfillPattern,Rectilinear
;   externalInfillPattern,Rectilinear
;   infillPercentage,85
;   outlineOverlapPercentage,60
;   infillExtrusionWidthPercentage,100
;   minInfillLength,3
;   infillLayerInterval,1
;   infillAngles,45,-45
;   overlapInfillAngles,0
;   generateSupport,0
;   supportExtruder,0
;   supportInfillPercentage,30
;   supportExtraInflation,0
;   denseSupportLayers,0
;   denseSupportInfillPercentage,70
;   supportLayerInterval,1
;   supportHorizontalPartOffset,0.3
;   supportUpperSeparationLayers,1
;   supportLowerSeparationLayers,1
;   supportType,1
;   supportGridSpacing,4
;   maxOverhangAngle,45
;   supportAngles,0
;   temperatureName,Primary Extruder,Heated Bed
;   temperatureNumber,0,1
;   temperatureSetpointCount,1,1
;   temperatureSetpointLayers,1,1
;   temperatureSetpointTemperatures,220,80
;   temperatureStabilizeAtStartup,1,1
;   temperatureHeatedBed,0,1
;   temperatureRelayBetweenLayers,0,0
;   temperatureRelayBetweenLoops,0,0
;   fanLayers,1,2
;   fanSpeeds,0,100
;   blipFanToFullPower,1
;   adjustSpeedForCooling,1
;   minSpeedLayerTime,15
;   minCoolingSpeedSlowdown,20
;   increaseFanForCooling,0
;   minFanLayerTime,60
;   maxCoolingFanSpeed,100
;   increaseFanForBridging,0
;   bridgingFanSpeed,100
;   use5D,1
;   relativeEdistances,0
;   allowEaxisZeroing,1
;   independentExtruderAxes,0
;   includeM10123,0
;   stickySupport,1
;   applyToolheadOffsets,0
;   gcodeXoffset,0
;   gcodeYoffset,0
;   gcodeZoffset,0
;   overrideMachineDefinition,1
;   machineTypeOverride,1
;   strokeXoverride,197
;   strokeYoverride,197
;   strokeZoverride,375
;   originOffsetXoverride,98.5
;   originOffsetYoverride,98.5
;   originOffsetZoverride,0
;   homeXdirOverride,0
;   homeYdirOverride,0
;   homeZdirOverride,1
;   flipXoverride,1
;   flipYoverride,-1
;   flipZoverride,1
;   toolheadOffsets,0,0|0,0|0,0|0,0|0,0|0,0
;   overrideFirmwareConfiguration,1
;   firmwareTypeOverride,RepRap (Marlin/Repetier/Sprinter)
;   GPXconfigOverride,r2
;   baudRateOverride,115200
;   overridePrinterModels,1
;   printerModelsOverride
;   startingGcode,G28 ; home all axes
;   layerChangeGcode,
;   retractionGcode,
;   toolChangeGcode,
;   endingGcode,M104 S0 ; turn off extruder,M140 S0 ; turn off bed,G28 ; home axes,M84 ; disable motors
;   exportFileFormat,gcode
;   celebration,0
;   celebrationSong,Random Song
;   postProcessing,
;   defaultSpeed,1000
;   outlineUnderspeed,0.5
;   solidInfillUnderspeed,0.8
;   supportUnderspeed,0.8
;   rapidXYspeed,9000
;   rapidZspeed,1200
;   minBridgingArea,50
;   bridgingExtraInflation,0
;   bridgingExtrusionMultiplier,0.8
;   bridgingSpeedMultiplier,0.7
;   filamentDiameter,1.75
;   filamentPricePerKg,22
;   filamentDensity,1.25
;   useMinPrintHeight,0
;   minPrintHeight,0.05
;   useMaxPrintHeight,0
;   maxPrintHeight,0
;   useDiaphragm,0
;   diaphragmLayerInterval,20
;   robustSlicing,1
;   mergeAllIntoSolid,0
;   onlyRetractWhenCrossingOutline,0
;   retractBetweenLayers,0
;   useRetractionMinTravel,0
;   retractionMinTravel,3
;   retractWhileWiping,1
;   onlyWipeOutlines,1
;   avoidCrossingOutline,1
;   maxMovementDetourFactor,1.5
;   toolChangeRetractionDistance,12
;   toolChangeExtraRestartDistance,-0.5
;   toolChangeRetractionSpeed,600
;   allowThinWallGapFill,1
;   thinWallAllowedOverlapPercentage,10
;   horizontalSizeCompensation,0
G90
M82
M106 S0
M140 S80
M190 S80
M104 S220 T0
M109 S220 T0
G28 ; home all axes
G92 E0
G1 E-1.0000 F1800
G1 Z0.050 F1200
; layer 1, Z = 0.05
T0
; tool H0.200 W0.720
; skirt
G1 X0.510 Y0.353 F9000
G1 X1.485 Y0.353 F9000
G1 X1.612 Y0.364 F9000
G1 X1.721 Y0.393 F9000
G1 X1.822 Y0.440 F9000
G1 X1.918 Y0.508 F9000
G1 X1.995 Y0.585 F9000
G1 X2.059 Y0.677 F9000
G1 X2.107 Y0.779 F9000
G1 X2.136 Y0.888 F9000
G1 X2.147 Y1.015 F9000
G1 X2.147 Y1.484 F9000
G1 X8.566 Y5.920 F9000
G1 E0.0000 F540
G92 E0
G1 X22.936 Y5.920 E0.9464 F400
G1 X23.333 Y6.084 E0.9747
G1 X26.566 Y9.317 E1.2757
G1 X26.730 Y9.714 E1.3040
G1 X26.730 Y19.286 E1.9344
G1 X26.566 Y19.683 E1.9627
G1 X23.333 Y22.916 E2.2637
G1 X22.936 Y23.080 E2.2920
G1 X-23.786 Y23.080 E5.3689
G1 X-24.183 Y22.916 E5.3972
G1 X-27.416 Y19.683 E5.6983
G1 X-27.580 Y19.286 E5.7266
G1 X-27.580 Y9.714 E6.3569
G1 X-27.416 Y9.317 E6.3852
G1 X-26.983 Y8.885 E6.4255
G1 X-26.987 Y8.877 E6.4260
G1 X-27.319 Y7.966 E6.4899
G1 X-27.343 Y7.875 E6.4961
G1 X-27.530 Y6.814 E6.5671
G1 X-27.537 Y6.766 E6.5702
G1 X-27.579 Y6.276 E6.6026
G1 X-27.581 Y6.228 E6.6058
G1 X-27.563 Y0.328 E6.9943
G1 X-27.555 Y0.235 E7.0005
G1 X-27.387 Y-0.711 E7.0638
G1 X-27.362 Y-0.802 E7.0699
G1 X-26.953 Y-1.926 E7.1487
G1 X-26.924 Y-1.992 E7.1535
G1 X-26.582 Y-2.646 E7.2021
G1 X-26.545 Y-2.707 E7.2068
G1 X-26.201 Y-3.193 E7.2460
G1 X-26.254 Y-3.273 E7.2523
G1 X-26.273 Y-3.303 E7.2547
G1 X-26.454 Y-3.617 E7.2785
G1 X-26.471 Y-3.648 E7.2809
G1 X-26.805 Y-4.325 E7.3306
G1 X-26.819 Y-4.358 E7.3329
G1 X-26.958 Y-4.693 E7.3568
G1 X-26.971 Y-4.726 E7.3591
G1 X-27.213 Y-5.441 E7.4089
G1 X-27.224 Y-5.475 E7.4112
G1 X-27.318 Y-5.825 E7.4351
G1 X-27.326 Y-5.859 E7.4374
G1 X-27.473 Y-6.600 E7.4871
G1 X-27.479 Y-6.635 E7.4895
G1 X-27.526 Y-6.995 E7.5133
G1 X-27.529 Y-7.030 E7.5157
G1 X-27.572 Y-7.683 E7.5588
G1 X-27.573 Y-7.701 E7.5599
G1 X-27.579 Y-7.881 E7.5719
G1 X-27.579 Y-7.899 E7.5730
G1 X-27.580 Y-14.090 E7.9807
G1 X-27.580 Y-14.108 E7.9819
G1 X-27.574 Y-14.289 E7.9939
G1 X-27.573 Y-14.307 E7.9950
G1 X-27.529 Y-14.970 E8.0388
G1 X-27.526 Y-15.005 E8.0411
G1 X-27.479 Y-15.365 E8.0650
G1 X-27.473 Y-15.400 E8.0673
G1 X-27.326 Y-16.140 E8.1171
G1 X-27.318 Y-16.175 E8.1194
G1 X-27.224 Y-16.525 E8.1433
G1 X-27.213 Y-16.559 E8.1456
G1 X-26.971 Y-17.274 E8.1953
G1 X-26.958 Y-17.307 E8.1977
G1 X-26.819 Y-17.642 E8.2215
G1 X-26.805 Y-17.674 E8.2239
G1 X-26.471 Y-18.352 E8.2736
G1 X-26.454 Y-18.383 E8.2759
G1 X-26.273 Y-18.697 E8.2998
G1 X-26.254 Y-18.727 E8.3021
G1 X-25.835 Y-19.355 E8.3519
G1 X-25.814 Y-19.384 E8.3542
G1 X-25.593 Y-19.671 E8.3781
G1 X-25.571 Y-19.699 E8.3804
G1 X-25.073 Y-20.267 E8.4301
G1 X-25.049 Y-20.292 E8.4325
G1 X-24.792 Y-20.549 E8.4564
G1 X-24.766 Y-20.573 E8.4587
G1 X-24.199 Y-21.071 E8.5084
G1 X-24.171 Y-21.093 E8.5107
G1 X-23.884 Y-21.314 E8.5346
G1 X-23.855 Y-21.335 E8.5370
G1 X-23.227 Y-21.754 E8.5867
G1 X-23.197 Y-21.773 E8.5890
G1 X-22.883 Y-21.954 E8.6129
G1 X-22.852 Y-21.971 E8.6152
G1 X-22.174 Y-22.305 E8.6650
G1 X-22.142 Y-22.319 E8.6673
G1 X-21.807 Y-22.458 E8.6912
G1 X-21.774 Y-22.471 E8.6935
G1 X-21.059 Y-22.713 E8.7432
G1 X-21.025 Y-22.724 E8.7455
G1 X-20.675 Y-22.818 E8.7694
G1 X-20.640 Y-22.826 E8.7718
G1 X-19.900 Y-22.973 E8.8215
G1 X-19.865 Y-22.979 E8.8238
G1 X-19.506 Y-23.026 E8.8477
G1 X-19.470 Y-23.029 E8.8500
G1 X-18.817 Y-23.072 E8.8931
G1 X-18.800 Y-23.073 E8.8943
G1 X-18.618 Y-23.079 E8.9062
G1 X-18.601 Y-23.079 E8.9074
G1 X18.591 Y-23.080 E11.3566
G1 X18.608 Y-23.080 E11.3578
G1 X18.790 Y-23.074 E11.3698
G1 X18.807 Y-23.073 E11.3709
G1 X19.470 Y-23.029 E11.4147
G1 X19.506 Y-23.026 E11.4170
G1 X19.865 Y-22.979 E11.4409
G1 X19.900 Y-22.973 E11.4432
G1 X20.640 Y-22.826 E11.4929
G1 X20.675 Y-22.818 E11.4953
G1 X21.025 Y-22.724 E11.5192
G1 X21.059 Y-22.713 E11.5215
G1 X21.774 Y-22.471 E11.5712
G1 X21.807 Y-22.458 E11.5735
G1 X22.142 Y-22.319 E11.5974
G1 X22.174 Y-22.305 E11.5997
G1 X22.852 Y-21.971 E11.6495
G1 X22.883 Y-21.954 E11.6518
G1 X23.197 Y-21.773 E11.6757
G1 X23.227 Y-21.754 E11.6780
G1 X23.855 Y-21.335 E11.7278
G1 X23.884 Y-21.314 E11.7301
G1 X24.171 Y-21.093 E11.7540
G1 X24.199 Y-21.071 E11.7563
G1 X24.766 Y-20.573 E11.8060
G1 X24.792 Y-20.549 E11.8083
G1 X25.049 Y-20.292 E11.8322
G1 X25.073 Y-20.267 E11.8346
G1 X25.571 Y-19.699 E11.8843
G1 X25.593 Y-19.671 E11.8866
G1 X25.814 Y-19.384 E11.9105
G1 X25.835 Y-19.355 E11.9128
G1 X26.254 Y-18.727 E11.9626
G1 X26.273 Y-18.697 E11.9649
G1 X26.454 Y-18.383 E11.9888
G1 X26.471 Y-18.352 E11.9911
G1 X26.805 Y-17.674 E12.0408
G1 X26.819 Y-17.642 E12.0432
G1 X26.958 Y-17.307 E12.0671
G1 X26.971 Y-17.274 E12.0694
G1 X27.213 Y-16.559 E12.1191
G1 X27.224 Y-16.525 E12.1214
G1 X27.318 Y-16.175 E12.1453
G1 X27.326 Y-16.140 E12.1476
G1 X27.473 Y-15.400 E12.1974
G1 X27.479 Y-15.365 E12.1997
G1 X27.526 Y-15.005 E12.2236
G1 X27.529 Y-14.970 E12.2259
G1 X27.572 Y-14.317 E12.2690
G1 X27.573 Y-14.299 E12.2702
G1 X27.579 Y-14.119 E12.2821
G1 X27.579 Y-14.101 E12.2833
G1 X27.580 Y-7.910 E12.6910
G1 X27.580 Y-7.892 E12.6921
G1 X27.574 Y-7.711 E12.7041
G1 X27.573 Y-7.693 E12.7053
G1 X27.529 Y-7.030 E12.7490
G1 X27.526 Y-6.995 E12.7514
G1 X27.479 Y-6.635 E12.7753
G1 X27.473 Y-6.600 E12.7776
G1 X27.326 Y-5.860 E12.8273
G1 X27.318 Y-5.825 E12.8296
G1 X27.224 Y-5.475 E12.8535
G1 X27.213 Y-5.441 E12.8558
G1 X26.971 Y-4.726 E12.9056
G1 X26.958 Y-4.693 E12.9079
G1 X26.819 Y-4.358 E12.9318
G1 X26.805 Y-4.325 E12.9341
G1 X26.471 Y-3.648 E12.9839
G1 X26.454 Y-3.617 E12.9862
G1 X26.273 Y-3.303 E13.0101
G1 X26.254 Y-3.273 E13.0124
G1 X25.835 Y-2.645 E13.0621
G1 X25.814 Y-2.616 E13.0644
G1 X25.593 Y-2.329 E13.0883
G1 X25.571 Y-2.301 E13.0907
G1 X25.073 Y-1.734 E13.1404
G1 X25.049 Y-1.708 E13.1427
G1 X24.792 Y-1.451 E13.1666
G1 X24.766 Y-1.427 E13.1689
G1 X24.199 Y-0.929 E13.2187
G1 X24.171 Y-0.907 E13.2210
G1 X23.884 Y-0.686 E13.2449
G1 X23.855 Y-0.665 E13.2472
G1 X23.227 Y-0.246 E13.2969
G1 X23.197 Y-0.227 E13.2993
G1 X22.883 Y-0.046 E13.3231
G1 X22.852 Y-0.029 E13.3255
G1 X22.175 Y0.305 E13.3752
G1 X22.142 Y0.319 E13.3775
G1 X21.807 Y0.458 E13.4014
G1 X21.774 Y0.471 E13.4037
G1 X21.059 Y0.713 E13.4535
G1 X21.025 Y0.724 E13.4558
G1 X20.675 Y0.818 E13.4797
G1 X20.640 Y0.826 E13.4820
G1 X19.900 Y0.973 E13.5318
G1 X19.865 Y0.979 E13.5341
G1 X19.505 Y1.026 E13.5580
G1 X19.470 Y1.029 E13.5603
G1 X18.817 Y1.072 E13.6034
G1 X18.799 Y1.073 E13.6046
G1 X18.618 Y1.079 E13.6165
G1 X18.601 Y1.079 E13.6177
G1 X8.580 Y1.080 E14.2776
G1 X8.569 Y4.920 E14.5305
G1 X8.566 Y5.920 F400
G92 E0
G1 E-1.0000 F1800
G1 X7.843 Y6.639 F9000
G1 E0.0000 F1800
G92 E0
G1 X22.793 Y6.640 E0.9845 F400
G1 X22.925 Y6.695 E0.9939
G1 X25.955 Y9.725 E1.2761
G1 X26.010 Y9.857 E1.2856
G1 X26.010 Y19.143 E1.8971
G1 X25.955 Y19.275 E1.9065
G1 X22.925 Y22.305 E2.1887
G1 X22.793 Y22.360 E2.1981
G1 X-23.643 Y22.360 E5.2561
G1 X-23.775 Y22.305 E5.2656
G1 X-26.805 Y19.275 E5.5478
G1 X-26.860 Y19.143 E5.5572
G1 X-26.860 Y9.857 E6.1687
G1 X-26.805 Y9.725 E6.1781
G1 X-26.089 Y9.009 E6.2448
G1 X-26.308 Y8.630 E6.2737
G1 X-26.321 Y8.601 E6.2757
G1 X-26.631 Y7.749 E6.3354
G1 X-26.640 Y7.719 E6.3375
G1 X-26.819 Y6.704 E6.4053
G1 X-26.821 Y6.688 E6.4064
G1 X-26.860 Y6.230 E6.4367
G1 X-26.861 Y6.214 E6.4377
G1 X-26.843 Y0.361 E6.8232
G1 X-26.841 Y0.330 E6.8252
G1 X-26.683 Y-0.555 E6.8844
G1 X-26.675 Y-0.585 E6.8865
G1 X-26.285 Y-1.657 E6.9617
G1 X-26.275 Y-1.679 E6.9632
G1 X-25.955 Y-2.291 E7.0087
G1 X-25.943 Y-2.311 E7.0102
G1 X-25.447 Y-3.013 E7.0668
G1 X-25.432 Y-3.031 E7.0684
G1 X-25.313 Y-3.160 E7.0800
G1 X-25.649 Y-3.663 E7.1198
G1 X-25.655 Y-3.673 E7.1206
G1 X-25.825 Y-3.967 E7.1429
G1 X-25.830 Y-3.977 E7.1437
G1 X-26.154 Y-4.633 E7.1918
G1 X-26.159 Y-4.644 E7.1926
G1 X-26.289 Y-4.957 E7.2149
G1 X-26.293 Y-4.968 E7.2157
G1 X-26.528 Y-5.661 E7.2639
G1 X-26.531 Y-5.672 E7.2647
G1 X-26.619 Y-6.000 E7.2870
G1 X-26.622 Y-6.012 E7.2878
G1 X-26.764 Y-6.729 E7.3360
G1 X-26.766 Y-6.741 E7.3367
G1 X-26.811 Y-7.077 E7.3591
G1 X-26.812 Y-7.089 E7.3599
G1 X-26.853 Y-7.724 E7.4018
G1 X-26.854 Y-7.730 E7.4022
G1 X-26.859 Y-7.899 E7.4133
G1 X-26.859 Y-7.905 E7.4137
G1 X-26.860 Y-14.084 E7.8207
G1 X-26.860 Y-14.090 E7.8210
G1 X-26.854 Y-14.260 E7.8322
G1 X-26.854 Y-14.266 E7.8326
G1 X-26.812 Y-14.911 E7.8752
G1 X-26.811 Y-14.923 E7.8760
G1 X-26.766 Y-15.259 E7.8983
G1 X-26.764 Y-15.271 E7.8991
G1 X-26.622 Y-15.988 E7.9473
G1 X-26.619 Y-16.000 E7.9481
G1 X-26.531 Y-16.328 E7.9704
G1 X-26.528 Y-16.339 E7.9712
G1 X-26.293 Y-17.032 E8.0193
G1 X-26.289 Y-17.043 E8.0201
G1 X-26.159 Y-17.356 E8.0424
G1 X-26.154 Y-17.367 E8.0432
G1 X-25.830 Y-18.023 E8.0914
G1 X-25.825 Y-18.033 E8.0922
G1 X-25.655 Y-18.327 E8.1145
G1 X-25.649 Y-18.337 E8.1153
G1 X-25.243 Y-18.945 E8.1635
G1 X-25.236 Y-18.955 E8.1642
G1 X-25.029 Y-19.224 E8.1866
G1 X-25.022 Y-19.233 E8.1874
G1 X-24.539 Y-19.783 E8.2355
G1 X-24.531 Y-19.792 E8.2363
G1 X-24.291 Y-20.031 E8.2586
G1 X-24.283 Y-20.039 E8.2594
G1 X-23.733 Y-20.522 E8.3076
G1 X-23.724 Y-20.529 E8.3084
G1 X-23.455 Y-20.736 E8.3307
G1 X-23.445 Y-20.742 E8.3315
G1 X-22.837 Y-21.149 E8.3797
G1 X-22.827 Y-21.155 E8.3804
G1 X-22.533 Y-21.325 E8.4028
G1 X-22.523 Y-21.330 E8.4036
G1 X-21.866 Y-21.654 E8.4517
G1 X-21.856 Y-21.659 E8.4525
G1 X-21.543 Y-21.788 E8.4748
G1 X-21.532 Y-21.793 E8.4756
G1 X-20.839 Y-22.028 E8.5238
G1 X-20.828 Y-22.031 E8.5246
G1 X-20.500 Y-22.119 E8.5469
G1 X-20.488 Y-22.122 E8.5477
G1 X-19.771 Y-22.264 E8.5959
G1 X-19.759 Y-22.266 E8.5966
G1 X-19.423 Y-22.311 E8.6190
G1 X-19.411 Y-22.312 E8.6197
G1 X-18.776 Y-22.353 E8.6617
G1 X-18.770 Y-22.354 E8.6621
G1 X-18.601 Y-22.359 E8.6732
G1 X-18.595 Y-22.359 E8.6736
G1 X18.585 Y-22.360 E11.1221
G1 X18.591 Y-22.360 E11.1225
G1 X18.760 Y-22.354 E11.1336
G1 X18.766 Y-22.354 E11.1340
G1 X19.412 Y-22.312 E11.1766
G1 X19.423 Y-22.311 E11.1774
G1 X19.759 Y-22.266 E11.1997
G1 X19.771 Y-22.264 E11.2005
G1 X20.488 Y-22.122 E11.2487
G1 X20.500 Y-22.119 E11.2494
G1 X20.828 Y-22.031 E11.2718
G1 X20.839 Y-22.028 E11.2726
G1 X21.532 Y-21.793 E11.3207
G1 X21.543 Y-21.788 E11.3215
G1 X21.856 Y-21.659 E11.3438
G1 X21.866 Y-21.654 E11.3446
G1 X22.523 Y-21.330 E11.3928
G1 X22.533 Y-21.325 E11.3936
G1 X22.827 Y-21.155 E11.4159
G1 X22.837 Y-21.149 E11.4167
G1 X23.445 Y-20.742 E11.4649
G1 X23.455 Y-20.736 E11.4656
G1 X23.724 Y-20.529 E11.4880
G1 X23.733 Y-20.522 E11.4887
G1 X24.283 Y-20.039 E11.5369
G1 X24.291 Y-20.031 E11.5377
G1 X24.531 Y-19.792 E11.5600
G1 X24.539 Y-19.783 E11.5608
G1 X25.022 Y-19.233 E11.6090
G1 X25.029 Y-19.224 E11.6098
G1 X25.236 Y-18.955 E11.6321
G1 X25.243 Y-18.945 E11.6329
G1 X25.649 Y-18.337 E11.6810
G1 X25.655 Y-18.327 E11.6818
G1 X25.825 Y-18.033 E11.7042
G1 X25.830 Y-18.023 E11.7049
G1 X26.154 Y-17.367 E11.7531
G1 X26.159 Y-17.356 E11.7539
G1 X26.289 Y-17.042 E11.7762
G1 X26.293 Y-17.031 E11.7770
G1 X26.528 Y-16.339 E11.8252
G1 X26.531 Y-16.327 E11.8260
G1 X26.619 Y-16.000 E11.8483
G1 X26.622 Y-15.988 E11.8491
G1 X26.764 Y-15.271 E11.8972
G1 X26.766 Y-15.259 E11.8980
G1 X26.811 Y-14.923 E11.9204
G1 X26.812 Y-14.911 E11.9211
G1 X26.853 Y-14.276 E11.9631
