; G-Code generated by Simplify3D(R) Version 3.1.0
; Sep 3, 2016 at 8:59:41 PM
; Settings Summary
;   processName,Process1
;   applyToModels,pause-start
;   profileName,Rostock MAX v2 (modified)
;   profileVersion,2015-05-01 08:00:00
;   baseProfile,
;   printMaterial,semiflex
;   printQuality,Medium
;   printExtruders,
;   extruderName,Primary Extruder
;   extruderToolheadNumber,0
;   extruderDiameter,0.6
;   extruderAutoWidth,1
;   extruderWidth,0.72
;   extrusionMultiplier,1.1
;   extruderUseRetract,1
;   extruderRetractionDistance,1
;   extruderExtraRestartDistance,0
;   extruderRetractionZLift,0
;   extruderRetractionSpeed,1800
;   extruderUseCoasting,1
;   extruderCoastingDistance,1
;   extruderUseWipe,0
;   extruderWipeDistance,5
;   primaryExtruder,0
;   layerHeight,0.2
;   topSolidLayers,3
;   bottomSolidLayers,3
;   perimeterOutlines,3
;   printPerimetersInsideOut,1
;   startPointOption,2
;   startPointOriginX,0
;   startPointOriginY,0
;   startPointOriginZ,300
;   sequentialIslands,0
;   spiralVaseMode,0
;   firstLayerHeightPercentage,25
;   firstLayerWidthPercentage,100
;   firstLayerUnderspeed,0.4
;   useRaft,0
;   raftExtruder,0
;   raftLayers,3
;   raftOffset,15
;   raftSeparationDistance,0.14
;   raftInfill,85
;   disableRaftBaseLayers,0
;   useSkirt,1
;   skirtExtruder,0
;   skirtLayers,1
;   skirtOutlines,3
;   skirtOffset,5
;   usePrimePillar,0
;   primePillarExtruder,999
;   primePillarWidth,12
;   primePillarLocation,7
;   primePillarSpeedMultiplier,1
;   useOozeShield,0
;   oozeShieldExtruder,999
;   oozeShieldOffset,2
;   oozeShieldOutlines,1
;   oozeShieldSidewallShape,1
;   oozeShieldSidewallAngle,30
;   oozeShieldSpeedMultiplier,1
;   infillExtruder,0
;   internalInfillPattern,Rectilinear
;   externalInfillPattern,Rectilinear
;   infillPercentage,85
;   outlineOverlapPercentage,60
;   infillExtrusionWidthPercentage,100
;   minInfillLength,3
;   infillLayerInterval,1
;   infillAngles,45,-45
;   overlapInfillAngles,0
;   generateSupport,0
;   supportExtruder,0
;   supportInfillPercentage,30
;   supportExtraInflation,0
;   denseSupportLayers,0
;   denseSupportInfillPercentage,70
;   supportLayerInterval,1
;   supportHorizontalPartOffset,0.3
;   supportUpperSeparationLayers,1
;   supportLowerSeparationLayers,1
;   supportType,1
;   supportGridSpacing,4
;   maxOverhangAngle,45
;   supportAngles,0
;   temperatureName,Primary Extruder,Heated Bed
;   temperatureNumber,0,1
;   temperatureSetpointCount,1,1
;   temperatureSetpointLayers,1,1
;   temperatureSetpointTemperatures,220,80
;   temperatureStabilizeAtStartup,1,1
;   temperatureHeatedBed,0,1
;   temperatureRelayBetweenLayers,0,0
;   temperatureRelayBetweenLoops,0,0
;   fanLayers,1,2
;   fanSpeeds,0,100
;   blipFanToFullPower,1
;   adjustSpeedForCooling,1
;   minSpeedLayerTime,15
;   minCoolingSpeedSlowdown,20
;   increaseFanForCooling,0
;   minFanLayerTime,60
;   maxCoolingFanSpeed,100
;   increaseFanForBridging,0
;   bridgingFanSpeed,100
;   use5D,1
;   relativeEdistances,0
;   allowEaxisZeroing,1
;   independentExtruderAxes,0
;   includeM10123,0
;   stickySupport,1
;   applyToolheadOffsets,0
;   gcodeXoffset,0
;   gcodeYoffset,0
;   gcodeZoffset,0
;   overrideMachineDefinition,1
;   machineTypeOverride,1
;   strokeXoverride,197
;   strokeYoverride,197
;   strokeZoverride,375
;   originOffsetXoverride,98.5
;   originOffsetYoverride,98.5
;   originOffsetZoverride,0
;   homeXdirOverride,0
;   homeYdirOverride,0
;   homeZdirOverride,1
;   flipXoverride,1
;   flipYoverride,-1
;   flipZoverride,1
;   toolheadOffsets,0,0|0,0|0,0|0,0|0,0|0,0
;   overrideFirmwareConfiguration,1
;   firmwareTypeOverride,RepRap (Marlin/Repetier/Sprinter)
;   GPXconfigOverride,r2
;   baudRateOverride,115200
;   overridePrinterModels,1
;   printerModelsOverride
;   startingGcode,G28 ; home all axes
;   layerChangeGcode,
;   retractionGcode,
;   toolChangeGcode,
;   endingGcode,M104 S0 ; turn off extruder,M140 S0 ; turn off bed,G28 ; home axes,M84 ; disable motors
;   exportFileFormat,gcode
;   celebration,0
;   celebrationSong,Random Song
;   postProcessing,
;   defaultSpeed,1000
;   outlineUnderspeed,0.5
;   solidInfillUnderspeed,0.8
;   supportUnderspeed,0.8
;   rapidXYspeed,9000
;   rapidZspeed,1200
;   minBridgingArea,50
;   bridgingExtraInflation,0
;   bridgingExtrusionMultiplier,0.8
;   bridgingSpeedMultiplier,0.7
;   filamentDiameter,1.75
;   filamentPricePerKg,22
;   filamentDensity,1.25
;   useMinPrintHeight,0
;   minPrintHeight,0.05
;   useMaxPrintHeight,0
;   maxPrintHeight,0
;   useDiaphragm,0
;   diaphragmLayerInterval,20
;   robustSlicing,1
;   mergeAllIntoSolid,0
;   onlyRetractWhenCrossingOutline,0
;   retractBetweenLayers,0
;   useRetractionMinTravel,0
;   retractionMinTravel,3
;   retractWhileWiping,1
;   onlyWipeOutlines,1
;   avoidCrossingOutline,1
;   maxMovementDetourFactor,1.5
;   toolChangeRetractionDistance,12
;   toolChangeExtraRestartDistance,-0.5
;   toolChangeRetractionSpeed,600
;   allowThinWallGapFill,1
;   thinWallAllowedOverlapPercentage,10
;   horizontalSizeCompensation,0
G90
M82
M106 S0
M140 S80
M190 S80
M104 S220 T0
M109 S220 T0
G28 ; home all axes
G92 E0
G1 E-1.0000 F1800
G1 Z0.050 F1200
; layer 1, Z = 0.05
T0
; tool H0.200 W0.720
; skirt
G1 X11.129 Y-10.300 F9000
G1 E0.0000 F540
G92 E0
G1 X11.168 Y-10.299 E0.0026 F400
G1 X11.425 Y-10.288 E0.0196
G1 X11.465 Y-10.285 E0.0221
G1 X12.152 Y-10.225 E0.0676
G1 X12.268 Y-10.207 E0.0753
G1 X13.023 Y-10.040 E0.1262
G1 X13.136 Y-10.007 E0.1340
G1 X14.311 Y-9.579 E0.2163
G1 X14.453 Y-9.513 E0.2267
G1 X15.347 Y-8.997 E0.2946
G1 X15.476 Y-8.907 E0.3050
G1 X16.532 Y-8.020 E0.3958
G1 X16.643 Y-7.909 E0.4062
G1 X17.307 Y-7.118 E0.4741
G1 X17.397 Y-6.990 E0.4845
G1 X18.087 Y-5.795 E0.5753
G1 X18.153 Y-5.653 E0.5857
G1 X18.506 Y-4.683 E0.6536
G1 X18.547 Y-4.531 E0.6640
G1 X18.742 Y-3.423 E0.7381
G1 X18.753 Y-3.344 E0.7434
G1 X18.797 Y-2.822 E0.7778
G1 X18.801 Y-2.742 E0.7831
G1 X18.783 Y3.205 E1.1748
G1 X18.769 Y3.360 E1.1850
G1 X18.590 Y4.368 E1.2524
G1 X18.550 Y4.518 E1.2627
G1 X18.122 Y5.695 E1.3451
G1 X18.073 Y5.805 E1.3530
G1 X17.709 Y6.501 E1.4048
G1 X17.646 Y6.603 E1.4127
G1 X17.096 Y7.382 E1.4755
G1 X17.023 Y7.472 E1.4831
G1 X16.505 Y8.034 E1.5334
G1 X16.421 Y8.115 E1.5411
G1 X15.570 Y8.827 E1.6142
G1 X15.475 Y8.896 E1.6219
G1 X14.826 Y9.310 E1.6726
G1 X14.723 Y9.366 E1.6804
G1 X13.865 Y9.766 E1.7427
G1 X13.756 Y9.809 E1.7504
G1 X13.018 Y10.041 E1.8013
G1 X12.904 Y10.069 E1.8091
G1 X11.927 Y10.241 E1.8744
G1 X11.849 Y10.252 E1.8796
G1 X11.336 Y10.297 E1.9135
G1 X11.258 Y10.300 E1.9187
G1 X-11.258 Y10.300 E3.4014
G1 X-11.336 Y10.297 E3.4066
G1 X-11.849 Y10.252 E3.4405
G1 X-11.927 Y10.241 E3.4457
G1 X-12.904 Y10.069 E3.5110
G1 X-13.018 Y10.041 E3.5187
G1 X-13.756 Y9.809 E3.5697
G1 X-13.865 Y9.766 E3.5774
G1 X-14.724 Y9.365 E3.6398
G1 X-14.828 Y9.309 E3.6476
G1 X-15.480 Y8.893 E3.6985
G1 X-15.575 Y8.824 E3.7063
G1 X-16.532 Y8.020 E3.7886
G1 X-16.643 Y7.909 E3.7990
G1 X-17.307 Y7.118 E3.8669
G1 X-17.397 Y6.990 E3.8773
G1 X-18.087 Y5.795 E3.9681
G1 X-18.153 Y5.653 E3.9784
G1 X-18.506 Y4.683 E4.0464
G1 X-18.547 Y4.531 E4.0568
G1 X-18.742 Y3.423 E4.1309
G1 X-18.753 Y3.344 E4.1361
G1 X-18.797 Y2.822 E4.1706
G1 X-18.801 Y2.742 E4.1759
G1 X-18.783 Y-3.205 E4.5675
G1 X-18.769 Y-3.360 E4.5778
G1 X-18.590 Y-4.368 E4.6452
G1 X-18.550 Y-4.518 E4.6555
G1 X-18.122 Y-5.695 E4.7379
G1 X-18.073 Y-5.805 E4.7458
G1 X-17.709 Y-6.501 E4.7976
G1 X-17.646 Y-6.603 E4.8054
G1 X-17.096 Y-7.382 E4.8682
G1 X-17.023 Y-7.472 E4.8759
G1 X-16.505 Y-8.034 E4.9262
G1 X-16.421 Y-8.115 E4.9339
G1 X-15.570 Y-8.827 E5.0070
G1 X-15.475 Y-8.896 E5.0147
G1 X-14.826 Y-9.310 E5.0654
G1 X-14.723 Y-9.366 E5.0731
G1 X-13.865 Y-9.766 E5.1354
G1 X-13.756 Y-9.809 E5.1432
G1 X-13.018 Y-10.041 E5.1941
G1 X-12.904 Y-10.069 E5.2019
G1 X-11.927 Y-10.241 E5.2672
G1 X-11.849 Y-10.252 E5.2724
G1 X-11.336 Y-10.297 E5.3063
G1 X-11.258 Y-10.300 E5.3115
G1 X10.129 Y-10.300 E6.7199
G1 X11.129 Y-10.300 F400
G92 E0
G1 E-1.0000 F1800
G1 X11.121 Y-9.580 F9000
G1 E0.0000 F1800
G92 E0
G1 X11.145 Y-9.579 E0.0016 F400
G1 X11.386 Y-9.569 E0.0175
G1 X11.410 Y-9.567 E0.0190
G1 X12.065 Y-9.510 E0.0624
G1 X12.135 Y-9.499 E0.0670
G1 X12.844 Y-9.342 E0.1148
G1 X12.912 Y-9.322 E0.1195
G1 X14.035 Y-8.914 E0.1982
G1 X14.120 Y-8.874 E0.2044
G1 X14.960 Y-8.389 E0.2682
G1 X15.037 Y-8.335 E0.2744
G1 X16.045 Y-7.489 E0.3611
G1 X16.112 Y-7.422 E0.3674
G1 X16.735 Y-6.680 E0.4312
G1 X16.789 Y-6.602 E0.4374
G1 X17.447 Y-5.462 E0.5241
G1 X17.487 Y-5.377 E0.5303
G1 X17.819 Y-4.466 E0.5941
G1 X17.843 Y-4.375 E0.6003
G1 X18.030 Y-3.314 E0.6713
G1 X18.037 Y-3.266 E0.6745
G1 X18.079 Y-2.776 E0.7069
G1 X18.081 Y-2.728 E0.7100
G1 X18.063 Y3.172 E1.0986
G1 X18.055 Y3.265 E1.1047
G1 X17.887 Y4.211 E1.1680
G1 X17.862 Y4.302 E1.1742
G1 X17.453 Y5.426 E1.2530
G1 X17.424 Y5.492 E1.2577
G1 X17.082 Y6.146 E1.3063
G1 X17.045 Y6.207 E1.3111
G1 X16.522 Y6.947 E1.3707
G1 X16.478 Y7.002 E1.3753
G1 X15.992 Y7.529 E1.4226
G1 X15.941 Y7.577 E1.4272
G1 X15.126 Y8.260 E1.4972
G1 X15.069 Y8.302 E1.5018
G1 X14.459 Y8.690 E1.5495
G1 X14.397 Y8.724 E1.5541
G1 X13.583 Y9.103 E1.6133
G1 X13.517 Y9.129 E1.6179
G1 X12.824 Y9.347 E1.6658
G1 X12.755 Y9.364 E1.6704
G1 X11.818 Y9.530 E1.7331
G1 X11.771 Y9.536 E1.7362
G1 X11.289 Y9.578 E1.7681
G1 X11.242 Y9.580 E1.7712
G1 X-11.242 Y9.580 E3.2519
G1 X-11.289 Y9.578 E3.2550
G1 X-11.771 Y9.536 E3.2868
G1 X-11.818 Y9.530 E3.2899
G1 X-12.755 Y9.364 E3.3526
G1 X-12.824 Y9.347 E3.3573
G1 X-13.517 Y9.129 E3.4051
G1 X-13.583 Y9.103 E3.4098
G1 X-14.399 Y8.723 E3.4691
G1 X-14.461 Y8.689 E3.4737
G1 X-15.073 Y8.299 E3.5216
G1 X-15.130 Y8.257 E3.5262
G1 X-16.045 Y7.489 E3.6049
G1 X-16.112 Y7.422 E3.6111
G1 X-16.735 Y6.680 E3.6749
G1 X-16.789 Y6.602 E3.6811
G1 X-17.447 Y5.462 E3.7678
G1 X-17.487 Y5.377 E3.7741
G1 X-17.819 Y4.466 E3.8379
G1 X-17.843 Y4.375 E3.8441
G1 X-18.030 Y3.314 E3.9151
G1 X-18.037 Y3.266 E3.9182
G1 X-18.079 Y2.776 E3.9506
G1 X-18.081 Y2.728 E3.9538
G1 X-18.063 Y-3.172 E4.3423
G1 X-18.055 Y-3.265 E4.3485
G1 X-17.887 Y-4.211 E4.4118
G1 X-17.862 Y-4.302 E4.4179
G1 X-17.453 Y-5.426 E4.4968
G1 X-17.424 Y-5.492 E4.5015
G1 X-17.082 Y-6.146 E4.5501
G1 X-17.045 Y-6.207 E4.5548
G1 X-16.522 Y-6.947 E4.6145
G1 X-16.478 Y-7.002 E4.6191
G1 X-15.992 Y-7.529 E4.6663
G1 X-15.941 Y-7.577 E4.6709
G1 X-15.126 Y-8.260 E4.7410
G1 X-15.069 Y-8.302 E4.7456
G1 X-14.459 Y-8.690 E4.7932
G1 X-14.397 Y-8.724 E4.7978
G1 X-13.583 Y-9.103 E4.8570
G1 X-13.517 Y-9.129 E4.8617
G1 X-12.824 Y-9.347 E4.9095
G1 X-12.755 Y-9.364 E4.9142
G1 X-11.818 Y-9.530 E4.9769
G1 X-11.771 Y-9.536 E4.9800
G1 X-11.289 Y-9.578 E5.0119
G1 X-11.242 Y-9.580 E5.0150
G1 X10.121 Y-9.580 E6.4218
G1 X11.121 Y-9.580 F400
G92 E0
G1 E-1.0000 F1800
G1 X11.113 Y-8.860 F9000
G1 E0.0000 F1800
G92 E0
G1 X11.121 Y-8.860 E0.0005 F400
G1 X11.347 Y-8.850 E0.0154
G1 X11.355 Y-8.849 E0.0159
G1 X11.979 Y-8.795 E0.0572
G1 X12.002 Y-8.791 E0.0588
G1 X12.665 Y-8.644 E0.1035
G1 X12.688 Y-8.638 E0.1050
G1 X13.759 Y-8.248 E0.1801
G1 X13.788 Y-8.235 E0.1822
G1 X14.572 Y-7.781 E0.2418
G1 X14.598 Y-7.763 E0.2439
G1 X15.559 Y-6.957 E0.3265
G1 X15.581 Y-6.935 E0.3285
G1 X16.163 Y-6.241 E0.3882
G1 X16.181 Y-6.215 E0.3903
G1 X16.808 Y-5.130 E0.4729
G1 X16.821 Y-5.101 E0.4749
G1 X17.131 Y-4.249 E0.5346
G1 X17.140 Y-4.219 E0.5367
G1 X17.319 Y-3.204 E0.6045
G1 X17.321 Y-3.188 E0.6056
G1 X17.360 Y-2.730 E0.6359
G1 X17.361 Y-2.714 E0.6369
G1 X17.343 Y3.139 E1.0224
G1 X17.341 Y3.170 E1.0244
G1 X17.183 Y4.054 E1.0836
G1 X17.175 Y4.085 E1.0857
G1 X16.785 Y5.157 E1.1609
G1 X16.775 Y5.179 E1.1624
G1 X16.455 Y5.791 E1.2079
G1 X16.443 Y5.811 E1.2095
G1 X15.947 Y6.513 E1.2660
G1 X15.932 Y6.531 E1.2676
G1 X15.478 Y7.024 E1.3117
G1 X15.461 Y7.040 E1.3133
G1 X14.682 Y7.693 E1.3802
G1 X14.663 Y7.707 E1.3817
G1 X14.092 Y8.070 E1.4263
G1 X14.072 Y8.081 E1.4278
G1 X13.300 Y8.441 E1.4839
G1 X13.278 Y8.450 E1.4855
G1 X12.630 Y8.654 E1.5302
G1 X12.607 Y8.659 E1.5317
G1 X11.708 Y8.818 E1.5919
G1 X11.692 Y8.820 E1.5929
G1 X11.242 Y8.859 E1.6227
G1 X11.226 Y8.860 E1.6237
G1 X-11.226 Y8.860 E3.1023
G1 X-11.242 Y8.859 E3.1034
G1 X-11.692 Y8.820 E3.1331
G1 X-11.708 Y8.818 E3.1342
G1 X-12.607 Y8.659 E3.1943
G1 X-12.630 Y8.654 E3.1959
G1 X-13.278 Y8.450 E3.2406
G1 X-13.300 Y8.441 E3.2421
G1 X-14.073 Y8.080 E3.2983
G1 X-14.094 Y8.069 E3.2999
G1 X-14.666 Y7.704 E3.3446
G1 X-14.685 Y7.690 E3.3461
G1 X-15.559 Y6.957 E3.4212
G1 X-15.581 Y6.935 E3.4233
G1 X-16.163 Y6.241 E3.4830
G1 X-16.181 Y6.215 E3.4850
G1 X-16.808 Y5.130 E3.5676
G1 X-16.821 Y5.101 E3.5697
G1 X-17.131 Y4.249 E3.6293
G1 X-17.140 Y4.219 E3.6314
G1 X-17.319 Y3.204 E3.6993
G1 X-17.321 Y3.188 E3.7003
G1 X-17.360 Y2.730 E3.7306
G1 X-17.361 Y2.714 E3.7317
G1 X-17.343 Y-3.139 E4.1171
G1 X-17.341 Y-3.170 E4.1192
G1 X-17.183 Y-4.054 E4.1784
G1 X-17.175 Y-4.085 E4.1804
G1 X-16.785 Y-5.157 E4.2556
G1 X-16.775 Y-5.179 E4.2572
G1 X-16.455 Y-5.791 E4.3026
G1 X-16.443 Y-5.811 E4.3042
G1 X-15.947 Y-6.513 E4.3608
G1 X-15.932 Y-6.531 E4.3623
G1 X-15.478 Y-7.024 E4.4065
G1 X-15.461 Y-7.040 E4.4080
G1 X-14.682 Y-7.693 E4.4749
G1 X-14.663 Y-7.707 E4.4765
G1 X-14.092 Y-8.070 E4.5210
G1 X-14.072 Y-8.081 E4.5226
G1 X-13.300 Y-8.441 E4.5787
G1 X-13.278 Y-8.450 E4.5802
G1 X-12.630 Y-8.654 E4.6249
G1 X-12.607 Y-8.659 E4.6265
G1 X-11.708 Y-8.818 E4.6866
G1 X-11.692 Y-8.820 E4.6876
G1 X-11.242 Y-8.859 E4.7174
G1 X-11.226 Y-8.860 E4.7185
G1 X10.113 Y-8.860 E6.1238
G1 X11.113 Y-8.860 F400
G92 E0
G1 E-1.0000 F1800
; inner perimeter
G1 X10.200 Y-1.700 F9000
G1 E0.0000 F1800
G92 E0
G1 X10.200 Y1.700 E0.2239 F333
G1 X-10.200 Y1.700 E1.5674
G1 X-10.200 Y-1.700 E1.7913
G1 X9.200 Y-1.700 E3.0688
G1 X10.200 Y-1.700 F333
G92 E0
G1 E-1.0000 F1800
; inner perimeter
G1 X10.920 Y-2.420 F9000
G1 E0.0000 F1800
G92 E0
G1 X10.920 Y2.420 E0.3187 F267
G1 X-10.920 Y2.420 E1.7570
G1 X-10.920 Y-2.420 E2.0758
G1 X9.920 Y-2.420 E3.4482
G1 X10.920 Y-2.420 F267
G92 E0
G1 E-1.0000 F1800
; outer perimeter
G1 X10.984 Y-3.140 F9000
G1 E0.0000 F1800
G92 E0
G1 X11.111 Y-3.129 E0.0084 F200
G1 X11.218 Y-3.100 E0.0157
G1 X11.319 Y-3.053 E0.0230
G1 X11.413 Y-2.987 E0.0306
G1 X11.489 Y-2.910 E0.0377
G1 X11.553 Y-2.819 E0.0450
G1 X11.600 Y-2.718 E0.0524
G1 X11.629 Y-2.611 E0.0597
G1 X11.640 Y-2.484 E0.0681
G1 X11.640 Y2.484 E0.3953
G1 X11.629 Y2.611 E0.4036
G1 X11.600 Y2.718 E0.4110
G1 X11.553 Y2.819 E0.4182
G1 X11.487 Y2.913 E0.4259
G1 X11.410 Y2.989 E0.4329
G1 X11.319 Y3.053 E0.4403
G1 X11.218 Y3.100 E0.4476
G1 X11.111 Y3.129 E0.4549
G1 X10.984 Y3.140 E0.4633
G1 X-10.984 Y3.140 E1.9101
G1 X-11.111 Y3.129 E1.9184
G1 X-11.218 Y3.100 E1.9258
G1 X-11.319 Y3.053 E1.9330
G1 X-11.413 Y2.987 E1.9406
G1 X-11.489 Y2.910 E1.9477
G1 X-11.553 Y2.819 E1.9551
G1 X-11.600 Y2.718 E1.9624
G1 X-11.629 Y2.611 E1.9697
G1 X-11.640 Y2.484 E1.9781
G1 X-11.640 Y-2.484 E2.3053
G1 X-11.629 Y-2.611 E2.3137
G1 X-11.600 Y-2.718 E2.3210
G1 X-11.553 Y-2.819 E2.3283
G1 X-11.487 Y-2.913 E2.3359
G1 X-11.410 Y-2.989 E2.3430
G1 X-11.319 Y-3.053 E2.3503
G1 X-11.218 Y-3.100 E2.3577
G1 X-11.111 Y-3.129 E2.3650
G1 X-10.984 Y-3.140 E2.3734
G1 X9.984 Y-3.140 E3.7542
G1 X10.984 Y-3.140 F200
G92 E0
G1 E-1.0000 F1800
; solid layer
G1 X9.789 Y-1.412 F9000
G1 E0.0000 F1800
G92 E0
G1 X9.912 Y-1.289 E0.0115 F320
G1 X9.912 Y-0.270 E0.0785
G1 X8.770 Y-1.412 E0.1849
G1 X7.752 Y-1.412 E0.2519
G1 X9.912 Y0.748 E0.4531
G1 X9.912 Y1.412 E0.4968
G1 X9.558 Y1.412 E0.5201
G1 X6.734 Y-1.412 E0.7832
G1 X5.716 Y-1.412 E0.8502
G1 X8.540 Y1.412 E1.1132
G1 X7.521 Y1.412 E1.1803
G1 X4.697 Y-1.412 E1.4433
G1 X3.679 Y-1.412 E1.5103
G1 X6.503 Y1.412 E1.7733
G1 X5.485 Y1.412 E1.8404
G1 X2.661 Y-1.412 E2.1034
G1 X1.643 Y-1.412 E2.1705
G1 X4.467 Y1.412 E2.4335
G1 X3.448 Y1.412 E2.5005
G1 X0.624 Y-1.412 E2.7635
G1 X-0.394 Y-1.412 E2.8306
G1 X2.430 Y1.412 E3.0936
G1 X1.412 Y1.412 E3.1607
G1 X-1.412 Y-1.412 E3.4237
G1 X-2.430 Y-1.412 E3.4907
G1 X0.394 Y1.412 E3.7537
G1 X-0.624 Y1.412 E3.8208
G1 X-3.448 Y-1.412 E4.0838
G1 X-4.467 Y-1.412 E4.1508
G1 X-1.643 Y1.412 E4.4139
G1 X-2.661 Y1.412 E4.4809
G1 X-5.485 Y-1.412 E4.7439
G1 X-6.503 Y-1.412 E4.8110
G1 X-3.679 Y1.412 E5.0740
G1 X-4.697 Y1.412 E5.1410
G1 X-7.521 Y-1.412 E5.4040
