; G-Code generated by Simplify3D(R) Version 3.1.0
; Sep 2, 2016 at 1:05:57 PM
; Settings Summary
;   processName,Process1
;   applyToModels,pigrrl2-bot-v1-1,pigrrl2-top-v1-1
;   profileName,Rostock MAX v2 (modified)
;   profileVersion,2015-05-01 08:00:00
;   baseProfile,
;   printMaterial,PLA
;   printQuality,Medium
;   printExtruders,
;   extruderName,Primary Extruder
;   extruderToolheadNumber,0
;   extruderDiameter,0.6
;   extruderAutoWidth,1
;   extruderWidth,0.72
;   extrusionMultiplier,1.1
;   extruderUseRetract,1
;   extruderRetractionDistance,2
;   extruderExtraRestartDistance,0
;   extruderRetractionZLift,0
;   extruderRetractionSpeed,1800
;   extruderUseCoasting,1
;   extruderCoastingDistance,1
;   extruderUseWipe,0
;   extruderWipeDistance,5
;   primaryExtruder,0
;   layerHeight,0.2
;   topSolidLayers,3
;   bottomSolidLayers,3
;   perimeterOutlines,3
;   printPerimetersInsideOut,1
;   startPointOption,2
;   startPointOriginX,0
;   startPointOriginY,0
;   startPointOriginZ,300
;   sequentialIslands,0
;   spiralVaseMode,0
;   firstLayerHeightPercentage,25
;   firstLayerWidthPercentage,100
;   firstLayerUnderspeed,0.4
;   useRaft,0
;   raftExtruder,0
;   raftLayers,3
;   raftOffset,15
;   raftSeparationDistance,0.14
;   raftInfill,85
;   disableRaftBaseLayers,0
;   useSkirt,1
;   skirtExtruder,0
;   skirtLayers,1
;   skirtOutlines,2
;   skirtOffset,5
;   usePrimePillar,0
;   primePillarExtruder,999
;   primePillarWidth,12
;   primePillarLocation,7
;   primePillarSpeedMultiplier,1
;   useOozeShield,0
;   oozeShieldExtruder,999
;   oozeShieldOffset,2
;   oozeShieldOutlines,1
;   oozeShieldSidewallShape,1
;   oozeShieldSidewallAngle,30
;   oozeShieldSpeedMultiplier,1
;   infillExtruder,0
;   internalInfillPattern,Rectilinear
;   externalInfillPattern,Rectilinear
;   infillPercentage,85
;   outlineOverlapPercentage,40
;   infillExtrusionWidthPercentage,100
;   minInfillLength,3
;   infillLayerInterval,1
;   infillAngles,45,-45
;   overlapInfillAngles,0
;   generateSupport,0
;   supportExtruder,0
;   supportInfillPercentage,30
;   supportExtraInflation,0
;   denseSupportLayers,0
;   denseSupportInfillPercentage,70
;   supportLayerInterval,1
;   supportHorizontalPartOffset,0.3
;   supportUpperSeparationLayers,1
;   supportLowerSeparationLayers,1
;   supportType,1
;   supportGridSpacing,4
;   maxOverhangAngle,45
;   supportAngles,0
;   temperatureName,Primary Extruder,Heated Bed
;   temperatureNumber,0,1
;   temperatureSetpointCount,1,1
;   temperatureSetpointLayers,1,1
;   temperatureSetpointTemperatures,205,60
;   temperatureStabilizeAtStartup,1,1
;   temperatureHeatedBed,0,1
;   temperatureRelayBetweenLayers,0,0
;   temperatureRelayBetweenLoops,0,0
;   fanLayers,1,2
;   fanSpeeds,0,100
;   blipFanToFullPower,1
;   adjustSpeedForCooling,1
;   minSpeedLayerTime,15
;   minCoolingSpeedSlowdown,20
;   increaseFanForCooling,0
;   minFanLayerTime,60
;   maxCoolingFanSpeed,100
;   increaseFanForBridging,0
;   bridgingFanSpeed,100
;   use5D,1
;   relativeEdistances,0
;   allowEaxisZeroing,1
;   independentExtruderAxes,0
;   includeM10123,0
;   stickySupport,1
;   applyToolheadOffsets,0
;   gcodeXoffset,0
;   gcodeYoffset,0
;   gcodeZoffset,0
;   overrideMachineDefinition,1
;   machineTypeOverride,1
;   strokeXoverride,197
;   strokeYoverride,197
;   strokeZoverride,375
;   originOffsetXoverride,98.5
;   originOffsetYoverride,98.5
;   originOffsetZoverride,0
;   homeXdirOverride,0
;   homeYdirOverride,0
;   homeZdirOverride,1
;   flipXoverride,1
;   flipYoverride,-1
;   flipZoverride,1
;   toolheadOffsets,0,0|0,0|0,0|0,0|0,0|0,0
;   overrideFirmwareConfiguration,1
;   firmwareTypeOverride,RepRap (Marlin/Repetier/Sprinter)
;   GPXconfigOverride,r2
;   baudRateOverride,115200
;   overridePrinterModels,1
;   printerModelsOverride
;   startingGcode,G28 ; home all axes
;   layerChangeGcode,
;   retractionGcode,
;   toolChangeGcode,
;   endingGcode,M104 S0 ; turn off extruder,M140 S0 ; turn off bed,G28 ; home axes,M84 ; disable motors
;   exportFileFormat,gcode
;   celebration,0
;   celebrationSong,Random Song
;   postProcessing,
;   defaultSpeed,1000
;   outlineUnderspeed,0.5
;   solidInfillUnderspeed,0.8
;   supportUnderspeed,0.8
;   rapidXYspeed,9000
;   rapidZspeed,1200
;   minBridgingArea,50
;   bridgingExtraInflation,0
;   bridgingExtrusionMultiplier,0.8
;   bridgingSpeedMultiplier,0.7
;   filamentDiameter,1.75
;   filamentPricePerKg,22
;   filamentDensity,1.25
;   useMinPrintHeight,0
;   minPrintHeight,0.05
;   useMaxPrintHeight,0
;   maxPrintHeight,0
;   useDiaphragm,0
;   diaphragmLayerInterval,20
;   robustSlicing,1
;   mergeAllIntoSolid,0
;   onlyRetractWhenCrossingOutline,0
;   retractBetweenLayers,0
;   useRetractionMinTravel,0
;   retractionMinTravel,3
;   retractWhileWiping,1
;   onlyWipeOutlines,1
;   avoidCrossingOutline,1
;   maxMovementDetourFactor,1.5
;   toolChangeRetractionDistance,12
;   toolChangeExtraRestartDistance,-0.5
;   toolChangeRetractionSpeed,600
;   allowThinWallGapFill,1
;   thinWallAllowedOverlapPercentage,10
;   horizontalSizeCompensation,0
G90
M82
M106 S0
M140 S60
M190 S60
M104 S205 T0
M109 S205 T0
G28 ; home all axes
G92 E0
G1 E-2.0000 F1800
G1 Z0.050 F1200
; layer 1, Z = 0.05
T0
; tool H0.200 W0.720
; skirt
G1 X63.115 Y-1.771 F9000
G1 E0.0000 F540
G92 E0
G1 X63.113 Y-1.770 E0.0001 F400
G1 X64.646 Y-1.770 E0.1010
G1 X64.674 Y-1.769 E0.1029
G1 X64.965 Y-1.754 E0.1221
G1 X64.994 Y-1.752 E0.1240
G1 X66.297 Y-1.614 E0.2103
G1 X66.353 Y-1.605 E0.2140
G1 X66.924 Y-1.483 E0.2525
G1 X66.979 Y-1.468 E0.2562
G1 X68.278 Y-1.044 E0.3462
G1 X68.315 Y-1.030 E0.3488
G1 X68.690 Y-0.876 E0.3755
G1 X68.726 Y-0.860 E0.3781
G1 X69.341 Y-0.554 E0.4234
G1 X69.372 Y-0.537 E0.4257
G1 X69.681 Y-0.358 E0.4492
G1 X69.711 Y-0.339 E0.4515
G1 X70.826 Y0.409 E0.5399
G1 X70.871 Y0.443 E0.5437
G1 X71.319 Y0.818 E0.5821
G1 X71.361 Y0.856 E0.5859
G1 X72.374 Y1.903 E0.6818
G1 X72.411 Y1.946 E0.6855
G1 X72.771 Y2.405 E0.7240
G1 X72.803 Y2.452 E0.7277
G1 X73.576 Y3.687 E0.8236
G1 X73.603 Y3.737 E0.8274
G1 X73.859 Y4.261 E0.8658
G1 X73.881 Y4.314 E0.8696
G1 X74.384 Y5.701 E0.9667
G1 X74.402 Y5.759 E0.9707
G1 X74.547 Y6.363 E1.0116
G1 X74.558 Y6.423 E1.0156
G1 X74.744 Y7.919 E1.1149
G1 X74.748 Y7.952 E1.1171
G1 X74.769 Y8.295 E1.1397
G1 X74.770 Y8.328 E1.1419
G1 X74.770 Y87.672 E6.3671
G1 X74.769 Y87.705 E6.3693
G1 X74.748 Y88.048 E6.3920
G1 X74.744 Y88.081 E6.3942
G1 X74.558 Y89.577 E6.4934
G1 X74.547 Y89.637 E6.4974
G1 X74.402 Y90.241 E6.5384
G1 X74.384 Y90.299 E6.5423
G1 X73.881 Y91.686 E6.6395
G1 X73.859 Y91.739 E6.6433
G1 X73.603 Y92.263 E6.6817
G1 X73.576 Y92.313 E6.6854
G1 X72.826 Y93.513 E6.7786
G1 X72.798 Y93.553 E6.7818
G1 X72.496 Y93.951 E6.8148
G1 X72.464 Y93.989 E6.8180
G1 X72.047 Y94.447 E6.8588
G1 X72.038 Y94.456 E6.8596
G1 X71.950 Y94.549 E6.8681
G1 X71.941 Y94.558 E6.8689
G1 X71.304 Y95.195 E6.9282
G1 X71.265 Y95.230 E6.9316
G1 X70.849 Y95.572 E6.9671
G1 X70.807 Y95.603 E6.9706
G1 X69.711 Y96.339 E7.0575
G1 X69.681 Y96.358 E7.0598
G1 X69.372 Y96.537 E7.0834
G1 X69.341 Y96.554 E7.0857
G1 X68.726 Y96.860 E7.1309
G1 X68.690 Y96.876 E7.1335
G1 X68.315 Y97.030 E7.1602
G1 X68.278 Y97.044 E7.1628
G1 X66.979 Y97.468 E7.2528
G1 X66.924 Y97.483 E7.2566
G1 X66.353 Y97.605 E7.2950
G1 X66.297 Y97.614 E7.2988
G1 X64.994 Y97.752 E7.3851
G1 X64.965 Y97.754 E7.3869
G1 X64.674 Y97.769 E7.4061
G1 X64.646 Y97.770 E7.4080
G1 X-50.572 Y97.770 E14.9957
G1 X-50.586 Y97.770 E14.9966
G1 X-50.730 Y97.766 E15.0061
G1 X-50.744 Y97.765 E15.0070
G1 X-52.850 Y97.656 E15.1459
G1 X-52.878 Y97.653 E15.1478
G1 X-53.165 Y97.624 E15.1667
G1 X-53.193 Y97.620 E15.1686
G1 X-55.343 Y97.281 E15.3120
G1 X-55.370 Y97.276 E15.3138
G1 X-55.645 Y97.219 E15.3323
G1 X-55.672 Y97.212 E15.3341
G1 X-56.489 Y96.997 E15.3897
G1 X-56.502 Y96.994 E15.3905
G1 X-57.798 Y96.646 E15.4788
G1 X-57.825 Y96.638 E15.4807
G1 X-58.095 Y96.551 E15.4994
G1 X-58.121 Y96.542 E15.5012
G1 X-60.157 Y95.766 E15.6447
G1 X-60.183 Y95.755 E15.6465
G1 X-60.447 Y95.638 E15.6655
G1 X-60.472 Y95.626 E15.6673
G1 X-62.418 Y94.642 E15.8110
G1 X-62.442 Y94.629 E15.8128
G1 X-62.693 Y94.485 E15.8318
G1 X-62.717 Y94.471 E15.8336
G1 X-64.550 Y93.289 E15.9773
G1 X-64.573 Y93.273 E15.9791
G1 X-64.807 Y93.105 E15.9981
G1 X-64.829 Y93.088 E16.0000
G1 X-66.530 Y91.722 E16.1436
G1 X-66.551 Y91.704 E16.1454
G1 X-66.766 Y91.512 E16.1644
G1 X-66.787 Y91.493 E16.1663
G1 X-68.336 Y89.958 E16.3099
G1 X-68.355 Y89.938 E16.3117
G1 X-68.549 Y89.725 E16.3307
G1 X-68.568 Y89.703 E16.3326
G1 X-69.949 Y88.016 E16.4762
G1 X-69.966 Y87.994 E16.4780
G1 X-70.137 Y87.762 E16.4970
G1 X-70.153 Y87.739 E16.4989
G1 X-71.352 Y85.917 E16.6425
G1 X-71.367 Y85.893 E16.6443
G1 X-71.513 Y85.644 E16.6633
G1 X-71.526 Y85.620 E16.6652
G1 X-72.529 Y83.683 E16.8088
G1 X-72.541 Y83.658 E16.8106
G1 X-72.660 Y83.395 E16.8296
G1 X-72.671 Y83.370 E16.8314
G1 X-73.468 Y81.340 E16.9751
G1 X-73.477 Y81.313 E16.9769
G1 X-73.569 Y81.040 E16.9959
G1 X-73.577 Y81.013 E16.9977
G1 X-74.158 Y78.911 E17.1414
G1 X-74.165 Y78.884 E17.1432
G1 X-74.227 Y78.602 E17.1622
G1 X-74.232 Y78.574 E17.1640
G1 X-74.593 Y76.418 E17.3080
G1 X-74.597 Y76.389 E17.3099
G1 X-74.630 Y76.091 E17.3297
G1 X-74.633 Y76.062 E17.3316
G1 X-74.764 Y73.770 E17.4828
G1 X-74.765 Y73.754 E17.4839
G1 X-74.770 Y73.595 E17.4943
G1 X-74.770 Y73.580 E17.4954
G1 X-74.770 Y8.328 E21.7925
G1 X-74.769 Y8.295 E21.7947
G1 X-74.747 Y7.952 E21.8173
G1 X-74.744 Y7.919 E21.8195
G1 X-74.558 Y6.423 E21.9188
G1 X-74.547 Y6.363 E21.9228
G1 X-74.402 Y5.759 E21.9637
G1 X-74.384 Y5.701 E21.9677
G1 X-73.881 Y4.314 E22.0649
G1 X-73.859 Y4.262 E22.0686
G1 X-73.603 Y3.737 E22.1070
G1 X-73.576 Y3.687 E22.1108
G1 X-72.825 Y2.487 E22.2040
G1 X-72.798 Y2.447 E22.2072
G1 X-72.495 Y2.048 E22.2401
G1 X-72.464 Y2.011 E22.2433
G1 X-72.047 Y1.553 E22.2842
G1 X-72.038 Y1.544 E22.2850
G1 X-71.950 Y1.451 E22.2934
G1 X-71.941 Y1.442 E22.2942
G1 X-71.304 Y0.806 E22.3535
G1 X-71.265 Y0.770 E22.3570
G1 X-70.849 Y0.428 E22.3925
G1 X-70.807 Y0.397 E22.3959
G1 X-70.231 Y0.010 E22.4416
G1 X-70.456 Y-0.140 E22.4594
G1 X-70.482 Y-0.158 E22.4616
G1 X-71.031 Y-0.572 E22.5068
G1 X-71.063 Y-0.599 E22.5096
G1 X-71.384 Y-0.883 E22.5378
G1 X-71.415 Y-0.912 E22.5406
G1 X-72.374 Y-1.903 E22.6314
G1 X-72.411 Y-1.946 E22.6351
G1 X-72.771 Y-2.405 E22.6736
G1 X-72.803 Y-2.452 E22.6773
G1 X-73.576 Y-3.687 E22.7733
G1 X-73.603 Y-3.737 E22.7770
G1 X-73.859 Y-4.261 E22.8154
G1 X-73.881 Y-4.314 E22.8192
G1 X-74.384 Y-5.701 E22.9163
G1 X-74.402 Y-5.759 E22.9203
G1 X-74.547 Y-6.363 E22.9613
G1 X-74.558 Y-6.423 E22.9653
G1 X-74.744 Y-7.918 E23.0645
G1 X-74.748 Y-7.952 E23.0667
G1 X-74.769 Y-8.295 E23.0894
G1 X-74.770 Y-8.328 E23.0916
G1 X-74.770 Y-87.672 E28.3167
G1 X-74.769 Y-87.705 E28.3189
G1 X-74.748 Y-88.048 E28.3416
G1 X-74.744 Y-88.082 E28.3438
G1 X-74.558 Y-89.577 E28.4431
G1 X-74.547 Y-89.637 E28.4470
G1 X-74.402 Y-90.241 E28.4880
G1 X-74.384 Y-90.299 E28.4920
G1 X-73.881 Y-91.686 E28.5891
G1 X-73.859 Y-91.739 E28.5929
G1 X-73.603 Y-92.263 E28.6313
G1 X-73.576 Y-92.313 E28.6350
G1 X-72.803 Y-93.548 E28.7310
G1 X-72.771 Y-93.595 E28.7347
G1 X-72.411 Y-94.054 E28.7732
G1 X-72.374 Y-94.097 E28.7769
G1 X-71.361 Y-95.144 E28.8728
G1 X-71.319 Y-95.182 E28.8766
G1 X-70.871 Y-95.557 E28.9150
G1 X-70.826 Y-95.591 E28.9187
G1 X-69.711 Y-96.339 E29.0072
G1 X-69.681 Y-96.358 E29.0095
G1 X-69.372 Y-96.537 E29.0330
G1 X-69.341 Y-96.554 E29.0353
G1 X-68.726 Y-96.860 E29.0806
G1 X-68.690 Y-96.876 E29.0832
G1 X-68.315 Y-97.030 E29.1099
G1 X-68.278 Y-97.044 E29.1125
G1 X-66.979 Y-97.468 E29.2025
G1 X-66.924 Y-97.483 E29.2062
G1 X-66.353 Y-97.605 E29.2447
G1 X-66.297 Y-97.614 E29.2484
G1 X-64.994 Y-97.752 E29.3347
G1 X-64.966 Y-97.754 E29.3366
G1 X-64.674 Y-97.769 E29.3558
G1 X-64.646 Y-97.770 E29.3577
G1 X-44.714 Y-97.770 E30.6703
G1 X-44.317 Y-97.605 E30.6986
G1 X-44.292 Y-97.580 E30.7009
G1 X-34.708 Y-97.580 E31.3320
G1 X-34.683 Y-97.605 E31.3344
G1 X-34.286 Y-97.770 E31.3627
G1 X64.646 Y-97.770 E37.8779
G1 X64.674 Y-97.769 E37.8797
G1 X64.966 Y-97.754 E37.8989
G1 X64.994 Y-97.752 E37.9008
G1 X66.244 Y-97.619 E37.9836
G1 X66.290 Y-97.613 E37.9867
G1 X66.758 Y-97.522 E38.0180
G1 X66.803 Y-97.511 E38.0211
G1 X67.405 Y-97.340 E38.0623
G1 X67.421 Y-97.335 E38.0634
G1 X67.577 Y-97.286 E38.0742
G1 X67.593 Y-97.280 E38.0753
G1 X68.454 Y-96.979 E38.1354
G1 X68.501 Y-96.960 E38.1387
G1 X68.979 Y-96.740 E38.1734
G1 X69.025 Y-96.716 E38.1768
G1 X70.150 Y-96.062 E38.2625
G1 X70.178 Y-96.045 E38.2646
G1 X70.456 Y-95.861 E38.2866
G1 X70.482 Y-95.842 E38.2888
G1 X71.031 Y-95.428 E38.3340
G1 X71.063 Y-95.401 E38.3368
G1 X71.384 Y-95.117 E38.3650
G1 X71.415 Y-95.088 E38.3678
G1 X72.374 Y-94.097 E38.4586
G1 X72.411 Y-94.054 E38.4623
G1 X72.771 Y-93.595 E38.5008
G1 X72.803 Y-93.548 E38.5045
G1 X73.576 Y-92.313 E38.6004
G1 X73.603 Y-92.263 E38.6042
G1 X73.859 Y-91.739 E38.6426
G1 X73.881 Y-91.686 E38.6464
G1 X74.384 Y-90.299 E38.7435
G1 X74.402 Y-90.241 E38.7475
G1 X74.547 Y-89.637 E38.7884
G1 X74.558 Y-89.577 E38.7924
G1 X74.744 Y-88.081 E38.8917
G1 X74.748 Y-88.048 E38.8939
G1 X74.769 Y-87.705 E38.9165
G1 X74.770 Y-87.672 E38.9187
G1 X74.770 Y-22.433 E43.2150
G1 X74.770 Y-22.420 E43.2159
G1 X74.767 Y-22.287 E43.2247
G1 X74.766 Y-22.274 E43.2255
G1 X74.675 Y-20.380 E43.3504
G1 X74.673 Y-20.359 E43.3518
G1 X74.654 Y-20.136 E43.3665
G1 X74.651 Y-20.114 E43.3680
G1 X74.542 Y-19.271 E43.4239
G1 X74.541 Y-19.264 E43.4244
G1 X74.530 Y-19.186 E43.4296
G1 X74.529 Y-19.178 E43.4301
G1 X74.316 Y-17.833 E43.5198
G1 X74.311 Y-17.809 E43.5215
G1 X74.259 Y-17.555 E43.5385
G1 X74.253 Y-17.530 E43.5402
G1 X73.716 Y-15.432 E43.6829
G1 X73.708 Y-15.405 E43.6847
G1 X73.622 Y-15.129 E43.7037
G1 X73.613 Y-15.103 E43.7055
G1 X72.866 Y-13.085 E43.8472
G1 X72.857 Y-13.065 E43.8487
G1 X72.769 Y-12.853 E43.8638
G1 X72.759 Y-12.832 E43.8653
G1 X72.395 Y-12.052 E43.9220
G1 X72.391 Y-12.044 E43.9226
G1 X72.350 Y-11.961 E43.9287
G1 X72.346 Y-11.953 E43.9293
G1 X71.726 Y-10.736 E44.0193
G1 X71.714 Y-10.714 E44.0209
G1 X71.588 Y-10.493 E44.0376
G1 X71.576 Y-10.472 E44.0393
G1 X70.421 Y-8.642 E44.1817
G1 X70.405 Y-8.619 E44.1836
G1 X70.239 Y-8.383 E44.2026
G1 X70.222 Y-8.361 E44.2044
G1 X68.873 Y-6.648 E44.3480
G1 X68.855 Y-6.626 E44.3499
G1 X68.665 Y-6.409 E44.3688
G1 X68.646 Y-6.388 E44.3707
G1 X67.127 Y-4.825 E44.5143
G1 X67.107 Y-4.805 E44.5161
G1 X66.895 Y-4.609 E44.5351
G1 X66.874 Y-4.591 E44.5370
G1 X65.200 Y-3.193 E44.6806
G1 X65.178 Y-3.176 E44.6824
G1 X64.948 Y-3.003 E44.7014
G1 X64.925 Y-2.987 E44.7033
G1 X63.943 Y-2.327 E44.7811
G1 X63.115 Y-1.771 F400
G92 E0
G1 E-2.0000 F1800
G1 X62.721 Y-2.374 F9000
G1 E0.0000 F1800
G92 E0
G1 X62.713 Y-2.369 E0.0006 F400
G1 X62.482 Y-2.230 E0.0184
G1 X62.474 Y-2.226 E0.0190
G1 X60.597 Y-1.231 E0.1589
G1 X60.591 Y-1.228 E0.1593
G1 X60.415 Y-1.143 E0.1722
G1 X60.409 Y-1.140 E0.1726
G1 X60.203 Y-1.050 E0.1874
G1 X64.636 Y-1.050 E0.4794
G1 X64.646 Y-1.050 E0.4800
G1 X64.918 Y-1.035 E0.4980
G1 X64.928 Y-1.035 E0.4986
G1 X66.203 Y-0.900 E0.5831
G1 X66.221 Y-0.897 E0.5843
G1 X66.755 Y-0.783 E0.6202
G1 X66.773 Y-0.778 E0.6215
G1 X68.042 Y-0.363 E0.7094
G1 X68.055 Y-0.359 E0.7103
G1 X68.405 Y-0.215 E0.7352
G1 X68.417 Y-0.210 E0.7361
G1 X69.010 Y0.086 E0.7797
G1 X69.020 Y0.091 E0.7805
G1 X69.309 Y0.259 E0.8025
G1 X69.319 Y0.265 E0.8033
G1 X70.409 Y0.997 E0.8897
G1 X70.424 Y1.008 E0.8909
G1 X70.843 Y1.358 E0.9269
G1 X70.857 Y1.371 E0.9281
G1 X71.843 Y2.390 E1.0215
G1 X71.856 Y2.404 E1.0228
G1 X72.192 Y2.834 E1.0587
G1 X72.203 Y2.850 E1.0600
G1 X72.955 Y4.053 E1.1534
G1 X72.964 Y4.069 E1.1546
G1 X73.203 Y4.560 E1.1906
G1 X73.211 Y4.577 E1.1918
G1 X73.701 Y5.927 E1.2864
G1 X73.706 Y5.947 E1.2877
G1 X73.842 Y6.512 E1.3260
G1 X73.846 Y6.532 E1.3274
G1 X74.029 Y7.997 E1.4246
G1 X74.030 Y8.008 E1.4253
G1 X74.050 Y8.328 E1.4465
G1 X74.050 Y8.339 E1.4472
G1 X74.050 Y87.661 E6.6709
G1 X74.050 Y87.672 E6.6716
G1 X74.030 Y87.992 E6.6928
G1 X74.029 Y88.004 E6.6935
G1 X73.846 Y89.468 E6.7907
G1 X73.842 Y89.488 E6.7921
G1 X73.706 Y90.053 E6.8303
G1 X73.701 Y90.073 E6.8317
G1 X73.211 Y91.423 E6.9263
G1 X73.203 Y91.440 E6.9275
G1 X72.964 Y91.931 E6.9634
