; G-Code generated by Simplify3D(R) Version 3.1.0
; Sep 2, 2016 at 4:35:52 PM
; Settings Summary
;   processName,Process1
;   applyToModels,pigrrl2-top-v1-1
;   profileName,Rostock MAX v2 (modified)
;   profileVersion,2015-05-01 08:00:00
;   baseProfile,
;   printMaterial,PLA
;   printQuality,Medium
;   printExtruders,
;   extruderName,Primary Extruder
;   extruderToolheadNumber,0
;   extruderDiameter,0.6
;   extruderAutoWidth,1
;   extruderWidth,0.72
;   extrusionMultiplier,1.1
;   extruderUseRetract,1
;   extruderRetractionDistance,2
;   extruderExtraRestartDistance,0
;   extruderRetractionZLift,0
;   extruderRetractionSpeed,1800
;   extruderUseCoasting,1
;   extruderCoastingDistance,1
;   extruderUseWipe,0
;   extruderWipeDistance,5
;   primaryExtruder,0
;   layerHeight,0.2
;   topSolidLayers,3
;   bottomSolidLayers,3
;   perimeterOutlines,3
;   printPerimetersInsideOut,1
;   startPointOption,2
;   startPointOriginX,0
;   startPointOriginY,0
;   startPointOriginZ,300
;   sequentialIslands,0
;   spiralVaseMode,0
;   firstLayerHeightPercentage,25
;   firstLayerWidthPercentage,100
;   firstLayerUnderspeed,0.4
;   useRaft,0
;   raftExtruder,0
;   raftLayers,3
;   raftOffset,15
;   raftSeparationDistance,0.14
;   raftInfill,85
;   disableRaftBaseLayers,0
;   useSkirt,1
;   skirtExtruder,0
;   skirtLayers,1
;   skirtOutlines,2
;   skirtOffset,5
;   usePrimePillar,0
;   primePillarExtruder,999
;   primePillarWidth,12
;   primePillarLocation,7
;   primePillarSpeedMultiplier,1
;   useOozeShield,0
;   oozeShieldExtruder,999
;   oozeShieldOffset,2
;   oozeShieldOutlines,1
;   oozeShieldSidewallShape,1
;   oozeShieldSidewallAngle,30
;   oozeShieldSpeedMultiplier,1
;   infillExtruder,0
;   internalInfillPattern,Rectilinear
;   externalInfillPattern,Rectilinear
;   infillPercentage,85
;   outlineOverlapPercentage,40
;   infillExtrusionWidthPercentage,100
;   minInfillLength,3
;   infillLayerInterval,1
;   infillAngles,45,-45
;   overlapInfillAngles,0
;   generateSupport,0
;   supportExtruder,0
;   supportInfillPercentage,30
;   supportExtraInflation,0
;   denseSupportLayers,0
;   denseSupportInfillPercentage,70
;   supportLayerInterval,1
;   supportHorizontalPartOffset,0.3
;   supportUpperSeparationLayers,1
;   supportLowerSeparationLayers,1
;   supportType,1
;   supportGridSpacing,4
;   maxOverhangAngle,45
;   supportAngles,0
;   temperatureName,Primary Extruder,Heated Bed
;   temperatureNumber,0,1
;   temperatureSetpointCount,1,1
;   temperatureSetpointLayers,1,1
;   temperatureSetpointTemperatures,205,60
;   temperatureStabilizeAtStartup,1,1
;   temperatureHeatedBed,0,1
;   temperatureRelayBetweenLayers,0,0
;   temperatureRelayBetweenLoops,0,0
;   fanLayers,1,2
;   fanSpeeds,0,100
;   blipFanToFullPower,1
;   adjustSpeedForCooling,1
;   minSpeedLayerTime,15
;   minCoolingSpeedSlowdown,20
;   increaseFanForCooling,0
;   minFanLayerTime,60
;   maxCoolingFanSpeed,100
;   increaseFanForBridging,0
;   bridgingFanSpeed,100
;   use5D,1
;   relativeEdistances,0
;   allowEaxisZeroing,1
;   independentExtruderAxes,0
;   includeM10123,0
;   stickySupport,1
;   applyToolheadOffsets,0
;   gcodeXoffset,0
;   gcodeYoffset,0
;   gcodeZoffset,0
;   overrideMachineDefinition,1
;   machineTypeOverride,1
;   strokeXoverride,197
;   strokeYoverride,197
;   strokeZoverride,375
;   originOffsetXoverride,98.5
;   originOffsetYoverride,98.5
;   originOffsetZoverride,0
;   homeXdirOverride,0
;   homeYdirOverride,0
;   homeZdirOverride,1
;   flipXoverride,1
;   flipYoverride,-1
;   flipZoverride,1
;   toolheadOffsets,0,0|0,0|0,0|0,0|0,0|0,0
;   overrideFirmwareConfiguration,1
;   firmwareTypeOverride,RepRap (Marlin/Repetier/Sprinter)
;   GPXconfigOverride,r2
;   baudRateOverride,115200
;   overridePrinterModels,1
;   printerModelsOverride
;   startingGcode,G28 ; home all axes
;   layerChangeGcode,
;   retractionGcode,
;   toolChangeGcode,
;   endingGcode,M104 S0 ; turn off extruder,M140 S0 ; turn off bed,G28 ; home axes,M84 ; disable motors
;   exportFileFormat,gcode
;   celebration,0
;   celebrationSong,Random Song
;   postProcessing,
;   defaultSpeed,3000
;   outlineUnderspeed,0.5
;   solidInfillUnderspeed,0.8
;   supportUnderspeed,0.8
;   rapidXYspeed,9000
;   rapidZspeed,1200
;   minBridgingArea,50
;   bridgingExtraInflation,0
;   bridgingExtrusionMultiplier,0.8
;   bridgingSpeedMultiplier,0.7
;   filamentDiameter,1.75
;   filamentPricePerKg,22
;   filamentDensity,1.25
;   useMinPrintHeight,0
;   minPrintHeight,0.05
;   useMaxPrintHeight,0
;   maxPrintHeight,0
;   useDiaphragm,0
;   diaphragmLayerInterval,20
;   robustSlicing,1
;   mergeAllIntoSolid,0
;   onlyRetractWhenCrossingOutline,0
;   retractBetweenLayers,0
;   useRetractionMinTravel,0
;   retractionMinTravel,3
;   retractWhileWiping,1
;   onlyWipeOutlines,1
;   avoidCrossingOutline,1
;   maxMovementDetourFactor,1.5
;   toolChangeRetractionDistance,12
;   toolChangeExtraRestartDistance,-0.5
;   toolChangeRetractionSpeed,600
;   allowThinWallGapFill,1
;   thinWallAllowedOverlapPercentage,10
;   horizontalSizeCompensation,0
G90
M82
M106 S0
M140 S60
M190 S60
M104 S205 T0
M109 S205 T0
G28 ; home all axes
G92 E0
G1 E-2.0000 F1800
G1 Z0.050 F1200
; layer 1, Z = 0.05
T0
; tool H0.200 W0.720
; skirt
G1 X-50.572 Y49.770 F9000
G1 E0.0000 F540
G92 E0
G1 X-50.586 Y49.770 E0.0009 F1200
G1 X-50.730 Y49.766 E0.0104
G1 X-50.744 Y49.765 E0.0113
G1 X-52.850 Y49.656 E0.1502
G1 X-52.878 Y49.653 E0.1521
G1 X-53.165 Y49.623 E0.1710
G1 X-53.193 Y49.620 E0.1729
G1 X-55.347 Y49.281 E0.3165
G1 X-55.375 Y49.276 E0.3184
G1 X-55.657 Y49.216 E0.3373
G1 X-55.684 Y49.210 E0.3392
G1 X-57.791 Y48.648 E0.4828
G1 X-57.818 Y48.641 E0.4847
G1 X-58.093 Y48.552 E0.5037
G1 X-58.119 Y48.543 E0.5055
G1 X-60.157 Y47.766 E0.6491
G1 X-60.183 Y47.755 E0.6510
G1 X-60.447 Y47.638 E0.6700
G1 X-60.472 Y47.626 E0.6718
G1 X-62.418 Y46.642 E0.8154
G1 X-62.442 Y46.629 E0.8173
G1 X-62.693 Y46.485 E0.8363
G1 X-62.717 Y46.471 E0.8381
G1 X-64.550 Y45.289 E0.9817
G1 X-64.573 Y45.273 E0.9836
G1 X-64.807 Y45.105 E1.0026
G1 X-64.829 Y45.088 E1.0044
G1 X-66.530 Y43.722 E1.1480
G1 X-66.551 Y43.704 E1.1499
G1 X-66.766 Y43.512 E1.1689
G1 X-66.787 Y43.493 E1.1707
G1 X-68.336 Y41.958 E1.3143
G1 X-68.355 Y41.938 E1.3162
G1 X-68.549 Y41.725 E1.3352
G1 X-68.568 Y41.703 E1.3370
G1 X-69.949 Y40.016 E1.4806
G1 X-69.966 Y39.994 E1.4825
G1 X-70.137 Y39.762 E1.5015
G1 X-70.153 Y39.739 E1.5033
G1 X-71.352 Y37.917 E1.6469
G1 X-71.367 Y37.893 E1.6488
G1 X-71.513 Y37.644 E1.6678
G1 X-71.526 Y37.620 E1.6696
G1 X-72.529 Y35.683 E1.8132
G1 X-72.541 Y35.658 E1.8151
G1 X-72.660 Y35.395 E1.8341
G1 X-72.671 Y35.370 E1.8359
G1 X-73.468 Y33.340 E1.9795
G1 X-73.477 Y33.313 E1.9814
G1 X-73.569 Y33.039 E2.0004
G1 X-73.577 Y33.013 E2.0022
G1 X-74.158 Y30.911 E2.1458
G1 X-74.165 Y30.884 E2.1477
G1 X-74.227 Y30.602 E2.1667
G1 X-74.232 Y30.574 E2.1685
G1 X-74.593 Y28.418 E2.3125
G1 X-74.597 Y28.389 E2.3144
G1 X-74.630 Y28.091 E2.3341
G1 X-74.633 Y28.062 E2.3361
G1 X-74.764 Y25.770 E2.4873
G1 X-74.765 Y25.754 E2.4883
G1 X-74.770 Y25.595 E2.4988
G1 X-74.770 Y25.580 E2.4998
G1 X-74.770 Y-39.672 E6.7969
G1 X-74.769 Y-39.705 E6.7991
G1 X-74.747 Y-40.048 E6.8218
G1 X-74.744 Y-40.081 E6.8240
G1 X-74.558 Y-41.577 E6.9232
G1 X-74.547 Y-41.637 E6.9272
G1 X-74.402 Y-42.241 E6.9682
G1 X-74.384 Y-42.299 E6.9722
G1 X-73.881 Y-43.686 E7.0693
G1 X-73.859 Y-43.738 E7.0731
G1 X-73.603 Y-44.263 E7.1115
G1 X-73.575 Y-44.313 E7.1153
G1 X-72.825 Y-45.513 E7.2084
G1 X-72.798 Y-45.553 E7.2116
G1 X-72.495 Y-45.951 E7.2446
G1 X-72.464 Y-45.989 E7.2478
G1 X-72.047 Y-46.447 E7.2886
G1 X-72.038 Y-46.456 E7.2894
G1 X-71.950 Y-46.549 E7.2979
G1 X-71.941 Y-46.558 E7.2987
G1 X-71.304 Y-47.194 E7.3580
G1 X-71.265 Y-47.230 E7.3615
G1 X-70.849 Y-47.572 E7.3969
G1 X-70.807 Y-47.603 E7.4004
G1 X-69.711 Y-48.339 E7.4874
G1 X-69.681 Y-48.358 E7.4897
G1 X-69.372 Y-48.537 E7.5132
G1 X-69.341 Y-48.554 E7.5155
G1 X-68.726 Y-48.860 E7.5607
G1 X-68.690 Y-48.876 E7.5633
G1 X-68.315 Y-49.030 E7.5900
G1 X-68.278 Y-49.043 E7.5926
G1 X-66.979 Y-49.468 E7.6826
G1 X-66.924 Y-49.483 E7.6864
G1 X-66.353 Y-49.605 E7.7248
G1 X-66.297 Y-49.614 E7.7286
G1 X-64.994 Y-49.751 E7.8149
G1 X-64.966 Y-49.754 E7.8167
G1 X-64.674 Y-49.769 E7.8360
G1 X-64.646 Y-49.770 E7.8378
G1 X64.646 Y-49.770 E16.3523
G1 X64.674 Y-49.769 E16.3542
G1 X64.965 Y-49.754 E16.3734
G1 X64.994 Y-49.752 E16.3753
G1 X66.297 Y-49.614 E16.4616
G1 X66.353 Y-49.605 E16.4653
G1 X66.924 Y-49.483 E16.5038
G1 X66.979 Y-49.468 E16.5075
G1 X68.278 Y-49.044 E16.5975
G1 X68.315 Y-49.030 E16.6001
G1 X68.690 Y-48.876 E16.6268
G1 X68.726 Y-48.860 E16.6294
G1 X69.341 Y-48.554 E16.6747
G1 X69.372 Y-48.537 E16.6770
G1 X69.681 Y-48.358 E16.7005
G1 X69.711 Y-48.339 E16.7028
G1 X70.826 Y-47.591 E16.7913
G1 X70.871 Y-47.557 E16.7950
G1 X71.319 Y-47.182 E16.8334
G1 X71.361 Y-47.144 E16.8372
G1 X72.374 Y-46.097 E16.9331
G1 X72.411 Y-46.054 E16.9368
G1 X72.771 Y-45.595 E16.9753
G1 X72.803 Y-45.548 E16.9790
G1 X73.576 Y-44.313 E17.0749
G1 X73.603 Y-44.263 E17.0787
G1 X73.859 Y-43.739 E17.1171
G1 X73.881 Y-43.686 E17.1209
G1 X74.384 Y-42.299 E17.2180
G1 X74.402 Y-42.241 E17.2220
G1 X74.547 Y-41.637 E17.2630
G1 X74.558 Y-41.577 E17.2669
G1 X74.744 Y-40.081 E17.3662
G1 X74.748 Y-40.048 E17.3684
G1 X74.769 Y-39.705 E17.3910
G1 X74.770 Y-39.672 E17.3933
G1 X74.770 Y39.672 E22.6184
G1 X74.769 Y39.705 E22.6206
G1 X74.748 Y40.048 E22.6433
G1 X74.744 Y40.081 E22.6455
G1 X74.558 Y41.577 E22.7447
G1 X74.547 Y41.637 E22.7487
G1 X74.402 Y42.241 E22.7897
G1 X74.384 Y42.299 E22.7936
G1 X73.881 Y43.686 E22.8908
G1 X73.859 Y43.739 E22.8946
G1 X73.603 Y44.263 E22.9330
G1 X73.576 Y44.313 E22.9367
G1 X72.826 Y45.513 E23.0299
G1 X72.798 Y45.553 E23.0331
G1 X72.496 Y45.951 E23.0661
G1 X72.464 Y45.989 E23.0693
G1 X72.047 Y46.447 E23.1101
G1 X72.038 Y46.456 E23.1109
G1 X71.950 Y46.549 E23.1194
G1 X71.941 Y46.558 E23.1202
G1 X71.304 Y47.195 E23.1795
G1 X71.265 Y47.230 E23.1829
G1 X70.849 Y47.572 E23.2184
G1 X70.807 Y47.603 E23.2219
G1 X69.711 Y48.339 E23.3088
G1 X69.681 Y48.358 E23.3111
G1 X69.372 Y48.537 E23.3347
G1 X69.341 Y48.554 E23.3370
G1 X68.726 Y48.860 E23.3822
G1 X68.690 Y48.876 E23.3848
G1 X68.315 Y49.030 E23.4115
G1 X68.278 Y49.044 E23.4141
G1 X66.979 Y49.468 E23.5041
G1 X66.924 Y49.483 E23.5079
G1 X66.353 Y49.605 E23.5463
G1 X66.297 Y49.614 E23.5501
G1 X64.994 Y49.752 E23.6364
G1 X64.965 Y49.754 E23.6382
G1 X64.674 Y49.769 E23.6574
G1 X64.646 Y49.770 E23.6593
G1 X-49.572 Y49.770 E31.1811
G1 X-50.572 Y49.770 F1200
G92 E0
G1 E-2.0000 F1800
G1 X-50.567 Y49.050 F9000
G1 E0.0000 F1800
G92 E0
G1 X-50.572 Y49.050 E0.0003 F1200
G1 X-50.707 Y49.046 E0.0092
G1 X-50.712 Y49.046 E0.0095
G1 X-52.803 Y48.937 E0.1474
G1 X-52.813 Y48.936 E0.1480
G1 X-53.081 Y48.908 E0.1658
G1 X-53.090 Y48.907 E0.1664
G1 X-55.226 Y48.571 E0.3088
G1 X-55.235 Y48.569 E0.3094
G1 X-55.499 Y48.514 E0.3272
G1 X-55.508 Y48.511 E0.3278
G1 X-57.597 Y47.955 E0.4702
G1 X-57.606 Y47.952 E0.4708
G1 X-57.863 Y47.870 E0.4885
G1 X-57.871 Y47.867 E0.4892
G1 X-59.892 Y47.096 E0.6315
G1 X-59.900 Y47.093 E0.6321
G1 X-60.147 Y46.984 E0.6499
G1 X-60.155 Y46.980 E0.6505
G1 X-62.084 Y46.004 E0.7929
G1 X-62.093 Y45.999 E0.7935
G1 X-62.327 Y45.865 E0.8113
G1 X-62.335 Y45.860 E0.8119
G1 X-64.152 Y44.689 E0.9543
G1 X-64.160 Y44.684 E0.9549
G1 X-64.378 Y44.526 E0.9726
G1 X-64.386 Y44.520 E0.9733
G1 X-66.071 Y43.167 E1.1156
G1 X-66.079 Y43.161 E1.1162
G1 X-66.280 Y42.981 E1.1340
G1 X-66.287 Y42.975 E1.1346
G1 X-67.823 Y41.453 E1.2770
G1 X-67.829 Y41.447 E1.2776
G1 X-68.011 Y41.247 E1.2954
G1 X-68.017 Y41.240 E1.2960
G1 X-69.386 Y39.567 E1.4384
G1 X-69.392 Y39.560 E1.4390
G1 X-69.552 Y39.343 E1.4567
G1 X-69.557 Y39.335 E1.4573
G1 X-70.745 Y37.529 E1.5997
G1 X-70.750 Y37.521 E1.6003
G1 X-70.887 Y37.288 E1.6181
G1 X-70.891 Y37.280 E1.6187
G1 X-71.885 Y35.361 E1.7611
G1 X-71.890 Y35.352 E1.7617
G1 X-72.001 Y35.107 E1.7795
G1 X-72.005 Y35.098 E1.7801
G1 X-72.794 Y33.085 E1.9224
G1 X-72.797 Y33.077 E1.9231
G1 X-72.882 Y32.821 E1.9408
G1 X-72.885 Y32.812 E1.9414
G1 X-73.461 Y30.728 E2.0838
G1 X-73.464 Y30.719 E2.0844
G1 X-73.522 Y30.456 E2.1022
G1 X-73.524 Y30.446 E2.1028
G1 X-73.881 Y28.309 E2.2455
G1 X-73.882 Y28.299 E2.2462
G1 X-73.913 Y28.021 E2.2646
G1 X-73.914 Y28.011 E2.2653
G1 X-74.045 Y25.733 E2.4155
G1 X-74.045 Y25.728 E2.4158
G1 X-74.050 Y25.580 E2.4256
G1 X-74.050 Y25.574 E2.4260
G1 X-74.050 Y-39.661 E6.7220
G1 X-74.049 Y-39.672 E6.7228
G1 X-74.030 Y-39.992 E6.7439
G1 X-74.029 Y-40.003 E6.7447
G1 X-73.846 Y-41.468 E6.8419
G1 X-73.842 Y-41.488 E6.8432
G1 X-73.706 Y-42.053 E6.8815
G1 X-73.701 Y-42.072 E6.8828
G1 X-73.211 Y-43.423 E6.9774
G1 X-73.203 Y-43.440 E6.9786
G1 X-72.964 Y-43.931 E7.0146
G1 X-72.955 Y-43.947 E7.0158
G1 X-72.224 Y-45.117 E7.1067
G1 X-72.214 Y-45.131 E7.1078
G1 X-71.932 Y-45.503 E7.1386
G1 X-71.921 Y-45.516 E7.1396
G1 X-71.517 Y-45.959 E7.1791
G1 X-71.515 Y-45.962 E7.1794
G1 X-71.432 Y-46.048 E7.1873
G1 X-71.429 Y-46.051 E7.1875
G1 X-70.807 Y-46.673 E7.2454
G1 X-70.795 Y-46.685 E7.2466
G1 X-70.405 Y-47.005 E7.2798
G1 X-70.391 Y-47.015 E7.2809
G1 X-69.319 Y-47.735 E7.3660
G1 X-69.309 Y-47.741 E7.3667
G1 X-69.020 Y-47.909 E7.3887
G1 X-69.010 Y-47.914 E7.3895
G1 X-68.417 Y-48.210 E7.4331
G1 X-68.405 Y-48.215 E7.4340
G1 X-68.055 Y-48.359 E7.4589
G1 X-68.042 Y-48.363 E7.4598
G1 X-66.773 Y-48.778 E7.5477
G1 X-66.755 Y-48.783 E7.5489
G1 X-66.221 Y-48.897 E7.5849
G1 X-66.203 Y-48.900 E7.5861
G1 X-64.928 Y-49.034 E7.6706
G1 X-64.918 Y-49.035 E7.6712
G1 X-64.646 Y-49.050 E7.6892
G1 X-64.636 Y-49.050 E7.6898
G1 X64.636 Y-49.050 E16.2030
G1 X64.646 Y-49.050 E16.2037
G1 X64.918 Y-49.035 E16.2216
G1 X64.928 Y-49.035 E16.2223
G1 X66.203 Y-48.900 E16.3067
G1 X66.221 Y-48.897 E16.3079
G1 X66.755 Y-48.783 E16.3439
G1 X66.773 Y-48.778 E16.3451
G1 X68.042 Y-48.363 E16.4330
G1 X68.055 Y-48.359 E16.4339
G1 X68.405 Y-48.215 E16.4588
G1 X68.417 Y-48.210 E16.4597
G1 X69.010 Y-47.914 E16.5033
G1 X69.020 Y-47.909 E16.5041
G1 X69.309 Y-47.741 E16.5261
G1 X69.319 Y-47.735 E16.5269
G1 X70.409 Y-47.003 E16.6133
G1 X70.424 Y-46.992 E16.6146
G1 X70.843 Y-46.642 E16.6505
G1 X70.857 Y-46.629 E16.6517
G1 X71.843 Y-45.610 E16.7452
G1 X71.856 Y-45.596 E16.7464
G1 X72.192 Y-45.166 E16.7824
G1 X72.203 Y-45.150 E16.7836
G1 X72.955 Y-43.947 E16.8770
G1 X72.964 Y-43.931 E16.8783
G1 X73.203 Y-43.440 E16.9142
G1 X73.211 Y-43.423 E16.9155
G1 X73.701 Y-42.073 E17.0100
G1 X73.706 Y-42.053 E17.0114
G1 X73.842 Y-41.488 E17.0497
G1 X73.846 Y-41.468 E17.0510
G1 X74.029 Y-40.003 E17.1482
G1 X74.030 Y-39.992 E17.1489
G1 X74.050 Y-39.672 E17.1701
G1 X74.050 Y-39.661 E17.1708
G1 X74.050 Y39.661 E22.3945
G1 X74.050 Y39.672 E22.3953
G1 X74.030 Y39.992 E22.4164
G1 X74.029 Y40.003 E22.4172
G1 X73.846 Y41.468 E22.5144
G1 X73.842 Y41.488 E22.5157
G1 X73.706 Y42.053 E22.5540
G1 X73.701 Y42.073 E22.5553
G1 X73.211 Y43.423 E22.6499
G1 X73.203 Y43.440 E22.6511
G1 X72.964 Y43.931 E22.6871
G1 X72.955 Y43.947 E22.6883
G1 X72.224 Y45.117 E22.7792
G1 X72.214 Y45.131 E22.7803
G1 X71.932 Y45.503 E22.8111
G1 X71.921 Y45.516 E22.8121
G1 X71.517 Y45.959 E22.8516
G1 X71.515 Y45.962 E22.8519
G1 X71.432 Y46.049 E22.8598
G1 X71.429 Y46.052 E22.8601
G1 X70.808 Y46.673 E22.9179
G1 X70.795 Y46.685 E22.9191
G1 X70.405 Y47.005 E22.9523
G1 X70.391 Y47.015 E22.9534
G1 X69.319 Y47.735 E23.0384
G1 X69.309 Y47.741 E23.0392
G1 X69.020 Y47.909 E23.0612
G1 X69.010 Y47.914 E23.0620
G1 X68.417 Y48.210 E23.1056
G1 X68.405 Y48.215 E23.1065
G1 X68.055 Y48.359 E23.1314
G1 X68.042 Y48.363 E23.1323
G1 X66.773 Y48.778 E23.2202
G1 X66.755 Y48.783 E23.2215
G1 X66.221 Y48.897 E23.2574
G1 X66.203 Y48.900 E23.2586
G1 X64.928 Y49.035 E23.3431
G1 X64.918 Y49.035 E23.3437
G1 X64.646 Y49.050 E23.3617
G1 X64.636 Y49.050 E23.3623
G1 X-49.567 Y49.050 E30.8832
G1 X-50.567 Y49.050 F1200
G92 E0
G1 E-2.0000 F1800
; inner perimeter
G1 X-50.453 Y41.890 F9000
G1 E0.0000 F1800
G92 E0
G1 X-52.203 Y41.799 E0.1154 F1000
G1 X-53.889 Y41.533 E0.2278
G1 X-54.472 Y41.380 E0.2675
G1 X-55.533 Y41.095 E0.3398
G1 X-57.127 Y40.488 E0.4522
G1 X-58.648 Y39.718 E0.5644
G1 X-60.081 Y38.794 E0.6767
G1 X-61.410 Y37.727 E0.7890
G1 X-62.621 Y36.527 E0.9012
