; G-Code generated by Simplify3D(R) Version 3.1.0
; Sep 2, 2016 at 1:16:34 PM
; Settings Summary
;   processName,Process1
;   applyToModels,pigrrl2-bot-v1-1
;   profileName,Rostock MAX v2 (modified)
;   profileVersion,2015-05-01 08:00:00
;   baseProfile,
;   printMaterial,PLA
;   printQuality,Medium
;   printExtruders,
;   extruderName,Primary Extruder
;   extruderToolheadNumber,0
;   extruderDiameter,0.6
;   extruderAutoWidth,1
;   extruderWidth,0.72
;   extrusionMultiplier,1.1
;   extruderUseRetract,1
;   extruderRetractionDistance,2
;   extruderExtraRestartDistance,0
;   extruderRetractionZLift,0
;   extruderRetractionSpeed,1800
;   extruderUseCoasting,1
;   extruderCoastingDistance,1
;   extruderUseWipe,0
;   extruderWipeDistance,5
;   primaryExtruder,0
;   layerHeight,0.2
;   topSolidLayers,3
;   bottomSolidLayers,3
;   perimeterOutlines,3
;   printPerimetersInsideOut,1
;   startPointOption,2
;   startPointOriginX,0
;   startPointOriginY,0
;   startPointOriginZ,300
;   sequentialIslands,0
;   spiralVaseMode,0
;   firstLayerHeightPercentage,25
;   firstLayerWidthPercentage,100
;   firstLayerUnderspeed,0.4
;   useRaft,0
;   raftExtruder,0
;   raftLayers,3
;   raftOffset,15
;   raftSeparationDistance,0.14
;   raftInfill,85
;   disableRaftBaseLayers,0
;   useSkirt,1
;   skirtExtruder,0
;   skirtLayers,1
;   skirtOutlines,2
;   skirtOffset,5
;   usePrimePillar,0
;   primePillarExtruder,999
;   primePillarWidth,12
;   primePillarLocation,7
;   primePillarSpeedMultiplier,1
;   useOozeShield,0
;   oozeShieldExtruder,999
;   oozeShieldOffset,2
;   oozeShieldOutlines,1
;   oozeShieldSidewallShape,1
;   oozeShieldSidewallAngle,30
;   oozeShieldSpeedMultiplier,1
;   infillExtruder,0
;   internalInfillPattern,Rectilinear
;   externalInfillPattern,Rectilinear
;   infillPercentage,85
;   outlineOverlapPercentage,40
;   infillExtrusionWidthPercentage,100
;   minInfillLength,3
;   infillLayerInterval,1
;   infillAngles,45,-45
;   overlapInfillAngles,0
;   generateSupport,0
;   supportExtruder,0
;   supportInfillPercentage,30
;   supportExtraInflation,0
;   denseSupportLayers,0
;   denseSupportInfillPercentage,70
;   supportLayerInterval,1
;   supportHorizontalPartOffset,0.3
;   supportUpperSeparationLayers,1
;   supportLowerSeparationLayers,1
;   supportType,1
;   supportGridSpacing,4
;   maxOverhangAngle,45
;   supportAngles,0
;   temperatureName,Primary Extruder,Heated Bed
;   temperatureNumber,0,1
;   temperatureSetpointCount,1,1
;   temperatureSetpointLayers,1,1
;   temperatureSetpointTemperatures,205,60
;   temperatureStabilizeAtStartup,1,1
;   temperatureHeatedBed,0,1
;   temperatureRelayBetweenLayers,0,0
;   temperatureRelayBetweenLoops,0,0
;   fanLayers,1,2
;   fanSpeeds,0,100
;   blipFanToFullPower,1
;   adjustSpeedForCooling,1
;   minSpeedLayerTime,15
;   minCoolingSpeedSlowdown,20
;   increaseFanForCooling,0
;   minFanLayerTime,60
;   maxCoolingFanSpeed,100
;   increaseFanForBridging,0
;   bridgingFanSpeed,100
;   use5D,1
;   relativeEdistances,0
;   allowEaxisZeroing,1
;   independentExtruderAxes,0
;   includeM10123,0
;   stickySupport,1
;   applyToolheadOffsets,0
;   gcodeXoffset,0
;   gcodeYoffset,0
;   gcodeZoffset,0
;   overrideMachineDefinition,1
;   machineTypeOverride,1
;   strokeXoverride,197
;   strokeYoverride,197
;   strokeZoverride,375
;   originOffsetXoverride,98.5
;   originOffsetYoverride,98.5
;   originOffsetZoverride,0
;   homeXdirOverride,0
;   homeYdirOverride,0
;   homeZdirOverride,1
;   flipXoverride,1
;   flipYoverride,-1
;   flipZoverride,1
;   toolheadOffsets,0,0|0,0|0,0|0,0|0,0|0,0
;   overrideFirmwareConfiguration,1
;   firmwareTypeOverride,RepRap (Marlin/Repetier/Sprinter)
;   GPXconfigOverride,r2
;   baudRateOverride,115200
;   overridePrinterModels,1
;   printerModelsOverride
;   startingGcode,G28 ; home all axes
;   layerChangeGcode,
;   retractionGcode,
;   toolChangeGcode,
;   endingGcode,M104 S0 ; turn off extruder,M140 S0 ; turn off bed,G28 ; home axes,M84 ; disable motors
;   exportFileFormat,gcode
;   celebration,0
;   celebrationSong,Random Song
;   postProcessing,
;   defaultSpeed,3000
;   outlineUnderspeed,0.5
;   solidInfillUnderspeed,0.8
;   supportUnderspeed,0.8
;   rapidXYspeed,9000
;   rapidZspeed,1200
;   minBridgingArea,50
;   bridgingExtraInflation,0
;   bridgingExtrusionMultiplier,0.8
;   bridgingSpeedMultiplier,0.7
;   filamentDiameter,1.75
;   filamentPricePerKg,22
;   filamentDensity,1.25
;   useMinPrintHeight,0
;   minPrintHeight,0.05
;   useMaxPrintHeight,0
;   maxPrintHeight,0
;   useDiaphragm,0
;   diaphragmLayerInterval,20
;   robustSlicing,1
;   mergeAllIntoSolid,0
;   onlyRetractWhenCrossingOutline,0
;   retractBetweenLayers,0
;   useRetractionMinTravel,0
;   retractionMinTravel,3
;   retractWhileWiping,1
;   onlyWipeOutlines,1
;   avoidCrossingOutline,1
;   maxMovementDetourFactor,1.5
;   toolChangeRetractionDistance,12
;   toolChangeExtraRestartDistance,-0.5
;   toolChangeRetractionSpeed,600
;   allowThinWallGapFill,1
;   thinWallAllowedOverlapPercentage,10
;   horizontalSizeCompensation,0
G90
M82
M106 S0
M140 S60
M190 S60
M104 S205 T0
M109 S205 T0
G28 ; home all axes
G92 E0
G1 E-2.0000 F1800
G1 Z0.050 F1200
; layer 1, Z = 0.05
T0
; tool H0.200 W0.720
; skirt
G1 X-34.286 Y-49.770 F9000
G1 E0.0000 F540
G92 E0
G1 X64.646 Y-49.770 E6.5152 F1200
G1 X64.674 Y-49.769 E6.5170
G1 X64.966 Y-49.754 E6.5362
G1 X64.994 Y-49.752 E6.5381
G1 X66.244 Y-49.619 E6.6209
G1 X66.290 Y-49.613 E6.6239
G1 X66.758 Y-49.522 E6.6553
G1 X66.803 Y-49.511 E6.6584
G1 X67.405 Y-49.340 E6.6996
G1 X67.421 Y-49.335 E6.7007
G1 X67.578 Y-49.286 E6.7115
G1 X67.593 Y-49.280 E6.7126
G1 X68.454 Y-48.979 E6.7727
G1 X68.501 Y-48.960 E6.7760
G1 X68.979 Y-48.740 E6.8107
G1 X69.024 Y-48.716 E6.8140
G1 X70.150 Y-48.062 E6.8998
G1 X70.178 Y-48.045 E6.9019
G1 X70.456 Y-47.860 E6.9239
G1 X70.482 Y-47.842 E6.9260
G1 X71.031 Y-47.427 E6.9713
G1 X71.063 Y-47.401 E6.9741
G1 X71.384 Y-47.117 E7.0023
G1 X71.415 Y-47.088 E7.0051
G1 X72.374 Y-46.097 E7.0959
G1 X72.411 Y-46.054 E7.0996
G1 X72.771 Y-45.595 E7.1381
G1 X72.803 Y-45.548 E7.1418
G1 X73.576 Y-44.313 E7.2377
G1 X73.603 Y-44.263 E7.2415
G1 X73.859 Y-43.739 E7.2799
G1 X73.881 Y-43.686 E7.2836
G1 X74.384 Y-42.299 E7.3808
G1 X74.402 Y-42.241 E7.3848
G1 X74.547 Y-41.637 E7.4257
G1 X74.558 Y-41.577 E7.4297
G1 X74.744 Y-40.081 E7.5290
G1 X74.748 Y-40.048 E7.5312
G1 X74.769 Y-39.705 E7.5538
G1 X74.770 Y-39.672 E7.5560
G1 X74.770 Y25.567 E11.8523
G1 X74.770 Y25.580 E11.8532
G1 X74.767 Y25.713 E11.8620
G1 X74.766 Y25.726 E11.8628
G1 X74.675 Y27.620 E11.9877
G1 X74.673 Y27.641 E11.9891
G1 X74.654 Y27.864 E12.0038
G1 X74.651 Y27.886 E12.0052
G1 X74.542 Y28.729 E12.0612
G1 X74.541 Y28.736 E12.0617
G1 X74.530 Y28.814 E12.0669
G1 X74.529 Y28.822 E12.0674
G1 X74.316 Y30.167 E12.1571
G1 X74.311 Y30.191 E12.1588
G1 X74.259 Y30.445 E12.1758
G1 X74.253 Y30.470 E12.1775
G1 X73.716 Y32.568 E12.3201
G1 X73.708 Y32.595 E12.3220
G1 X73.622 Y32.871 E12.3410
G1 X73.613 Y32.897 E12.3428
G1 X72.866 Y34.915 E12.4845
G1 X72.857 Y34.935 E12.4860
G1 X72.769 Y35.147 E12.5011
G1 X72.759 Y35.168 E12.5026
G1 X72.395 Y35.948 E12.5593
G1 X72.391 Y35.956 E12.5599
G1 X72.350 Y36.039 E12.5660
G1 X72.346 Y36.047 E12.5666
G1 X71.726 Y37.264 E12.6566
G1 X71.714 Y37.286 E12.6582
G1 X71.588 Y37.507 E12.6749
G1 X71.576 Y37.528 E12.6765
G1 X70.421 Y39.358 E12.8190
G1 X70.405 Y39.381 E12.8209
G1 X70.239 Y39.617 E12.8399
G1 X70.222 Y39.639 E12.8417
G1 X68.873 Y41.352 E12.9853
G1 X68.855 Y41.374 E12.9871
G1 X68.665 Y41.591 E13.0061
G1 X68.646 Y41.612 E13.0080
G1 X67.127 Y43.175 E13.1516
G1 X67.107 Y43.195 E13.1534
G1 X66.895 Y43.391 E13.1724
G1 X66.874 Y43.409 E13.1743
G1 X65.200 Y44.807 E13.3179
G1 X65.178 Y44.824 E13.3197
G1 X64.948 Y44.997 E13.3387
G1 X64.925 Y45.013 E13.3405
G1 X63.115 Y46.229 E13.4841
G1 X63.091 Y46.244 E13.4860
G1 X62.844 Y46.392 E13.5050
G1 X62.819 Y46.406 E13.5068
G1 X60.928 Y47.409 E13.6478
G1 X60.910 Y47.418 E13.6491
G1 X60.722 Y47.509 E13.6629
G1 X60.703 Y47.517 E13.6642
G1 X59.909 Y47.864 E13.7213
G1 X59.898 Y47.869 E13.7221
G1 X59.781 Y47.917 E13.7304
G1 X59.769 Y47.922 E13.7312
G1 X58.523 Y48.400 E13.8192
G1 X58.508 Y48.405 E13.8202
G1 X58.358 Y48.458 E13.8307
G1 X58.343 Y48.463 E13.8317
G1 X57.539 Y48.720 E13.8873
G1 X57.526 Y48.724 E13.8882
G1 X57.401 Y48.761 E13.8968
G1 X57.389 Y48.764 E13.8976
G1 X56.099 Y49.110 E13.9856
G1 X56.084 Y49.113 E13.9866
G1 X55.934 Y49.149 E13.9967
G1 X55.919 Y49.152 E13.9977
G1 X55.092 Y49.325 E14.0534
G1 X55.079 Y49.328 E14.0542
G1 X54.946 Y49.352 E14.0632
G1 X54.933 Y49.354 E14.0640
G1 X53.614 Y49.563 E14.1520
G1 X53.599 Y49.566 E14.1529
G1 X53.451 Y49.585 E14.1628
G1 X53.436 Y49.587 E14.1638
G1 X52.588 Y49.674 E14.2199
G1 X52.573 Y49.676 E14.2209
G1 X52.416 Y49.687 E14.2313
G1 X52.401 Y49.688 E14.2323
G1 X50.717 Y49.766 E14.3433
G1 X50.705 Y49.767 E14.3441
G1 X50.577 Y49.770 E14.3525
G1 X50.564 Y49.770 E14.3534
G1 X-64.646 Y49.770 E21.9405
G1 X-64.674 Y49.769 E21.9424
G1 X-64.966 Y49.754 E21.9616
G1 X-64.994 Y49.752 E21.9635
G1 X-66.244 Y49.619 E22.0463
G1 X-66.290 Y49.613 E22.0493
G1 X-66.758 Y49.522 E22.0807
G1 X-66.803 Y49.511 E22.0838
G1 X-67.405 Y49.340 E22.1250
G1 X-67.421 Y49.335 E22.1261
G1 X-67.577 Y49.286 E22.1369
G1 X-67.593 Y49.280 E22.1380
G1 X-68.454 Y48.979 E22.1980
G1 X-68.501 Y48.960 E22.2014
G1 X-68.979 Y48.740 E22.2360
G1 X-69.024 Y48.716 E22.2394
G1 X-70.150 Y48.062 E22.3251
G1 X-70.178 Y48.045 E22.3273
G1 X-70.456 Y47.860 E22.3493
G1 X-70.482 Y47.842 E22.3514
G1 X-71.031 Y47.427 E22.3967
G1 X-71.063 Y47.401 E22.3994
G1 X-71.384 Y47.117 E22.4277
G1 X-71.415 Y47.088 E22.4304
G1 X-72.374 Y46.097 E22.5212
G1 X-72.411 Y46.054 E22.5250
G1 X-72.771 Y45.595 E22.5634
G1 X-72.803 Y45.548 E22.5672
G1 X-73.576 Y44.313 E22.6631
G1 X-73.603 Y44.263 E22.6668
G1 X-73.859 Y43.739 E22.7053
G1 X-73.881 Y43.686 E22.7090
G1 X-74.384 Y42.299 E22.8062
G1 X-74.402 Y42.241 E22.8102
G1 X-74.547 Y41.637 E22.8511
G1 X-74.558 Y41.577 E22.8551
G1 X-74.744 Y40.081 E22.9544
G1 X-74.748 Y40.048 E22.9566
G1 X-74.769 Y39.705 E22.9792
G1 X-74.770 Y39.672 E22.9814
G1 X-74.770 Y-39.672 E28.2066
G1 X-74.769 Y-39.705 E28.2088
G1 X-74.748 Y-40.048 E28.2314
G1 X-74.744 Y-40.082 E28.2336
G1 X-74.558 Y-41.577 E28.3329
G1 X-74.547 Y-41.637 E28.3369
G1 X-74.402 Y-42.241 E28.3778
G1 X-74.384 Y-42.299 E28.3818
G1 X-73.881 Y-43.686 E28.4790
G1 X-73.859 Y-43.739 E28.4827
G1 X-73.603 Y-44.263 E28.5211
G1 X-73.576 Y-44.313 E28.5249
G1 X-72.803 Y-45.548 E28.6208
G1 X-72.771 Y-45.595 E28.6246
G1 X-72.411 Y-46.054 E28.6630
G1 X-72.374 Y-46.097 E28.6667
G1 X-71.361 Y-47.144 E28.7627
G1 X-71.319 Y-47.182 E28.7664
G1 X-70.871 Y-47.557 E28.8048
G1 X-70.826 Y-47.591 E28.8086
G1 X-69.711 Y-48.339 E28.8970
G1 X-69.681 Y-48.358 E28.8993
G1 X-69.372 Y-48.537 E28.9229
G1 X-69.341 Y-48.554 E28.9252
G1 X-68.726 Y-48.860 E28.9704
G1 X-68.690 Y-48.876 E28.9730
G1 X-68.315 Y-49.030 E28.9997
G1 X-68.278 Y-49.044 E29.0023
G1 X-66.979 Y-49.468 E29.0923
G1 X-66.924 Y-49.483 E29.0961
G1 X-66.353 Y-49.605 E29.1345
G1 X-66.297 Y-49.614 E29.1382
G1 X-64.994 Y-49.752 E29.2245
G1 X-64.965 Y-49.754 E29.2264
G1 X-64.674 Y-49.769 E29.2456
G1 X-64.646 Y-49.770 E29.2475
G1 X-44.714 Y-49.770 E30.5601
G1 X-44.317 Y-49.605 E30.5884
G1 X-44.292 Y-49.580 E30.5908
G1 X-35.243 Y-49.580 E31.1867
G1 X-34.708 Y-49.580 F1200
G1 X-34.683 Y-49.605 F1200
G1 X-34.286 Y-49.770 F1200
G92 E0
G1 E-2.0000 F1800
G1 X-34.143 Y-49.050 F9000
G1 E0.0000 F1800
G92 E0
G1 X64.636 Y-49.050 E6.5051 F1200
G1 X64.646 Y-49.050 E6.5057
G1 X64.918 Y-49.035 E6.5237
G1 X64.928 Y-49.035 E6.5243
G1 X66.153 Y-48.905 E6.6054
G1 X66.168 Y-48.903 E6.6065
G1 X66.606 Y-48.818 E6.6358
G1 X66.621 Y-48.815 E6.6368
G1 X67.203 Y-48.649 E6.6767
G1 X67.208 Y-48.647 E6.6771
G1 X67.355 Y-48.601 E6.6872
G1 X67.360 Y-48.599 E6.6875
G1 X68.200 Y-48.305 E6.7461
G1 X68.216 Y-48.299 E6.7473
G1 X68.662 Y-48.093 E6.7797
G1 X68.678 Y-48.085 E6.7808
G1 X69.779 Y-47.445 E6.8647
G1 X69.788 Y-47.440 E6.8654
G1 X70.048 Y-47.267 E6.8859
G1 X70.057 Y-47.261 E6.8867
G1 X70.586 Y-46.861 E6.9303
G1 X70.597 Y-46.852 E6.9312
G1 X70.897 Y-46.587 E6.9576
G1 X70.907 Y-46.577 E6.9585
G1 X71.843 Y-45.610 E7.0472
G1 X71.856 Y-45.596 E7.0484
G1 X72.192 Y-45.166 E7.0844
G1 X72.203 Y-45.150 E7.0856
G1 X72.955 Y-43.947 E7.1790
G1 X72.964 Y-43.931 E7.1803
G1 X73.203 Y-43.440 E7.2162
G1 X73.211 Y-43.423 E7.2175
G1 X73.701 Y-42.073 E7.3121
G1 X73.706 Y-42.053 E7.3134
G1 X73.842 Y-41.488 E7.3517
G1 X73.846 Y-41.468 E7.3530
G1 X74.029 Y-40.003 E7.4502
G1 X74.030 Y-39.992 E7.4510
G1 X74.050 Y-39.672 E7.4721
G1 X74.050 Y-39.661 E7.4728
G1 X74.050 Y25.562 E11.7681
G1 X74.050 Y25.567 E11.7684
G1 X74.047 Y25.691 E11.7766
G1 X74.047 Y25.696 E11.7769
G1 X73.956 Y27.578 E11.9010
G1 X73.955 Y27.585 E11.9015
G1 X73.937 Y27.793 E11.9152
G1 X73.936 Y27.800 E11.9157
G1 X73.828 Y28.634 E11.9710
G1 X73.828 Y28.636 E11.9712
G1 X73.818 Y28.709 E11.9760
G1 X73.817 Y28.711 E11.9762
G1 X73.606 Y30.046 E12.0652
G1 X73.604 Y30.054 E12.0657
G1 X73.555 Y30.291 E12.0817
G1 X73.553 Y30.300 E12.0822
G1 X73.020 Y32.381 E12.2237
G1 X73.018 Y32.390 E12.2243
G1 X72.937 Y32.647 E12.2421
G1 X72.934 Y32.656 E12.2427
G1 X72.193 Y34.657 E12.3833
G1 X72.190 Y34.664 E12.3838
G1 X72.107 Y34.863 E12.3979
G1 X72.104 Y34.869 E12.3984
G1 X71.744 Y35.640 E12.4544
G1 X71.742 Y35.642 E12.4546
G1 X71.704 Y35.720 E12.4603
G1 X71.703 Y35.723 E12.4605
G1 X71.088 Y36.930 E12.5497
G1 X71.084 Y36.938 E12.5503
G1 X70.967 Y37.144 E12.5659
G1 X70.962 Y37.151 E12.5665
G1 X69.817 Y38.966 E12.7078
G1 X69.812 Y38.973 E12.7084
G1 X69.656 Y39.194 E12.7261
G1 X69.651 Y39.201 E12.7268
G1 X68.313 Y40.899 E12.8691
G1 X68.307 Y40.907 E12.8697
G1 X68.130 Y41.110 E12.8875
G1 X68.124 Y41.116 E12.8881
G1 X66.617 Y42.667 E13.0305
G1 X66.610 Y42.673 E13.0311
G1 X66.413 Y42.856 E13.0488
G1 X66.406 Y42.863 E13.0495
G1 X64.746 Y44.248 E13.1918
G1 X64.739 Y44.254 E13.1924
G1 X64.523 Y44.416 E13.2102
G1 X64.515 Y44.421 E13.2108
G1 X62.721 Y45.626 E13.3532
G1 X62.713 Y45.631 E13.3538
G1 X62.482 Y45.770 E13.3715
G1 X62.474 Y45.774 E13.3721
G1 X60.597 Y46.769 E13.5120
G1 X60.591 Y46.772 E13.5125
G1 X60.415 Y46.857 E13.5254
G1 X60.409 Y46.860 E13.5258
G1 X59.624 Y47.203 E13.5822
G1 X59.620 Y47.205 E13.5824
G1 X59.511 Y47.249 E13.5902
G1 X59.508 Y47.251 E13.5905
G1 X58.269 Y47.726 E13.6778
G1 X58.265 Y47.728 E13.6782
G1 X58.124 Y47.777 E13.6880
G1 X58.119 Y47.779 E13.6883
G1 X57.324 Y48.033 E13.7433
G1 X57.320 Y48.034 E13.7436
G1 X57.202 Y48.068 E13.7516
G1 X57.198 Y48.070 E13.7519
G1 X55.917 Y48.413 E13.8393
G1 X55.912 Y48.414 E13.8396
G1 X55.772 Y48.448 E13.8491
G1 X55.767 Y48.449 E13.8494
G1 X54.949 Y48.620 E13.9044
G1 X54.945 Y48.620 E13.9047
G1 X54.820 Y48.643 E13.9131
G1 X54.816 Y48.644 E13.9134
G1 X53.506 Y48.852 E14.0007
G1 X53.501 Y48.852 E14.0010
G1 X53.362 Y48.870 E14.0102
G1 X53.357 Y48.871 E14.0106
G1 X52.519 Y48.958 E14.0661
G1 X52.514 Y48.958 E14.0664
G1 X52.368 Y48.969 E14.0761
G1 X52.363 Y48.969 E14.0764
G1 X50.688 Y49.047 E14.1868
G1 X50.684 Y49.047 E14.1871
G1 X50.564 Y49.050 E14.1950
G1 X50.560 Y49.050 E14.1952
G1 X-64.636 Y49.050 E21.7815
G1 X-64.646 Y49.050 E21.7821
G1 X-64.918 Y49.035 E21.8001
G1 X-64.928 Y49.035 E21.8007
G1 X-66.153 Y48.905 E21.8818
G1 X-66.168 Y48.903 E21.8829
G1 X-66.606 Y48.818 E21.9122
G1 X-66.621 Y48.814 E21.9132
G1 X-67.203 Y48.649 E21.9531
G1 X-67.208 Y48.647 E21.9535
G1 X-67.355 Y48.601 E21.9636
G1 X-67.360 Y48.599 E21.9639
G1 X-68.200 Y48.305 E22.0225
G1 X-68.216 Y48.299 E22.0237
G1 X-68.662 Y48.093 E22.0560
G1 X-68.678 Y48.085 E22.0572
G1 X-69.779 Y47.445 E22.1411
G1 X-69.788 Y47.440 E22.1418
G1 X-70.048 Y47.267 E22.1623
G1 X-70.057 Y47.260 E22.1631
G1 X-70.586 Y46.861 E22.2067
G1 X-70.597 Y46.852 E22.2076
G1 X-70.897 Y46.587 E22.2340
G1 X-70.907 Y46.577 E22.2349
G1 X-71.843 Y45.610 E22.3236
G1 X-71.856 Y45.596 E22.3248
G1 X-72.192 Y45.166 E22.3608
G1 X-72.203 Y45.150 E22.3620
G1 X-72.955 Y43.947 E22.4554
G1 X-72.964 Y43.931 E22.4567
G1 X-73.203 Y43.440 E22.4926
G1 X-73.211 Y43.423 E22.4939
G1 X-73.701 Y42.073 E22.5885
G1 X-73.706 Y42.053 E22.5898
G1 X-73.842 Y41.488 E22.6281
