; G-Code generated by Simplify3D(R) Version 3.1.0
; Sep 3, 2016 at 9:00:34 PM
; Settings Summary
;   processName,Process1
;   applyToModels,pitft-btns
;   profileName,Rostock MAX v2 (modified)
;   profileVersion,2015-05-01 08:00:00
;   baseProfile,
;   printMaterial,semiflex
;   printQuality,Medium
;   printExtruders,
;   extruderName,Primary Extruder
;   extruderToolheadNumber,0
;   extruderDiameter,0.6
;   extruderAutoWidth,1
;   extruderWidth,0.72
;   extrusionMultiplier,1.1
;   extruderUseRetract,1
;   extruderRetractionDistance,1
;   extruderExtraRestartDistance,0
;   extruderRetractionZLift,0
;   extruderRetractionSpeed,1800
;   extruderUseCoasting,1
;   extruderCoastingDistance,1
;   extruderUseWipe,0
;   extruderWipeDistance,5
;   primaryExtruder,0
;   layerHeight,0.2
;   topSolidLayers,3
;   bottomSolidLayers,3
;   perimeterOutlines,3
;   printPerimetersInsideOut,1
;   startPointOption,2
;   startPointOriginX,0
;   startPointOriginY,0
;   startPointOriginZ,300
;   sequentialIslands,0
;   spiralVaseMode,0
;   firstLayerHeightPercentage,25
;   firstLayerWidthPercentage,100
;   firstLayerUnderspeed,0.4
;   useRaft,0
;   raftExtruder,0
;   raftLayers,3
;   raftOffset,15
;   raftSeparationDistance,0.14
;   raftInfill,85
;   disableRaftBaseLayers,0
;   useSkirt,1
;   skirtExtruder,0
;   skirtLayers,1
;   skirtOutlines,3
;   skirtOffset,5
;   usePrimePillar,0
;   primePillarExtruder,999
;   primePillarWidth,12
;   primePillarLocation,7
;   primePillarSpeedMultiplier,1
;   useOozeShield,0
;   oozeShieldExtruder,999
;   oozeShieldOffset,2
;   oozeShieldOutlines,1
;   oozeShieldSidewallShape,1
;   oozeShieldSidewallAngle,30
;   oozeShieldSpeedMultiplier,1
;   infillExtruder,0
;   internalInfillPattern,Rectilinear
;   externalInfillPattern,Rectilinear
;   infillPercentage,85
;   outlineOverlapPercentage,60
;   infillExtrusionWidthPercentage,100
;   minInfillLength,3
;   infillLayerInterval,1
;   infillAngles,45,-45
;   overlapInfillAngles,0
;   generateSupport,0
;   supportExtruder,0
;   supportInfillPercentage,30
;   supportExtraInflation,0
;   denseSupportLayers,0
;   denseSupportInfillPercentage,70
;   supportLayerInterval,1
;   supportHorizontalPartOffset,0.3
;   supportUpperSeparationLayers,1
;   supportLowerSeparationLayers,1
;   supportType,1
;   supportGridSpacing,4
;   maxOverhangAngle,45
;   supportAngles,0
;   temperatureName,Primary Extruder,Heated Bed
;   temperatureNumber,0,1
;   temperatureSetpointCount,1,1
;   temperatureSetpointLayers,1,1
;   temperatureSetpointTemperatures,220,80
;   temperatureStabilizeAtStartup,1,1
;   temperatureHeatedBed,0,1
;   temperatureRelayBetweenLayers,0,0
;   temperatureRelayBetweenLoops,0,0
;   fanLayers,1,2
;   fanSpeeds,0,100
;   blipFanToFullPower,1
;   adjustSpeedForCooling,1
;   minSpeedLayerTime,15
;   minCoolingSpeedSlowdown,20
;   increaseFanForCooling,0
;   minFanLayerTime,60
;   maxCoolingFanSpeed,100
;   increaseFanForBridging,0
;   bridgingFanSpeed,100
;   use5D,1
;   relativeEdistances,0
;   allowEaxisZeroing,1
;   independentExtruderAxes,0
;   includeM10123,0
;   stickySupport,1
;   applyToolheadOffsets,0
;   gcodeXoffset,0
;   gcodeYoffset,0
;   gcodeZoffset,0
;   overrideMachineDefinition,1
;   machineTypeOverride,1
;   strokeXoverride,197
;   strokeYoverride,197
;   strokeZoverride,375
;   originOffsetXoverride,98.5
;   originOffsetYoverride,98.5
;   originOffsetZoverride,0
;   homeXdirOverride,0
;   homeYdirOverride,0
;   homeZdirOverride,1
;   flipXoverride,1
;   flipYoverride,-1
;   flipZoverride,1
;   toolheadOffsets,0,0|0,0|0,0|0,0|0,0|0,0
;   overrideFirmwareConfiguration,1
;   firmwareTypeOverride,RepRap (Marlin/Repetier/Sprinter)
;   GPXconfigOverride,r2
;   baudRateOverride,115200
;   overridePrinterModels,1
;   printerModelsOverride
;   startingGcode,G28 ; home all axes
;   layerChangeGcode,
;   retractionGcode,
;   toolChangeGcode,
;   endingGcode,M104 S0 ; turn off extruder,M140 S0 ; turn off bed,G28 ; home axes,M84 ; disable motors
;   exportFileFormat,gcode
;   celebration,0
;   celebrationSong,Random Song
;   postProcessing,
;   defaultSpeed,1000
;   outlineUnderspeed,0.5
;   solidInfillUnderspeed,0.8
;   supportUnderspeed,0.8
;   rapidXYspeed,9000
;   rapidZspeed,1200
;   minBridgingArea,50
;   bridgingExtraInflation,0
;   bridgingExtrusionMultiplier,0.8
;   bridgingSpeedMultiplier,0.7
;   filamentDiameter,1.75
;   filamentPricePerKg,22
;   filamentDensity,1.25
;   useMinPrintHeight,0
;   minPrintHeight,0.05
;   useMaxPrintHeight,0
;   maxPrintHeight,0
;   useDiaphragm,0
;   diaphragmLayerInterval,20
;   robustSlicing,1
;   mergeAllIntoSolid,0
;   onlyRetractWhenCrossingOutline,0
;   retractBetweenLayers,0
;   useRetractionMinTravel,0
;   retractionMinTravel,3
;   retractWhileWiping,1
;   onlyWipeOutlines,1
;   avoidCrossingOutline,1
;   maxMovementDetourFactor,1.5
;   toolChangeRetractionDistance,12
;   toolChangeExtraRestartDistance,-0.5
;   toolChangeRetractionSpeed,600
;   allowThinWallGapFill,1
;   thinWallAllowedOverlapPercentage,10
;   horizontalSizeCompensation,0
G90
M82
M106 S0
M140 S80
M190 S80
M104 S220 T0
M109 S220 T0
G28 ; home all axes
G92 E0
G1 E-1.0000 F1800
G1 Z0.050 F1200
; layer 1, Z = 0.05
T0
; tool H0.200 W0.720
; skirt
G1 X23.504 Y-9.300 F9000
G1 E0.0000 F540
G92 E0
G1 X24.166 Y-9.026 E0.0472 F400
G1 X27.601 Y-5.591 E0.3671
G1 X27.875 Y-4.929 E0.4143
G1 X27.875 Y4.929 E1.0635
G1 X27.601 Y5.591 E1.1106
G1 X24.166 Y9.026 E1.4306
G1 X23.504 Y9.300 E1.4777
G1 X-23.504 Y9.300 E4.5735
G1 X-24.166 Y9.026 E4.6206
G1 X-27.601 Y5.591 E4.9405
G1 X-27.875 Y4.929 E4.9877
G1 X-27.875 Y-4.929 E5.6369
G1 X-27.601 Y-5.591 E5.6841
G1 X-24.166 Y-9.026 E6.0040
G1 X-23.504 Y-9.300 E6.0512
G1 X22.504 Y-9.300 E9.0810
G1 X23.504 Y-9.300 F400
G92 E0
G1 E-1.0000 F1800
G1 X23.361 Y-8.580 F9000
G1 E0.0000 F1800
G92 E0
G1 X23.758 Y-8.416 E0.0283 F400
G1 X26.991 Y-5.183 E0.3294
G1 X27.155 Y-4.786 E0.3577
G1 X27.155 Y4.786 E0.9880
G1 X26.991 Y5.183 E1.0163
G1 X23.758 Y8.416 E1.3174
G1 X23.361 Y8.580 E1.3457
G1 X-23.361 Y8.580 E4.4225
G1 X-23.758 Y8.416 E4.4508
G1 X-26.991 Y5.183 E4.7519
G1 X-27.155 Y4.786 E4.7802
G1 X-27.155 Y-4.786 E5.4106
G1 X-26.991 Y-5.183 E5.4389
G1 X-23.758 Y-8.416 E5.7399
G1 X-23.361 Y-8.580 E5.7682
G1 X22.361 Y-8.580 E8.7792
G1 X23.361 Y-8.580 F400
G92 E0
G1 E-1.0000 F1800
G1 X23.218 Y-7.860 F9000
G1 E0.0000 F1800
G92 E0
G1 X23.350 Y-7.805 E0.0094 F400
G1 X26.380 Y-4.775 E0.2916
G1 X26.435 Y-4.643 E0.3011
G1 X26.435 Y4.643 E0.9126
G1 X26.380 Y4.775 E0.9220
G1 X23.350 Y7.805 E1.2042
G1 X23.218 Y7.860 E1.2136
G1 X-23.218 Y7.860 E4.2716
G1 X-23.350 Y7.805 E4.2811
G1 X-26.380 Y4.775 E4.5633
G1 X-26.435 Y4.643 E4.5727
G1 X-26.435 Y-4.643 E5.1842
G1 X-26.380 Y-4.775 E5.1936
G1 X-23.350 Y-7.805 E5.4758
G1 X-23.218 Y-7.860 E5.4853
G1 X22.218 Y-7.860 E8.4774
G1 X23.218 Y-7.860 F400
G92 E0
G1 E-1.0000 F1800
; inner perimeter
G1 X19.275 Y-0.700 F9000
G1 E0.0000 F1800
G92 E0
G1 X19.275 Y0.700 E0.0922 F333
G1 X-19.275 Y0.700 E2.6309
G1 X-19.275 Y-0.700 E2.7231
G1 X18.275 Y-0.700 E5.1960
G1 X19.275 Y-0.700 F333
G92 E0
G1 E-1.0000 F1800
; inner perimeter
G1 X19.995 Y-1.420 F9000
G1 E0.0000 F1800
G92 E0
G1 X19.995 Y1.420 E0.1870 F267
G1 X-19.995 Y1.420 E2.8206
G1 X-19.995 Y-1.420 E3.0076
G1 X18.995 Y-1.420 E5.5753
G1 X19.995 Y-1.420 F267
G92 E0
G1 E-1.0000 F1800
; outer perimeter
G1 X20.715 Y-2.140 F9000
G1 E0.0000 F1800
G92 E0
G1 X20.715 Y2.140 E0.2819 F200
G1 X-20.715 Y2.140 E3.0102
G1 X-20.715 Y-2.140 E3.2921
G1 X19.715 Y-2.140 E5.9546
G1 X20.715 Y-2.140 F200
G92 E0
G1 E-1.0000 F1800
; solid layer
G1 X18.934 Y-0.412 F9000
G1 E0.0000 F1800
G92 E0
G1 X18.987 Y-0.359 E0.0049 F320
G1 X18.987 Y0.412 E0.0557
G1 X18.740 Y0.412 E0.0719
G1 X17.916 Y-0.412 E0.1487
G1 X16.898 Y-0.412 E0.2157
G1 X17.722 Y0.412 E0.2925
G1 X16.704 Y0.412 E0.3595
G1 X15.880 Y-0.412 E0.4363
G1 X14.862 Y-0.412 E0.5033
G1 X15.686 Y0.412 E0.5801
G1 X14.667 Y0.412 E0.6471
G1 X13.843 Y-0.412 E0.7239
G1 X12.825 Y-0.412 E0.7909
G1 X13.649 Y0.412 E0.8677
G1 X12.631 Y0.412 E0.9347
G1 X11.807 Y-0.412 E1.0115
G1 X10.789 Y-0.412 E1.0785
G1 X11.613 Y0.412 E1.1553
G1 X10.594 Y0.412 E1.2223
G1 X9.770 Y-0.412 E1.2991
G1 X8.752 Y-0.412 E1.3661
G1 X9.576 Y0.412 E1.4429
G1 X8.558 Y0.412 E1.5099
G1 X7.734 Y-0.412 E1.5867
G1 X6.716 Y-0.412 E1.6537
G1 X7.540 Y0.412 E1.7305
G1 X6.521 Y0.412 E1.7975
G1 X5.697 Y-0.412 E1.8742
G1 X4.679 Y-0.412 E1.9413
G1 X5.503 Y0.412 E2.0180
G1 X4.485 Y0.412 E2.0851
G1 X3.661 Y-0.412 E2.1618
G1 X2.643 Y-0.412 E2.2289
G1 X3.467 Y0.412 E2.3056
G1 X2.448 Y0.412 E2.3727
G1 X1.624 Y-0.412 E2.4494
G1 X0.606 Y-0.412 E2.5165
G1 X1.430 Y0.412 E2.5932
G1 X0.412 Y0.412 E2.6603
G1 X-0.412 Y-0.412 E2.7370
G1 X-1.430 Y-0.412 E2.8041
G1 X-0.606 Y0.412 E2.8808
G1 X-1.624 Y0.412 E2.9479
G1 X-2.448 Y-0.412 E3.0246
G1 X-3.467 Y-0.412 E3.0917
G1 X-2.643 Y0.412 E3.1684
G1 X-3.661 Y0.412 E3.2355
G1 X-4.485 Y-0.412 E3.3122
G1 X-5.503 Y-0.412 E3.3793
G1 X-4.679 Y0.412 E3.4560
G1 X-5.697 Y0.412 E3.5231
G1 X-6.521 Y-0.412 E3.5998
G1 X-7.540 Y-0.412 E3.6669
G1 X-6.716 Y0.412 E3.7436
G1 X-7.734 Y0.412 E3.8107
G1 X-8.558 Y-0.412 E3.8874
G1 X-9.576 Y-0.412 E3.9545
G1 X-8.752 Y0.412 E4.0312
G1 X-9.770 Y0.412 E4.0983
G1 X-10.594 Y-0.412 E4.1750
G1 X-11.613 Y-0.412 E4.2421
G1 X-10.789 Y0.412 E4.3188
G1 X-11.807 Y0.412 E4.3858
G1 X-12.631 Y-0.412 E4.4626
G1 X-13.649 Y-0.412 E4.5296
G1 X-12.825 Y0.412 E4.6064
G1 X-13.843 Y0.412 E4.6734
G1 X-14.667 Y-0.412 E4.7502
G1 X-15.685 Y-0.412 E4.8172
G1 X-14.862 Y0.412 E4.8940
G1 X-15.880 Y0.412 E4.9610
G1 X-16.704 Y-0.412 E5.0378
G1 X-17.722 Y-0.412 E5.1048
G1 X-16.898 Y0.412 E5.1816
G1 X-17.916 Y0.412 E5.2486
G1 X-18.740 Y-0.412 E5.3254
G1 X-18.833 Y-0.412 E5.3315
G1 X-18.987 Y-0.412 F320
G1 X-18.987 Y0.359 F320
G1 X-18.934 Y0.412 F320
G92 E0
G1 E-1.0000 F1800
; layer 2, Z = 0.25
M106 S255
; inner perimeter
G1 X-19.275 Y0.700 F9000
G1 Z0.250 F1200
G1 E0.0000 F1800
G92 E0
G1 X-19.275 Y-0.700 E0.0922 F833
G1 X19.275 Y-0.700 E2.6309
G1 X19.275 Y0.700 E2.7231
G1 X-18.275 Y0.700 E5.1960
G1 X-19.275 Y0.700 F833
G92 E0
G1 E-1.0000 F1800
; inner perimeter
G1 X-19.995 Y1.420 F9000
G1 E0.0000 F1800
G92 E0
G1 X-19.995 Y-1.420 E0.1870 F667
G1 X19.995 Y-1.420 E2.8206
G1 X19.995 Y1.420 E3.0076
G1 X-18.995 Y1.420 E5.5753
G1 X-19.995 Y1.420 F667
G92 E0
G1 E-1.0000 F1800
; outer perimeter
G1 X-20.715 Y2.140 F9000
G1 E0.0000 F1800
G92 E0
G1 X-20.715 Y-2.140 E0.2819 F500
G1 X20.715 Y-2.140 E3.0102
G1 X20.715 Y2.140 E3.2921
G1 X-19.715 Y2.140 E5.9546
G1 X-20.715 Y2.140 F500
G92 E0
G1 E-1.0000 F1800
; solid layer
G1 X-18.987 Y-0.359 F9000
G1 E0.0000 F1800
G92 E0
G1 X-18.934 Y-0.412 E0.0049 F800
G1 X-17.916 Y-0.412 E0.0720
G1 X-18.740 Y0.412 E0.1487
G1 X-17.722 Y0.412 E0.2158
G1 X-16.898 Y-0.412 E0.2925
G1 X-15.880 Y-0.412 E0.3595
G1 X-16.704 Y0.412 E0.4363
G1 X-15.685 Y0.412 E0.5033
G1 X-14.861 Y-0.412 E0.5801
G1 X-13.843 Y-0.412 E0.6471
G1 X-14.667 Y0.412 E0.7239
G1 X-13.649 Y0.412 E0.7909
G1 X-12.825 Y-0.412 E0.8677
G1 X-11.807 Y-0.412 E0.9347
G1 X-12.631 Y0.412 E1.0115
G1 X-11.613 Y0.412 E1.0785
G1 X-10.789 Y-0.412 E1.1553
G1 X-9.770 Y-0.412 E1.2223
G1 X-10.594 Y0.412 E1.2991
G1 X-9.576 Y0.412 E1.3661
G1 X-8.752 Y-0.412 E1.4429
G1 X-7.734 Y-0.412 E1.5099
G1 X-8.558 Y0.412 E1.5867
G1 X-7.540 Y0.412 E1.6537
G1 X-6.716 Y-0.412 E1.7305
G1 X-5.697 Y-0.412 E1.7975
G1 X-6.521 Y0.412 E1.8743
G1 X-5.503 Y0.412 E1.9413
G1 X-4.679 Y-0.412 E2.0181
G1 X-3.661 Y-0.412 E2.0851
G1 X-4.485 Y0.412 E2.1618
G1 X-3.467 Y0.412 E2.2289
G1 X-2.643 Y-0.412 E2.3056
G1 X-1.624 Y-0.412 E2.3727
G1 X-2.448 Y0.412 E2.4494
G1 X-1.430 Y0.412 E2.5165
G1 X-0.606 Y-0.412 E2.5932
G1 X0.412 Y-0.412 E2.6603
G1 X-0.412 Y0.412 E2.7370
G1 X0.606 Y0.412 E2.8041
G1 X1.430 Y-0.412 E2.8808
G1 X2.448 Y-0.412 E2.9479
G1 X1.625 Y0.412 E3.0246
G1 X2.643 Y0.412 E3.0917
G1 X3.467 Y-0.412 E3.1684
G1 X4.485 Y-0.412 E3.2355
G1 X3.661 Y0.412 E3.3122
G1 X4.679 Y0.412 E3.3793
G1 X5.503 Y-0.412 E3.4560
G1 X6.521 Y-0.412 E3.5231
G1 X5.697 Y0.412 E3.5998
G1 X6.716 Y0.412 E3.6669
G1 X7.540 Y-0.412 E3.7436
G1 X8.558 Y-0.412 E3.8107
G1 X7.734 Y0.412 E3.8874
G1 X8.752 Y0.412 E3.9545
G1 X9.576 Y-0.412 E4.0312
G1 X10.594 Y-0.412 E4.0983
G1 X9.770 Y0.412 E4.1750
G1 X10.789 Y0.412 E4.2421
G1 X11.613 Y-0.412 E4.3188
G1 X12.631 Y-0.412 E4.3859
G1 X11.807 Y0.412 E4.4626
G1 X12.825 Y0.412 E4.5296
G1 X13.649 Y-0.412 E4.6064
G1 X14.667 Y-0.412 E4.6734
G1 X13.843 Y0.412 E4.7502
G1 X14.862 Y0.412 E4.8172
G1 X15.686 Y-0.412 E4.8940
G1 X16.704 Y-0.412 E4.9610
G1 X15.880 Y0.412 E5.0378
G1 X16.898 Y0.412 E5.1048
G1 X17.722 Y-0.412 E5.1816
G1 X18.740 Y-0.412 E5.2486
G1 X17.916 Y0.412 E5.3254
G1 X18.009 Y0.412 E5.3315
G1 X18.934 Y0.412 F800
G1 X18.987 Y0.359 F800
G92 E0
G1 E-1.0000 F1800
; layer 3, Z = 0.45
; inner perimeter
G1 X19.275 Y0.700 F9000
G1 Z0.450 F1200
G1 E0.0000 F1800
G92 E0
G1 X-19.275 Y0.700 E2.5387 F833
G1 X-19.275 Y-0.700 E2.6309
G1 X19.275 Y-0.700 E5.1696
G1 X19.275 Y-0.300 E5.1960
G1 X19.275 Y0.700 F833
G92 E0
G1 E-1.0000 F1800
; inner perimeter
G1 X19.995 Y1.420 F9000
G1 E0.0000 F1800
G92 E0
G1 X-19.995 Y1.420 E2.6335 F667
G1 X-19.995 Y-1.420 E2.8206
G1 X19.995 Y-1.420 E5.4541
G1 X19.995 Y0.420 E5.5753
G1 X19.995 Y1.420 F667
G92 E0
G1 E-1.0000 F1800
; outer perimeter
G1 X20.715 Y2.140 F9000
G1 E0.0000 F1800
G92 E0
G1 X-20.715 Y2.140 E2.7284 F500
G1 X-20.715 Y-2.140 E3.0102
G1 X20.715 Y-2.140 E5.7386
G1 X20.715 Y1.140 E5.9546
G1 X20.715 Y2.140 F500
G92 E0
G1 E-1.0000 F1800
; solid layer
G1 X18.934 Y-0.412 F9000
G1 E0.0000 F1800
G92 E0
G1 X18.987 Y-0.359 E0.0049 F800
G1 X18.987 Y0.412 E0.0557
G1 X18.740 Y0.412 E0.0719
G1 X17.916 Y-0.412 E0.1487
G1 X16.898 Y-0.412 E0.2157
G1 X17.722 Y0.412 E0.2925
G1 X16.704 Y0.412 E0.3595
G1 X15.880 Y-0.412 E0.4363
G1 X14.862 Y-0.412 E0.5033
G1 X15.686 Y0.412 E0.5801
G1 X14.667 Y0.412 E0.6471
G1 X13.843 Y-0.412 E0.7239
G1 X12.825 Y-0.412 E0.7909
G1 X13.649 Y0.412 E0.8677
G1 X12.631 Y0.412 E0.9347
G1 X11.807 Y-0.412 E1.0115
G1 X10.789 Y-0.412 E1.0785
G1 X11.613 Y0.412 E1.1553
G1 X10.594 Y0.412 E1.2223
G1 X9.770 Y-0.412 E1.2991
G1 X8.752 Y-0.412 E1.3661
G1 X9.576 Y0.412 E1.4429
G1 X8.558 Y0.412 E1.5099
G1 X7.734 Y-0.412 E1.5867
G1 X6.716 Y-0.412 E1.6537
G1 X7.540 Y0.412 E1.7305
G1 X6.521 Y0.412 E1.7975
G1 X5.697 Y-0.412 E1.8742
G1 X4.679 Y-0.412 E1.9413
G1 X5.503 Y0.412 E2.0180
G1 X4.485 Y0.412 E2.0851
G1 X3.661 Y-0.412 E2.1618
G1 X2.643 Y-0.412 E2.2289
G1 X3.467 Y0.412 E2.3056
G1 X2.448 Y0.412 E2.3727
G1 X1.624 Y-0.412 E2.4494
G1 X0.606 Y-0.412 E2.5165
G1 X1.430 Y0.412 E2.5932
G1 X0.412 Y0.412 E2.6603
G1 X-0.412 Y-0.412 E2.7370
G1 X-1.430 Y-0.412 E2.8041
G1 X-0.606 Y0.412 E2.8808
G1 X-1.624 Y0.412 E2.9479
G1 X-2.448 Y-0.412 E3.0246
G1 X-3.467 Y-0.412 E3.0917
G1 X-2.643 Y0.412 E3.1684
G1 X-3.661 Y0.412 E3.2355
G1 X-4.485 Y-0.412 E3.3122
G1 X-5.503 Y-0.412 E3.3793
G1 X-4.679 Y0.412 E3.4560
G1 X-5.697 Y0.412 E3.5231
G1 X-6.521 Y-0.412 E3.5998
G1 X-7.540 Y-0.412 E3.6669
G1 X-6.716 Y0.412 E3.7436
G1 X-7.734 Y0.412 E3.8107
G1 X-8.558 Y-0.412 E3.8874
G1 X-9.576 Y-0.412 E3.9545
G1 X-8.752 Y0.412 E4.0312
G1 X-9.770 Y0.412 E4.0983
G1 X-10.594 Y-0.412 E4.1750
G1 X-11.613 Y-0.412 E4.2421
G1 X-10.789 Y0.412 E4.3188
G1 X-11.807 Y0.412 E4.3858
G1 X-12.631 Y-0.412 E4.4626
G1 X-13.649 Y-0.412 E4.5296
G1 X-12.825 Y0.412 E4.6064
G1 X-13.843 Y0.412 E4.6734
G1 X-14.667 Y-0.412 E4.7502
G1 X-15.685 Y-0.412 E4.8172
G1 X-14.862 Y0.412 E4.8940
G1 X-15.880 Y0.412 E4.9610
G1 X-16.704 Y-0.412 E5.0378
G1 X-17.722 Y-0.412 E5.1048
G1 X-16.898 Y0.412 E5.1816
G1 X-17.916 Y0.412 E5.2486
G1 X-18.740 Y-0.412 E5.3254
G1 X-18.833 Y-0.412 E5.3315
G1 X-18.987 Y-0.412 F800
G1 X-18.987 Y0.359 F800
G1 X-18.934 Y0.412 F800
G92 E0
G1 E-1.0000 F1800
; layer 4, Z = 0.65
; inner perimeter
G1 X-19.275 Y0.700 F9000
G1 Z0.650 F1200
G1 E0.0000 F1800
G92 E0
G1 X-19.275 Y-0.700 E0.0922 F833
G1 X19.275 Y-0.700 E2.6309
G1 X19.275 Y0.700 E2.7231
G1 X-18.275 Y0.700 E5.1960
G1 X-19.275 Y0.700 F833
G92 E0
G1 E-1.0000 F1800
; inner perimeter
G1 X-19.995 Y1.420 F9000
G1 E0.0000 F1800
G92 E0
G1 X-19.995 Y-1.420 E0.1870 F667
G1 X19.995 Y-1.420 E2.8206
G1 X19.995 Y1.420 E3.0076
G1 X-18.995 Y1.420 E5.5753
G1 X-19.995 Y1.420 F667
G92 E0
