; G-Code generated by Simplify3D(R) Version 3.1.0
; Sep 7, 2016 at 6:53:40 PM
; Settings Summary
;   processName,Process1
;   applyToModels,shoulder-mount
;   profileName,Rostock MAX v2 (modified)
;   profileVersion,2015-05-01 08:00:00
;   baseProfile,
;   printMaterial,PLA
;   printQuality,Medium
;   printExtruders,
;   extruderName,Primary Extruder
;   extruderToolheadNumber,0
;   extruderDiameter,0.6
;   extruderAutoWidth,1
;   extruderWidth,0.72
;   extrusionMultiplier,1.1
;   extruderUseRetract,1
;   extruderRetractionDistance,2
;   extruderExtraRestartDistance,0
;   extruderRetractionZLift,0
;   extruderRetractionSpeed,1800
;   extruderUseCoasting,1
;   extruderCoastingDistance,1
;   extruderUseWipe,0
;   extruderWipeDistance,5
;   primaryExtruder,0
;   layerHeight,0.2
;   topSolidLayers,3
;   bottomSolidLayers,3
;   perimeterOutlines,3
;   printPerimetersInsideOut,1
;   startPointOption,2
;   startPointOriginX,0
;   startPointOriginY,0
;   startPointOriginZ,300
;   sequentialIslands,0
;   spiralVaseMode,0
;   firstLayerHeightPercentage,25
;   firstLayerWidthPercentage,100
;   firstLayerUnderspeed,0.4
;   useRaft,0
;   raftExtruder,0
;   raftLayers,3
;   raftOffset,15
;   raftSeparationDistance,0.14
;   raftInfill,85
;   disableRaftBaseLayers,0
;   useSkirt,1
;   skirtExtruder,0
;   skirtLayers,1
;   skirtOutlines,2
;   skirtOffset,5
;   usePrimePillar,0
;   primePillarExtruder,999
;   primePillarWidth,12
;   primePillarLocation,7
;   primePillarSpeedMultiplier,1
;   useOozeShield,0
;   oozeShieldExtruder,999
;   oozeShieldOffset,2
;   oozeShieldOutlines,1
;   oozeShieldSidewallShape,1
;   oozeShieldSidewallAngle,30
;   oozeShieldSpeedMultiplier,1
;   infillExtruder,0
;   internalInfillPattern,Rectilinear
;   externalInfillPattern,Rectilinear
;   infillPercentage,85
;   outlineOverlapPercentage,40
;   infillExtrusionWidthPercentage,100
;   minInfillLength,3
;   infillLayerInterval,1
;   infillAngles,45,-45
;   overlapInfillAngles,0
;   generateSupport,0
;   supportExtruder,0
;   supportInfillPercentage,30
;   supportExtraInflation,0
;   denseSupportLayers,0
;   denseSupportInfillPercentage,70
;   supportLayerInterval,1
;   supportHorizontalPartOffset,0.3
;   supportUpperSeparationLayers,1
;   supportLowerSeparationLayers,1
;   supportType,1
;   supportGridSpacing,4
;   maxOverhangAngle,45
;   supportAngles,0
;   temperatureName,Primary Extruder,Heated Bed
;   temperatureNumber,0,1
;   temperatureSetpointCount,1,1
;   temperatureSetpointLayers,1,1
;   temperatureSetpointTemperatures,205,60
;   temperatureStabilizeAtStartup,1,1
;   temperatureHeatedBed,0,1
;   temperatureRelayBetweenLayers,0,0
;   temperatureRelayBetweenLoops,0,0
;   fanLayers,1,2
;   fanSpeeds,0,100
;   blipFanToFullPower,1
;   adjustSpeedForCooling,1
;   minSpeedLayerTime,15
;   minCoolingSpeedSlowdown,20
;   increaseFanForCooling,0
;   minFanLayerTime,60
;   maxCoolingFanSpeed,100
;   increaseFanForBridging,0
;   bridgingFanSpeed,100
;   use5D,1
;   relativeEdistances,0
;   allowEaxisZeroing,1
;   independentExtruderAxes,0
;   includeM10123,0
;   stickySupport,1
;   applyToolheadOffsets,0
;   gcodeXoffset,0
;   gcodeYoffset,0
;   gcodeZoffset,0
;   overrideMachineDefinition,1
;   machineTypeOverride,1
;   strokeXoverride,197
;   strokeYoverride,197
;   strokeZoverride,375
;   originOffsetXoverride,98.5
;   originOffsetYoverride,98.5
;   originOffsetZoverride,0
;   homeXdirOverride,0
;   homeYdirOverride,0
;   homeZdirOverride,1
;   flipXoverride,1
;   flipYoverride,-1
;   flipZoverride,1
;   toolheadOffsets,0,0|0,0|0,0|0,0|0,0|0,0
;   overrideFirmwareConfiguration,1
;   firmwareTypeOverride,RepRap (Marlin/Repetier/Sprinter)
;   GPXconfigOverride,r2
;   baudRateOverride,115200
;   overridePrinterModels,1
;   printerModelsOverride
;   startingGcode,G28 ; home all axes
;   layerChangeGcode,
;   retractionGcode,
;   toolChangeGcode,
;   endingGcode,M104 S0 ; turn off extruder,M140 S0 ; turn off bed,G28 ; home axes,M84 ; disable motors
;   exportFileFormat,gcode
;   celebration,0
;   celebrationSong,Random Song
;   postProcessing,
;   defaultSpeed,3000
;   outlineUnderspeed,0.5
;   solidInfillUnderspeed,0.8
;   supportUnderspeed,0.8
;   rapidXYspeed,9000
;   rapidZspeed,1200
;   minBridgingArea,50
;   bridgingExtraInflation,0
;   bridgingExtrusionMultiplier,0.8
;   bridgingSpeedMultiplier,0.7
;   filamentDiameter,1.75
;   filamentPricePerKg,22
;   filamentDensity,1.25
;   useMinPrintHeight,0
;   minPrintHeight,0.05
;   useMaxPrintHeight,0
;   maxPrintHeight,0
;   useDiaphragm,0
;   diaphragmLayerInterval,20
;   robustSlicing,1
;   mergeAllIntoSolid,0
;   onlyRetractWhenCrossingOutline,0
;   retractBetweenLayers,0
;   useRetractionMinTravel,0
;   retractionMinTravel,3
;   retractWhileWiping,1
;   onlyWipeOutlines,1
;   avoidCrossingOutline,1
;   maxMovementDetourFactor,1.5
;   toolChangeRetractionDistance,12
;   toolChangeExtraRestartDistance,-0.5
;   toolChangeRetractionSpeed,600
;   allowThinWallGapFill,1
;   thinWallAllowedOverlapPercentage,10
;   horizontalSizeCompensation,0
G90
M82
M106 S0
M140 S60
M190 S60
M104 S205 T0
M109 S205 T0
G28 ; home all axes
G92 E0
G1 E-2.0000 F1800
G1 Z0.050 F1200
; layer 1, Z = 0.05
T0
; tool H0.200 W0.720
; skirt
G1 X25.121 Y17.080 F9000
G1 E0.0000 F540
G92 E0
G1 X-25.127 Y17.079 E3.3091 F1200
G1 X-25.151 Y17.079 E3.3106
G1 X-25.392 Y17.068 E3.3266
G1 X-25.416 Y17.067 E3.3281
G1 X-26.118 Y17.005 E3.3745
G1 X-26.165 Y16.999 E3.3776
G1 X-26.641 Y16.915 E3.4095
G1 X-26.687 Y16.905 E3.4126
G1 X-27.491 Y16.690 E3.4674
G1 X-27.536 Y16.675 E3.4705
G1 X-27.991 Y16.510 E3.5024
G1 X-28.034 Y16.492 E3.5055
G1 X-28.789 Y16.140 E3.5603
G1 X-28.831 Y16.118 E3.5634
G1 X-29.249 Y15.877 E3.5953
G1 X-29.289 Y15.851 E3.5984
G1 X-29.971 Y15.374 E3.6532
G1 X-30.008 Y15.345 E3.6563
G1 X-30.379 Y15.034 E3.6881
G1 X-30.414 Y15.002 E3.6912
G1 X-31.002 Y14.414 E3.7461
G1 X-31.034 Y14.379 E3.7492
G1 X-31.345 Y14.009 E3.7810
G1 X-31.374 Y13.971 E3.7841
G1 X-31.851 Y13.289 E3.8389
G1 X-31.876 Y13.250 E3.8420
G1 X-32.118 Y12.831 E3.8739
G1 X-32.140 Y12.789 E3.8770
G1 X-32.492 Y12.034 E3.9318
G1 X-32.510 Y11.991 E3.9349
G1 X-32.675 Y11.536 E3.9668
G1 X-32.690 Y11.491 E3.9699
G1 X-32.905 Y10.687 E4.0247
G1 X-32.915 Y10.641 E4.0278
G1 X-32.999 Y10.165 E4.0597
G1 X-33.005 Y10.118 E4.0628
G1 X-33.067 Y9.416 E4.1092
G1 X-33.068 Y9.392 E4.1108
G1 X-33.079 Y9.151 E4.1267
G1 X-33.079 Y9.127 E4.1282
G1 X-33.080 Y-9.121 E5.3299
G1 X-33.079 Y-9.144 E5.3315
G1 X-33.069 Y-9.386 E5.3474
G1 X-33.067 Y-9.410 E5.3490
G1 X-33.005 Y-10.118 E5.3958
G1 X-32.999 Y-10.165 E5.3989
G1 X-32.915 Y-10.641 E5.4308
G1 X-32.905 Y-10.687 E5.4339
G1 X-32.690 Y-11.491 E5.4887
G1 X-32.675 Y-11.536 E5.4918
G1 X-32.510 Y-11.991 E5.5237
G1 X-32.492 Y-12.034 E5.5268
G1 X-32.140 Y-12.789 E5.5816
G1 X-32.118 Y-12.831 E5.5847
G1 X-31.876 Y-13.250 E5.6165
G1 X-31.851 Y-13.289 E5.6197
G1 X-31.374 Y-13.971 E5.6745
G1 X-31.345 Y-14.009 E5.6776
G1 X-31.034 Y-14.379 E5.7094
G1 X-31.002 Y-14.414 E5.7125
G1 X-30.414 Y-15.002 E5.7673
G1 X-30.379 Y-15.034 E5.7704
G1 X-30.009 Y-15.345 E5.8023
G1 X-29.971 Y-15.374 E5.8054
G1 X-29.289 Y-15.851 E5.8602
G1 X-29.250 Y-15.876 E5.8633
G1 X-28.831 Y-16.118 E5.8952
G1 X-28.789 Y-16.140 E5.8983
G1 X-28.034 Y-16.492 E5.9531
G1 X-27.991 Y-16.510 E5.9562
G1 X-27.536 Y-16.675 E5.9881
G1 X-27.491 Y-16.690 E5.9912
G1 X-26.687 Y-16.905 E6.0460
G1 X-26.641 Y-16.915 E6.0491
G1 X-26.165 Y-16.999 E6.0809
G1 X-26.118 Y-17.005 E6.0840
G1 X-25.410 Y-17.067 E6.1309
G1 X-25.386 Y-17.069 E6.1324
G1 X-25.144 Y-17.079 E6.1484
G1 X-25.121 Y-17.080 E6.1499
G1 X25.127 Y-17.079 E9.4590
G1 X25.151 Y-17.079 E9.4606
G1 X25.392 Y-17.068 E9.4765
G1 X25.416 Y-17.067 E9.4780
G1 X26.118 Y-17.005 E9.5245
G1 X26.165 Y-16.999 E9.5276
G1 X26.641 Y-16.915 E9.5594
G1 X26.687 Y-16.905 E9.5625
G1 X27.491 Y-16.690 E9.6173
G1 X27.536 Y-16.675 E9.6204
G1 X27.991 Y-16.510 E9.6523
G1 X28.034 Y-16.492 E9.6554
G1 X28.789 Y-16.140 E9.7102
G1 X28.831 Y-16.118 E9.7133
G1 X29.250 Y-15.876 E9.7452
G1 X29.289 Y-15.851 E9.7483
G1 X29.971 Y-15.374 E9.8031
G1 X30.009 Y-15.345 E9.8062
G1 X30.379 Y-15.034 E9.8381
G1 X30.414 Y-15.002 E9.8412
G1 X31.002 Y-14.414 E9.8960
G1 X31.034 Y-14.379 E9.8991
G1 X31.345 Y-14.008 E9.9309
G1 X31.374 Y-13.971 E9.9340
G1 X31.851 Y-13.289 E9.9889
G1 X31.877 Y-13.249 E9.9920
G1 X32.118 Y-12.831 E10.0238
G1 X32.140 Y-12.789 E10.0269
G1 X32.492 Y-12.034 E10.0817
G1 X32.510 Y-11.991 E10.0848
G1 X32.675 Y-11.536 E10.1167
G1 X32.690 Y-11.491 E10.1198
G1 X32.905 Y-10.687 E10.1746
G1 X32.915 Y-10.641 E10.1777
G1 X32.999 Y-10.165 E10.2096
G1 X33.005 Y-10.118 E10.2127
G1 X33.067 Y-9.410 E10.2595
G1 X33.069 Y-9.386 E10.2611
G1 X33.079 Y-9.144 E10.2770
G1 X33.080 Y-9.121 E10.2786
G1 X33.080 Y9.121 E11.4799
G1 X33.079 Y9.144 E11.4814
G1 X33.069 Y9.386 E11.4973
G1 X33.067 Y9.410 E11.4989
G1 X33.005 Y10.118 E11.5457
G1 X32.999 Y10.165 E11.5489
G1 X32.915 Y10.641 E11.5807
G1 X32.905 Y10.687 E11.5838
G1 X32.690 Y11.491 E11.6386
G1 X32.675 Y11.536 E11.6417
G1 X32.510 Y11.991 E11.6736
G1 X32.492 Y12.034 E11.6767
G1 X32.140 Y12.789 E11.7315
G1 X32.118 Y12.831 E11.7346
G1 X31.877 Y13.249 E11.7665
G1 X31.851 Y13.289 E11.7696
G1 X31.374 Y13.971 E11.8244
G1 X31.345 Y14.008 E11.8275
G1 X31.034 Y14.379 E11.8593
G1 X31.002 Y14.414 E11.8624
G1 X30.414 Y15.002 E11.9173
G1 X30.379 Y15.034 E11.9204
G1 X30.008 Y15.345 E11.9522
G1 X29.971 Y15.374 E11.9553
G1 X29.289 Y15.851 E12.0101
G1 X29.249 Y15.877 E12.0132
G1 X28.831 Y16.118 E12.0451
G1 X28.789 Y16.140 E12.0482
G1 X28.034 Y16.492 E12.1030
G1 X27.991 Y16.510 E12.1061
G1 X27.536 Y16.675 E12.1380
G1 X27.491 Y16.690 E12.1411
G1 X26.687 Y16.905 E12.1959
G1 X26.641 Y16.915 E12.1990
G1 X26.165 Y16.999 E12.2309
G1 X26.118 Y17.005 E12.2340
G1 X26.118 Y17.005 E12.2340
G1 X25.410 Y17.067 F1200
G1 X25.386 Y17.069 F1200
G1 X25.144 Y17.079 F1200
G1 X25.121 Y17.080 F1200
G92 E0
G1 E-2.0000 F1800
G1 X25.113 Y16.360 F9000
G1 E0.0000 F1800
G92 E0
G1 X-25.119 Y16.359 E3.3080 F1200
G1 X-25.127 Y16.359 E3.3086
G1 X-25.353 Y16.349 E3.3235
G1 X-25.361 Y16.349 E3.3240
G1 X-26.040 Y16.290 E3.3689
G1 X-26.055 Y16.287 E3.3699
G1 X-26.501 Y16.209 E3.3997
G1 X-26.516 Y16.206 E3.4007
G1 X-27.290 Y15.998 E3.4535
G1 X-27.305 Y15.993 E3.4545
G1 X-27.730 Y15.839 E3.4843
G1 X-27.744 Y15.833 E3.4853
G1 X-28.470 Y15.494 E3.5381
G1 X-28.484 Y15.487 E3.5391
G1 X-28.876 Y15.261 E3.5689
G1 X-28.889 Y15.252 E3.5699
G1 X-29.545 Y14.793 E3.6227
G1 X-29.558 Y14.783 E3.6237
G1 X-29.904 Y14.493 E3.6535
G1 X-29.916 Y14.482 E3.6545
G1 X-30.482 Y13.916 E3.7073
G1 X-30.493 Y13.904 E3.7083
G1 X-30.783 Y13.558 E3.7381
G1 X-30.793 Y13.545 E3.7391
G1 X-31.252 Y12.889 E3.7919
G1 X-31.261 Y12.876 E3.7929
G1 X-31.487 Y12.484 E3.8227
G1 X-31.494 Y12.470 E3.8237
G1 X-31.833 Y11.744 E3.8765
G1 X-31.839 Y11.730 E3.8775
G1 X-31.994 Y11.305 E3.9073
G1 X-31.998 Y11.290 E3.9083
G1 X-32.206 Y10.516 E3.9611
G1 X-32.209 Y10.501 E3.9621
G1 X-32.287 Y10.055 E3.9919
G1 X-32.290 Y10.040 E3.9929
G1 X-32.349 Y9.361 E4.0378
G1 X-32.349 Y9.353 E4.0383
G1 X-32.359 Y9.127 E4.0532
G1 X-32.359 Y9.119 E4.0537
G1 X-32.360 Y-9.113 E5.2544
G1 X-32.360 Y-9.121 E5.2549
G1 X-32.350 Y-9.347 E5.2698
G1 X-32.349 Y-9.355 E5.2703
G1 X-32.289 Y-10.040 E5.3156
G1 X-32.287 Y-10.055 E5.3167
G1 X-32.209 Y-10.501 E5.3465
G1 X-32.206 Y-10.516 E5.3475
G1 X-31.998 Y-11.290 E5.4002
G1 X-31.994 Y-11.305 E5.4013
G1 X-31.839 Y-11.730 E5.4311
G1 X-31.833 Y-11.744 E5.4321
G1 X-31.494 Y-12.470 E5.4848
G1 X-31.487 Y-12.484 E5.4859
G1 X-31.261 Y-12.876 E5.5157
G1 X-31.252 Y-12.889 E5.5167
G1 X-30.793 Y-13.545 E5.5695
G1 X-30.783 Y-13.558 E5.5705
G1 X-30.493 Y-13.904 E5.6003
G1 X-30.482 Y-13.916 E5.6013
G1 X-29.916 Y-14.482 E5.6541
G1 X-29.904 Y-14.493 E5.6551
G1 X-29.558 Y-14.783 E5.6849
G1 X-29.545 Y-14.793 E5.6859
G1 X-28.889 Y-15.252 E5.7386
G1 X-28.876 Y-15.261 E5.7397
G1 X-28.484 Y-15.487 E5.7695
G1 X-28.470 Y-15.494 E5.7705
G1 X-27.744 Y-15.833 E5.8233
G1 X-27.730 Y-15.839 E5.8243
G1 X-27.305 Y-15.993 E5.8541
G1 X-27.290 Y-15.998 E5.8551
G1 X-26.516 Y-16.206 E5.9079
G1 X-26.501 Y-16.209 E5.9089
G1 X-26.055 Y-16.287 E5.9387
G1 X-26.040 Y-16.289 E5.9397
G1 X-25.355 Y-16.349 E5.9850
G1 X-25.347 Y-16.350 E5.9855
G1 X-25.121 Y-16.360 E6.0004
G1 X-25.113 Y-16.360 E6.0009
G1 X25.119 Y-16.359 E9.3090
G1 X25.127 Y-16.359 E9.3095
G1 X25.353 Y-16.349 E9.3244
G1 X25.361 Y-16.349 E9.3249
G1 X26.040 Y-16.290 E9.3698
G1 X26.055 Y-16.287 E9.3708
G1 X26.501 Y-16.209 E9.4006
G1 X26.516 Y-16.206 E9.4016
G1 X27.290 Y-15.998 E9.4544
G1 X27.305 Y-15.993 E9.4554
G1 X27.730 Y-15.839 E9.4852
G1 X27.744 Y-15.833 E9.4862
G1 X28.470 Y-15.494 E9.5390
G1 X28.484 Y-15.487 E9.5400
G1 X28.876 Y-15.261 E9.5698
G1 X28.889 Y-15.252 E9.5709
G1 X29.545 Y-14.793 E9.6236
G1 X29.558 Y-14.783 E9.6246
G1 X29.904 Y-14.493 E9.6544
G1 X29.916 Y-14.482 E9.6555
G1 X30.482 Y-13.916 E9.7082
G1 X30.493 Y-13.904 E9.7092
G1 X30.783 Y-13.558 E9.7390
G1 X30.793 Y-13.545 E9.7401
G1 X31.252 Y-12.889 E9.7928
G1 X31.261 Y-12.876 E9.7938
G1 X31.487 Y-12.484 E9.8236
G1 X31.494 Y-12.470 E9.8247
G1 X31.833 Y-11.744 E9.8774
G1 X31.839 Y-11.730 E9.8784
G1 X31.994 Y-11.305 E9.9082
G1 X31.998 Y-11.290 E9.9093
G1 X32.206 Y-10.516 E9.9620
G1 X32.209 Y-10.501 E9.9630
G1 X32.287 Y-10.055 E9.9928
G1 X32.289 Y-10.040 E9.9939
G1 X32.349 Y-9.355 E10.0392
G1 X32.350 Y-9.347 E10.0397
G1 X32.360 Y-9.121 E10.0546
G1 X32.360 Y-9.113 E10.0551
G1 X32.360 Y9.113 E11.2554
G1 X32.360 Y9.121 E11.2559
G1 X32.350 Y9.347 E11.2708
G1 X32.349 Y9.355 E11.2713
G1 X32.289 Y10.040 E11.3166
G1 X32.287 Y10.055 E11.3176
G1 X32.209 Y10.501 E11.3474
G1 X32.206 Y10.516 E11.3484
G1 X31.998 Y11.290 E11.4012
G1 X31.994 Y11.305 E11.4022
G1 X31.839 Y11.730 E11.4320
G1 X31.833 Y11.744 E11.4330
G1 X31.494 Y12.470 E11.4858
G1 X31.487 Y12.484 E11.4868
G1 X31.261 Y12.876 E11.5166
G1 X31.252 Y12.889 E11.5176
G1 X30.793 Y13.545 E11.5704
G1 X30.783 Y13.558 E11.5714
G1 X30.493 Y13.904 E11.6012
G1 X30.482 Y13.916 E11.6022
G1 X29.916 Y14.482 E11.6550
G1 X29.904 Y14.493 E11.6560
G1 X29.558 Y14.783 E11.6858
G1 X29.545 Y14.793 E11.6868
G1 X28.889 Y15.252 E11.7396
G1 X28.876 Y15.261 E11.7406
G1 X28.484 Y15.487 E11.7704
G1 X28.470 Y15.494 E11.7714
G1 X27.744 Y15.833 E11.8242
G1 X27.730 Y15.839 E11.8252
G1 X27.305 Y15.993 E11.8550
G1 X27.290 Y15.998 E11.8561
G1 X26.516 Y16.206 E11.9088
G1 X26.501 Y16.209 E11.9098
G1 X26.109 Y16.278 E11.9360
G1 X26.055 Y16.287 F1200
G1 X26.040 Y16.289 F1200
G1 X25.355 Y16.349 F1200
G1 X25.347 Y16.350 F1200
G1 X25.121 Y16.360 F1200
G1 X25.113 Y16.360 F1200
G92 E0
G1 E-2.0000 F1800
; inner perimeter
G1 X19.922 Y9.200 F9000
G1 E0.0000 F1800
G92 E0
G1 X-19.890 Y9.200 E2.6218 F1000
G1 X-19.728 Y8.356 E2.6783
G1 X-19.728 Y7.644 E2.7252
G1 X-19.864 Y6.934 E2.7728
G1 X-20.133 Y6.263 E2.8205
G1 X-20.518 Y5.664 E2.8674
G1 X-21.015 Y5.140 E2.9149
G1 X-21.605 Y4.719 E2.9626
G1 X-22.263 Y4.419 E3.0103
G1 X-22.956 Y4.251 E3.0572
G1 X-23.677 Y4.216 E3.1047
G1 X-24.395 Y4.319 E3.1525
G1 X-25.200 Y4.599 E3.2086
G1 X-25.200 Y-4.362 E3.7987
G1 X-24.178 Y-4.216 E3.8667
G1 X-23.467 Y-4.249 E3.9136
G1 X-22.765 Y-4.418 E3.9611
G1 X-22.105 Y-4.719 E4.0088
G1 X-21.517 Y-5.139 E4.0565
G1 X-21.025 Y-5.654 E4.1034
G1 X-20.634 Y-6.261 E4.1509
G1 X-20.364 Y-6.934 E4.1987
G1 X-20.228 Y-7.644 E4.2463
G1 X-20.228 Y-8.356 E4.2932
G1 X-20.390 Y-9.200 E4.3498
G1 X20.422 Y-9.200 E7.0374
G1 X20.281 Y-8.719 E7.0704
G1 X20.212 Y-8.000 E7.1180
G1 X20.281 Y-7.280 E7.1656
G1 X20.482 Y-6.597 E7.2125
G1 X20.811 Y-5.954 E7.2601
G1 X21.259 Y-5.384 E7.3078
G1 X21.806 Y-4.912 E7.3554
G1 X22.423 Y-4.556 E7.4023
G1 X23.105 Y-4.318 E7.4499
G1 X23.822 Y-4.216 E7.4975
G1 X24.533 Y-4.249 E7.5444
G1 X25.200 Y-4.410 E7.5896
G1 X25.200 Y4.631 E8.1850
G1 X24.737 Y4.419 E8.2185
G1 X24.044 Y4.251 E8.2654
G1 X23.323 Y4.216 E8.3130
G1 X22.605 Y4.319 E8.3607
G1 X21.923 Y4.556 E8.4083
G1 X21.306 Y4.912 E8.4552
G1 X20.759 Y5.385 E8.5028
G1 X20.312 Y5.953 E8.5504
G1 X19.986 Y6.587 E8.5973
G1 X19.781 Y7.278 E8.6449
G1 X19.712 Y8.000 E8.6926
G1 X19.733 Y8.223 E8.7073
G1 X19.781 Y8.720 F1000
G1 X19.922 Y9.200 F1000
G92 E0
G1 E-2.0000 F1800
; inner perimeter
G1 X21.056 Y9.920 F9000
