; G-Code generated by Simplify3D(R) Version 3.1.0
; Aug 22, 2016 at 8:25:22 PM
; Settings Summary
;   processName,Process1
;   applyToModels,Quarter,Quarter(2),Quarter(3),Quarter(4)
;   profileName,Rostock MAX v2 (modified)
;   profileVersion,2015-05-01 08:00:00
;   baseProfile,
;   printMaterial,PLA
;   printQuality,Medium
;   printExtruders,
;   extruderName,Primary Extruder
;   extruderToolheadNumber,0
;   extruderDiameter,0.8
;   extruderAutoWidth,1
;   extruderWidth,0.96
;   extrusionMultiplier,1.1
;   extruderUseRetract,1
;   extruderRetractionDistance,7
;   extruderExtraRestartDistance,0
;   extruderRetractionZLift,0
;   extruderRetractionSpeed,1500
;   extruderUseCoasting,1
;   extruderCoastingDistance,1
;   extruderUseWipe,1
;   extruderWipeDistance,5
;   primaryExtruder,0
;   layerHeight,0.2
;   topSolidLayers,3
;   bottomSolidLayers,3
;   perimeterOutlines,3
;   printPerimetersInsideOut,1
;   startPointOption,2
;   startPointOriginX,0
;   startPointOriginY,0
;   startPointOriginZ,300
;   sequentialIslands,0
;   spiralVaseMode,0
;   firstLayerHeightPercentage,30
;   firstLayerWidthPercentage,80
;   firstLayerUnderspeed,0.4
;   useRaft,0
;   raftExtruder,0
;   raftLayers,3
;   raftOffset,15
;   raftSeparationDistance,0.14
;   raftInfill,85
;   disableRaftBaseLayers,0
;   useSkirt,1
;   skirtExtruder,0
;   skirtLayers,1
;   skirtOutlines,3
;   skirtOffset,10
;   usePrimePillar,0
;   primePillarExtruder,999
;   primePillarWidth,12
;   primePillarLocation,7
;   primePillarSpeedMultiplier,1
;   useOozeShield,0
;   oozeShieldExtruder,999
;   oozeShieldOffset,2
;   oozeShieldOutlines,1
;   oozeShieldSidewallShape,1
;   oozeShieldSidewallAngle,30
;   oozeShieldSpeedMultiplier,1
;   infillExtruder,0
;   internalInfillPattern,Fast Honeycomb
;   externalInfillPattern,Rectilinear
;   infillPercentage,100
;   outlineOverlapPercentage,25
;   infillExtrusionWidthPercentage,150
;   minInfillLength,5
;   infillLayerInterval,1
;   infillAngles,0
;   overlapInfillAngles,0
;   generateSupport,0
;   supportExtruder,0
;   supportInfillPercentage,30
;   supportExtraInflation,0
;   denseSupportLayers,0
;   denseSupportInfillPercentage,70
;   supportLayerInterval,1
;   supportHorizontalPartOffset,0.3
;   supportUpperSeparationLayers,1
;   supportLowerSeparationLayers,1
;   supportType,1
;   supportGridSpacing,4
;   maxOverhangAngle,45
;   supportAngles,0
;   temperatureName,Primary Extruder,Heated Bed
;   temperatureNumber,0,1
;   temperatureSetpointCount,1,1
;   temperatureSetpointLayers,1,1
;   temperatureSetpointTemperatures,205,60
;   temperatureStabilizeAtStartup,1,1
;   temperatureHeatedBed,0,1
;   temperatureRelayBetweenLayers,0,0
;   temperatureRelayBetweenLoops,0,0
;   fanLayers,1,2
;   fanSpeeds,0,100
;   blipFanToFullPower,1
;   adjustSpeedForCooling,1
;   minSpeedLayerTime,15
;   minCoolingSpeedSlowdown,20
;   increaseFanForCooling,0
;   minFanLayerTime,60
;   maxCoolingFanSpeed,100
;   increaseFanForBridging,0
;   bridgingFanSpeed,100
;   use5D,1
;   relativeEdistances,0
;   allowEaxisZeroing,1
;   independentExtruderAxes,0
;   includeM10123,0
;   stickySupport,1
;   applyToolheadOffsets,0
;   gcodeXoffset,0
;   gcodeYoffset,0
;   gcodeZoffset,0
;   overrideMachineDefinition,1
;   machineTypeOverride,1
;   strokeXoverride,197
;   strokeYoverride,197
;   strokeZoverride,375
;   originOffsetXoverride,98.5
;   originOffsetYoverride,98.5
;   originOffsetZoverride,0
;   homeXdirOverride,0
;   homeYdirOverride,0
;   homeZdirOverride,1
;   flipXoverride,1
;   flipYoverride,-1
;   flipZoverride,1
;   toolheadOffsets,0,0|0,0|0,0|0,0|0,0|0,0
;   overrideFirmwareConfiguration,1
;   firmwareTypeOverride,RepRap (Marlin/Repetier/Sprinter)
;   GPXconfigOverride,r2
;   baudRateOverride,115200
;   overridePrinterModels,1
;   printerModelsOverride
;   startingGcode,G28 ; home all axes
;   layerChangeGcode,
;   retractionGcode,
;   toolChangeGcode,
;   endingGcode,M104 S0 ; turn off extruder,M140 S0 ; turn off bed,G28 ; home axes,M84 ; disable motors
;   exportFileFormat,gcode
;   celebration,0
;   celebrationSong,Random Song
;   postProcessing,
;   defaultSpeed,4500
;   outlineUnderspeed,0.5
;   solidInfillUnderspeed,0.8
;   supportUnderspeed,0.8
;   rapidXYspeed,12000
;   rapidZspeed,1200
;   minBridgingArea,50
;   bridgingExtraInflation,0
;   bridgingExtrusionMultiplier,0.95
;   bridgingSpeedMultiplier,0.7
;   filamentDiameter,1.75
;   filamentPricePerKg,22
;   filamentDensity,1.25
;   useMinPrintHeight,0
;   minPrintHeight,0.05
;   useMaxPrintHeight,0
;   maxPrintHeight,0
;   useDiaphragm,0
;   diaphragmLayerInterval,20
;   robustSlicing,1
;   mergeAllIntoSolid,0
;   onlyRetractWhenCrossingOutline,1
;   retractBetweenLayers,0
;   useRetractionMinTravel,0
;   retractionMinTravel,3
;   retractWhileWiping,1
;   onlyWipeOutlines,1
;   avoidCrossingOutline,1
;   maxMovementDetourFactor,2
;   toolChangeRetractionDistance,12
;   toolChangeExtraRestartDistance,-0.5
;   toolChangeRetractionSpeed,600
;   allowThinWallGapFill,1
;   thinWallAllowedOverlapPercentage,10
;   horizontalSizeCompensation,0
G90
M82
M106 S0
M140 S60
M190 S60
M104 S205 T0
M109 S205 T0
G28 ; home all axes
G92 E0
G1 E-7.0000 F1500
G1 Z0.060 F1200
; layer 1, Z = 0.06
T0
; tool H0.200 W0.768
; skirt
G1 X0.007 Y34.195 F12000
G1 E0.0000 F450
G92 E0
G1 X-1.306 Y35.232 E0.1175 F1800
G1 X-1.435 Y35.322 E0.1286
G1 X-2.696 Y36.073 E0.2317
G1 X-2.836 Y36.145 E0.2427
G1 X-7.092 Y37.979 E0.5683
G1 X-7.240 Y38.031 E0.5793
G1 X-8.653 Y38.431 E0.6824
G1 X-8.807 Y38.464 E0.6935
G1 X-13.393 Y39.134 E1.0190
G1 X-13.549 Y39.146 E1.0301
G1 X-15.017 Y39.167 E1.1332
G1 X-15.174 Y39.159 E1.1442
G1 X-19.777 Y38.619 E1.4698
G1 X-19.931 Y38.590 E1.4808
G1 X-21.355 Y38.230 E1.5839
G1 X-21.504 Y38.182 E1.5950
G1 X-25.811 Y36.469 E1.9205
G1 X-25.952 Y36.401 E1.9316
G1 X-27.234 Y35.685 E2.0347
G1 X-27.366 Y35.600 E2.0457
G1 X-31.082 Y32.830 E2.3713
G1 X-31.202 Y32.728 E2.3823
G1 X-32.254 Y31.705 E2.4855
G1 X-32.359 Y31.589 E2.4965
G1 X-35.232 Y27.952 E2.8220
G1 X-35.322 Y27.822 E2.8331
G1 X-36.073 Y26.562 E2.9362
G1 X-36.145 Y26.422 E2.9472
G1 X-37.979 Y22.165 E3.2728
G1 X-38.031 Y22.017 E3.2838
G1 X-38.431 Y20.605 E3.3870
G1 X-38.464 Y20.451 E3.3980
G1 X-39.134 Y15.865 E3.7236
G1 X-39.146 Y15.708 E3.7346
G1 X-39.167 Y14.241 E3.8377
G1 X-39.159 Y14.084 E3.8488
G1 X-38.619 Y9.481 E4.1743
G1 X-38.590 Y9.326 E4.1853
G1 X-38.230 Y7.903 E4.2885
G1 X-38.182 Y7.753 E4.2995
G1 X-36.469 Y3.447 E4.6251
G1 X-36.401 Y3.305 E4.6361
G1 X-35.685 Y2.024 E4.7392
G1 X-35.600 Y1.892 E4.7503
G1 X-34.195 Y0.007 E4.9154
G1 X-35.232 Y-1.306 E5.0329
G1 X-35.322 Y-1.435 E5.0439
G1 X-36.073 Y-2.696 E5.1471
G1 X-36.145 Y-2.836 E5.1581
G1 X-37.979 Y-7.092 E5.4836
G1 X-38.031 Y-7.240 E5.4947
G1 X-38.431 Y-8.653 E5.5978
G1 X-38.464 Y-8.807 E5.6088
G1 X-39.134 Y-13.393 E5.9344
G1 X-39.146 Y-13.549 E5.9454
G1 X-39.167 Y-15.017 E6.0486
G1 X-39.159 Y-15.174 E6.0596
G1 X-38.619 Y-19.777 E6.3852
G1 X-38.590 Y-19.931 E6.3962
G1 X-38.230 Y-21.355 E6.4993
G1 X-38.182 Y-21.504 E6.5104
G1 X-36.469 Y-25.811 E6.8359
G1 X-36.401 Y-25.952 E6.8469
G1 X-35.685 Y-27.234 E6.9501
G1 X-35.600 Y-27.366 E6.9611
G1 X-32.830 Y-31.082 E7.2867
G1 X-32.728 Y-31.202 E7.2977
G1 X-31.705 Y-32.254 E7.4008
G1 X-31.589 Y-32.360 E7.4119
G1 X-27.952 Y-35.232 E7.7374
G1 X-27.822 Y-35.322 E7.7485
G1 X-26.562 Y-36.073 E7.8516
G1 X-26.422 Y-36.145 E7.8626
G1 X-22.165 Y-37.979 E8.1882
G1 X-22.017 Y-38.031 E8.1992
G1 X-20.605 Y-38.431 E8.3023
G1 X-20.451 Y-38.464 E8.3134
G1 X-15.865 Y-39.134 E8.6389
G1 X-15.708 Y-39.146 E8.6500
G1 X-14.241 Y-39.167 E8.7531
G1 X-14.084 Y-39.159 E8.7641
G1 X-9.481 Y-38.619 E9.0897
G1 X-9.326 Y-38.590 E9.1007
G1 X-7.903 Y-38.230 E9.2038
G1 X-7.753 Y-38.182 E9.2149
G1 X-3.447 Y-36.469 E9.5404
G1 X-3.305 Y-36.401 E9.5515
G1 X-2.024 Y-35.685 E9.6546
G1 X-1.892 Y-35.600 E9.6656
G1 X-0.007 Y-34.195 E9.8307
G1 X1.306 Y-35.232 E9.9483
G1 X1.435 Y-35.322 E9.9593
G1 X2.696 Y-36.073 E10.0624
G1 X2.836 Y-36.145 E10.0735
G1 X7.092 Y-37.979 E10.3990
G1 X7.240 Y-38.031 E10.4101
G1 X8.653 Y-38.431 E10.5132
G1 X8.807 Y-38.464 E10.5242
G1 X13.393 Y-39.134 E10.8498
G1 X13.549 Y-39.146 E10.8608
G1 X15.017 Y-39.167 E10.9639
G1 X15.174 Y-39.159 E10.9750
G1 X19.777 Y-38.619 E11.3005
G1 X19.931 Y-38.590 E11.3116
G1 X21.355 Y-38.230 E11.4147
G1 X21.504 Y-38.182 E11.4257
G1 X25.811 Y-36.469 E11.7513
G1 X25.952 Y-36.401 E11.7623
G1 X27.234 Y-35.685 E11.8654
G1 X27.366 Y-35.600 E11.8765
G1 X31.082 Y-32.830 E12.2020
G1 X31.202 Y-32.728 E12.2131
G1 X32.254 Y-31.705 E12.3162
G1 X32.360 Y-31.589 E12.3272
G1 X35.232 Y-27.952 E12.6528
G1 X35.322 Y-27.822 E12.6638
G1 X36.073 Y-26.562 E12.7669
G1 X36.145 Y-26.422 E12.7780
G1 X37.979 Y-22.165 E13.1035
G1 X38.031 Y-22.017 E13.1146
G1 X38.431 Y-20.605 E13.2177
G1 X38.464 Y-20.451 E13.2287
G1 X39.134 Y-15.865 E13.5543
G1 X39.146 Y-15.708 E13.5653
G1 X39.167 Y-14.241 E13.6685
G1 X39.159 Y-14.084 E13.6795
G1 X38.619 Y-9.481 E14.0050
G1 X38.590 Y-9.326 E14.0161
G1 X38.230 Y-7.903 E14.1192
G1 X38.182 Y-7.753 E14.1302
G1 X36.469 Y-3.447 E14.4558
G1 X36.401 Y-3.305 E14.4668
G1 X35.685 Y-2.024 E14.5700
G1 X35.600 Y-1.892 E14.5810
G1 X34.195 Y-0.007 E14.7461
G1 X35.232 Y1.306 E14.8636
G1 X35.322 Y1.435 E14.8747
G1 X36.073 Y2.696 E14.9778
G1 X36.145 Y2.836 E14.9888
G1 X37.979 Y7.092 E15.3144
G1 X38.031 Y7.240 E15.3254
G1 X38.431 Y8.653 E15.4285
G1 X38.464 Y8.807 E15.4396
G1 X39.134 Y13.393 E15.7651
G1 X39.146 Y13.549 E15.7762
G1 X39.167 Y15.017 E15.8793
G1 X39.159 Y15.174 E15.8903
G1 X38.618 Y19.777 E16.2159
G1 X38.590 Y19.931 E16.2269
G1 X38.230 Y21.355 E16.3301
G1 X38.182 Y21.504 E16.3411
G1 X36.469 Y25.811 E16.6666
G1 X36.401 Y25.952 E16.6777
G1 X35.685 Y27.234 E16.7808
G1 X35.600 Y27.366 E16.7918
G1 X32.830 Y31.082 E17.1174
G1 X32.728 Y31.202 E17.1284
G1 X31.705 Y32.254 E17.2316
G1 X31.589 Y32.359 E17.2426
G1 X27.952 Y35.232 E17.5682
G1 X27.822 Y35.322 E17.5792
G1 X26.562 Y36.073 E17.6823
G1 X26.422 Y36.145 E17.6934
G1 X22.165 Y37.979 E18.0189
G1 X22.017 Y38.031 E18.0299
G1 X20.605 Y38.431 E18.1331
G1 X20.451 Y38.464 E18.1441
G1 X15.865 Y39.134 E18.4697
G1 X15.708 Y39.146 E18.4807
G1 X14.241 Y39.167 E18.5838
G1 X14.084 Y39.159 E18.5949
G1 X9.481 Y38.619 E18.9204
G1 X9.326 Y38.590 E18.9315
G1 X7.903 Y38.230 E19.0346
G1 X7.753 Y38.182 E19.0456
G1 X3.447 Y36.469 E19.3712
G1 X3.305 Y36.401 E19.3822
G1 X2.024 Y35.685 E19.4853
G1 X1.892 Y35.600 E19.4964
G1 X0.809 Y34.793 E19.5912
G1 X0.007 Y34.195 F1800
G1 X-0.010 Y32.985 F12000
G92 E0
G1 X-1.876 Y34.460 E0.1671 F1800
G1 X-1.954 Y34.513 E0.1737
G1 X-3.161 Y35.233 E0.2724
G1 X-3.245 Y35.276 E0.2790
G1 X-7.443 Y37.084 E0.6002
G1 X-7.532 Y37.116 E0.6068
G1 X-8.884 Y37.499 E0.7055
G1 X-8.976 Y37.519 E0.7121
G1 X-13.500 Y38.179 E1.0332
G1 X-13.594 Y38.187 E1.0399
G1 X-14.999 Y38.206 E1.1386
G1 X-15.093 Y38.202 E1.1452
G1 X-19.634 Y37.669 E1.4663
G1 X-19.727 Y37.652 E1.4730
G1 X-21.089 Y37.307 E1.5717
G1 X-21.179 Y37.278 E1.5783
G1 X-25.426 Y35.588 E1.8994
G1 X-25.512 Y35.548 E1.9061
G1 X-26.738 Y34.862 E2.0048
G1 X-26.817 Y34.811 E2.0114
G1 X-30.483 Y32.079 E2.3325
G1 X-30.555 Y32.018 E2.3392
G1 X-31.563 Y31.039 E2.4379
G1 X-31.626 Y30.969 E2.4445
G1 X-34.460 Y27.381 E2.7656
G1 X-34.513 Y27.304 E2.7722
G1 X-35.233 Y26.097 E2.8710
G1 X-35.276 Y26.013 E2.8776
G1 X-37.084 Y21.814 E3.1987
G1 X-37.116 Y21.725 E3.2053
G1 X-37.499 Y20.373 E3.3040
G1 X-37.519 Y20.281 E3.3107
G1 X-38.179 Y15.757 E3.6318
G1 X-38.187 Y15.663 E3.6384
G1 X-38.206 Y14.258 E3.7371
G1 X-38.202 Y14.164 E3.7438
G1 X-37.669 Y9.624 E4.0649
G1 X-37.652 Y9.531 E4.0715
G1 X-37.307 Y8.169 E4.1702
G1 X-37.278 Y8.079 E4.1769
G1 X-35.588 Y3.831 E4.4980
G1 X-35.548 Y3.746 E4.5046
G1 X-34.862 Y2.519 E4.6033
G1 X-34.811 Y2.440 E4.6099
G1 X-32.985 Y-0.010 E4.8246
G1 X-34.460 Y-1.876 E4.9917
G1 X-34.513 Y-1.954 E4.9983
G1 X-35.233 Y-3.161 E5.0970
G1 X-35.276 Y-3.245 E5.1036
G1 X-37.084 Y-7.443 E5.4247
G1 X-37.116 Y-7.532 E5.4314
G1 X-37.499 Y-8.884 E5.5301
G1 X-37.519 Y-8.976 E5.5367
G1 X-38.179 Y-13.500 E5.8578
G1 X-38.187 Y-13.594 E5.8645
G1 X-38.206 Y-14.999 E5.9632
G1 X-38.202 Y-15.093 E5.9698
G1 X-37.669 Y-19.634 E6.2909
G1 X-37.652 Y-19.727 E6.2976
G1 X-37.307 Y-21.089 E6.3963
G1 X-37.278 Y-21.179 E6.4029
G1 X-35.588 Y-25.426 E6.7240
G1 X-35.548 Y-25.512 E6.7306
G1 X-34.862 Y-26.738 E6.8294
G1 X-34.811 Y-26.817 E6.8360
G1 X-32.079 Y-30.483 E7.1571
G1 X-32.018 Y-30.555 E7.1637
G1 X-31.039 Y-31.563 E7.2624
G1 X-30.969 Y-31.626 E7.2691
G1 X-27.381 Y-34.460 E7.5902
G1 X-27.304 Y-34.513 E7.5968
G1 X-26.097 Y-35.233 E7.6955
G1 X-26.013 Y-35.276 E7.7022
G1 X-21.814 Y-37.084 E8.0233
G1 X-21.725 Y-37.116 E8.0299
G1 X-20.373 Y-37.499 E8.1286
G1 X-20.281 Y-37.519 E8.1353
G1 X-15.757 Y-38.179 E8.4564
G1 X-15.663 Y-38.187 E8.4630
G1 X-14.258 Y-38.206 E8.5617
G1 X-14.164 Y-38.202 E8.5683
G1 X-9.624 Y-37.669 E8.8895
G1 X-9.531 Y-37.652 E8.8961
G1 X-8.169 Y-37.307 E8.9948
G1 X-8.079 Y-37.278 E9.0014
G1 X-3.831 Y-35.588 E9.3226
G1 X-3.746 Y-35.548 E9.3292
G1 X-2.519 Y-34.862 E9.4279
G1 X-2.440 Y-34.811 E9.4345
G1 X0.010 Y-32.985 E9.6492
G1 X1.876 Y-34.460 E9.8162
G1 X1.954 Y-34.513 E9.8229
G1 X3.161 Y-35.233 E9.9216
G1 X3.245 Y-35.276 E9.9282
G1 X7.443 Y-37.084 E10.2493
G1 X7.532 Y-37.116 E10.2560
G1 X8.884 Y-37.499 E10.3547
G1 X8.976 Y-37.519 E10.3613
G1 X13.500 Y-38.179 E10.6824
G1 X13.594 Y-38.187 E10.6890
G1 X14.999 Y-38.206 E10.7878
G1 X15.093 Y-38.202 E10.7944
G1 X19.634 Y-37.669 E11.1155
G1 X19.727 Y-37.652 E11.1221
G1 X21.089 Y-37.307 E11.2208
G1 X21.179 Y-37.278 E11.2275
G1 X25.426 Y-35.588 E11.5486
G1 X25.512 Y-35.548 E11.5552
G1 X26.738 Y-34.862 E11.6539
G1 X26.817 Y-34.811 E11.6606
G1 X30.483 Y-32.079 E11.9817
G1 X30.555 Y-32.018 E11.9883
G1 X31.563 Y-31.039 E12.0870
G1 X31.626 Y-30.969 E12.0937
G1 X34.460 Y-27.381 E12.4148
G1 X34.513 Y-27.304 E12.4214
G1 X35.233 Y-26.097 E12.5201
G1 X35.276 Y-26.013 E12.5267
G1 X37.084 Y-21.814 E12.8479
G1 X37.116 Y-21.725 E12.8545
G1 X37.499 Y-20.373 E12.9532
G1 X37.519 Y-20.281 E12.9598
G1 X38.179 Y-15.757 E13.2810
G1 X38.187 Y-15.663 E13.2876
G1 X38.206 Y-14.258 E13.3863
G1 X38.202 Y-14.164 E13.3929
G1 X37.669 Y-9.624 E13.7141
G1 X37.652 Y-9.531 E13.7207
G1 X37.307 Y-8.169 E13.8194
G1 X37.278 Y-8.079 E13.8260
G1 X35.588 Y-3.831 E14.1472
G1 X35.548 Y-3.746 E14.1538
G1 X34.862 Y-2.519 E14.2525
G1 X34.811 Y-2.440 E14.2591
G1 X32.985 Y0.010 E14.4738
G1 X34.460 Y1.876 E14.6408
G1 X34.513 Y1.954 E14.6475
G1 X35.233 Y3.161 E14.7462
G1 X35.276 Y3.245 E14.7528
G1 X37.084 Y7.443 E15.0739
G1 X37.116 Y7.532 E15.0805
G1 X37.499 Y8.884 E15.1792
G1 X37.519 Y8.976 E15.1859
G1 X38.179 Y13.500 E15.5070
G1 X38.187 Y13.594 E15.5136
G1 X38.206 Y14.999 E15.6123
G1 X38.202 Y15.093 E15.6190
G1 X37.669 Y19.634 E15.9401
G1 X37.652 Y19.727 E15.9467
G1 X37.307 Y21.089 E16.0454
G1 X37.278 Y21.179 E16.0521
G1 X35.588 Y25.426 E16.3732
G1 X35.548 Y25.512 E16.3798
G1 X34.862 Y26.738 E16.4785
G1 X34.811 Y26.817 E16.4852
G1 X32.079 Y30.483 E16.8063
G1 X32.018 Y30.555 E16.8129
G1 X31.039 Y31.563 E16.9116
G1 X30.969 Y31.626 E16.9182
G1 X27.381 Y34.460 E17.2394
G1 X27.304 Y34.513 E17.2460
G1 X26.097 Y35.233 E17.3447
G1 X26.013 Y35.276 E17.3513
G1 X21.814 Y37.084 E17.6725
G1 X21.725 Y37.116 E17.6791
G1 X20.373 Y37.499 E17.7778
G1 X20.281 Y37.519 E17.7844
G1 X15.757 Y38.179 E18.1056
G1 X15.663 Y38.187 E18.1122
G1 X14.258 Y38.206 E18.2109
G1 X14.164 Y38.202 E18.2175
G1 X9.624 Y37.669 E18.5387
G1 X9.531 Y37.652 E18.5453
G1 X8.169 Y37.307 E18.6440
G1 X8.079 Y37.278 E18.6506
G1 X3.831 Y35.588 E18.9718
G1 X3.746 Y35.548 E18.9784
G1 X2.519 Y34.862 E19.0771
G1 X2.440 Y34.811 E19.0837
G1 X0.792 Y33.583 E19.2281
G1 X-0.010 Y32.985 F1800
G1 X-0.027 Y31.775 F12000
G92 E0
G1 X-2.447 Y33.687 E0.2166 F1800
G1 X-2.473 Y33.705 E0.2188
G1 X-3.625 Y34.392 E0.3131
G1 X-3.653 Y34.406 E0.3153
G1 X-7.794 Y36.190 E0.6320
G1 X-7.824 Y36.201 E0.6342
G1 X-9.115 Y36.567 E0.7285
G1 X-9.146 Y36.573 E0.7307
G1 X-13.608 Y37.225 E1.0475
G1 X-13.639 Y37.227 E1.0497
G1 X-14.981 Y37.246 E1.1440
G1 X-15.013 Y37.244 E1.1462
G1 X-19.491 Y36.719 E1.4629
G1 X-19.522 Y36.713 E1.4651
G1 X-20.823 Y36.384 E1.5594
G1 X-20.853 Y36.374 E1.5616
