; G-Code generated by Simplify3D(R) Version 3.1.0
; Jul 3, 2016 at 2:00:56 AM
; Settings Summary
;   processName,Process1
;   applyToModels,stack_box,stack_box_tray
;   profileName,Rostock MAX v2 (modified)
;   profileVersion,2015-05-01 08:00:00
;   baseProfile,
;   printMaterial,PLA
;   printQuality,Medium
;   printExtruders,
;   extruderName,Primary Extruder
;   extruderToolheadNumber,0
;   extruderDiameter,0.4
;   extruderAutoWidth,1
;   extruderWidth,0.48
;   extrusionMultiplier,1
;   extruderUseRetract,1
;   extruderRetractionDistance,6
;   extruderExtraRestartDistance,0
;   extruderRetractionZLift,0.3
;   extruderRetractionSpeed,6600
;   extruderUseCoasting,0
;   extruderCoastingDistance,1
;   extruderUseWipe,1
;   extruderWipeDistance,5
;   primaryExtruder,0
;   layerHeight,0.17
;   topSolidLayers,3
;   bottomSolidLayers,3
;   perimeterOutlines,3
;   printPerimetersInsideOut,1
;   startPointOption,2
;   startPointOriginX,0
;   startPointOriginY,0
;   startPointOriginZ,300
;   sequentialIslands,0
;   spiralVaseMode,0
;   firstLayerHeightPercentage,90
;   firstLayerWidthPercentage,125
;   firstLayerUnderspeed,0.4
;   useRaft,0
;   raftExtruder,0
;   raftLayers,3
;   raftOffset,3
;   raftSeparationDistance,0.14
;   raftInfill,85
;   disableRaftBaseLayers,0
;   useSkirt,1
;   skirtExtruder,0
;   skirtLayers,1
;   skirtOutlines,2
;   skirtOffset,4
;   usePrimePillar,0
;   primePillarExtruder,999
;   primePillarWidth,12
;   primePillarLocation,7
;   primePillarSpeedMultiplier,1
;   useOozeShield,0
;   oozeShieldExtruder,999
;   oozeShieldOffset,2
;   oozeShieldOutlines,1
;   oozeShieldSidewallShape,1
;   oozeShieldSidewallAngle,30
;   oozeShieldSpeedMultiplier,1
;   infillExtruder,0
;   internalInfillPattern,Rectilinear
;   externalInfillPattern,Rectilinear
;   infillPercentage,25
;   outlineOverlapPercentage,15
;   infillExtrusionWidthPercentage,150
;   minInfillLength,5
;   infillLayerInterval,1
;   infillAngles,45,-45
;   overlapInfillAngles,0
;   generateSupport,0
;   supportExtruder,0
;   supportInfillPercentage,30
;   supportExtraInflation,0
;   denseSupportLayers,0
;   denseSupportInfillPercentage,70
;   supportLayerInterval,1
;   supportHorizontalPartOffset,0.3
;   supportUpperSeparationLayers,1
;   supportLowerSeparationLayers,1
;   supportType,0
;   supportGridSpacing,4
;   maxOverhangAngle,45
;   supportAngles,0
;   temperatureName,Primary Extruder,Heated Bed
;   temperatureNumber,0,1
;   temperatureSetpointCount,1,1
;   temperatureSetpointLayers,1,1
;   temperatureSetpointTemperatures,205,60
;   temperatureStabilizeAtStartup,1,1
;   temperatureHeatedBed,0,1
;   temperatureRelayBetweenLayers,0,0
;   temperatureRelayBetweenLoops,0,0
;   fanLayers,1,2
;   fanSpeeds,0,100
;   blipFanToFullPower,1
;   adjustSpeedForCooling,1
;   minSpeedLayerTime,15
;   minCoolingSpeedSlowdown,20
;   increaseFanForCooling,0
;   minFanLayerTime,60
;   maxCoolingFanSpeed,100
;   increaseFanForBridging,0
;   bridgingFanSpeed,100
;   use5D,1
;   relativeEdistances,0
;   allowEaxisZeroing,1
;   independentExtruderAxes,0
;   includeM10123,0
;   stickySupport,1
;   applyToolheadOffsets,0
;   gcodeXoffset,0
;   gcodeYoffset,0
;   gcodeZoffset,0
;   overrideMachineDefinition,1
;   machineTypeOverride,1
;   strokeXoverride,197
;   strokeYoverride,197
;   strokeZoverride,375
;   originOffsetXoverride,98.5
;   originOffsetYoverride,98.5
;   originOffsetZoverride,0
;   homeXdirOverride,0
;   homeYdirOverride,0
;   homeZdirOverride,1
;   flipXoverride,1
;   flipYoverride,-1
;   flipZoverride,1
;   toolheadOffsets,0,0|0,0|0,0|0,0|0,0|0,0
;   overrideFirmwareConfiguration,1
;   firmwareTypeOverride,RepRap (Marlin/Repetier/Sprinter)
;   GPXconfigOverride,r2
;   baudRateOverride,115200
;   overridePrinterModels,1
;   printerModelsOverride
;   startingGcode,G28 ; home all axes
;   layerChangeGcode,
;   retractionGcode,
;   toolChangeGcode,
;   endingGcode,M104 S0 ; turn off extruder,M140 S0 ; turn off bed,G28 ; home axes,M84 ; disable motors
;   exportFileFormat,gcode
;   celebration,0
;   celebrationSong,Random Song
;   postProcessing,
;   defaultSpeed,3000
;   outlineUnderspeed,0.5
;   solidInfillUnderspeed,0.8
;   supportUnderspeed,0.8
;   rapidXYspeed,9000
;   rapidZspeed,1200
;   minBridgingArea,50
;   bridgingExtraInflation,0
;   bridgingExtrusionMultiplier,0.95
;   bridgingSpeedMultiplier,0.7
;   filamentDiameter,1.7
;   filamentPricePerKg,33.98
;   filamentDensity,1.25
;   useMinPrintHeight,0
;   minPrintHeight,0
;   useMaxPrintHeight,0
;   maxPrintHeight,0
;   useDiaphragm,0
;   diaphragmLayerInterval,20
;   robustSlicing,1
;   mergeAllIntoSolid,0
;   onlyRetractWhenCrossingOutline,1
;   retractBetweenLayers,1
;   useRetractionMinTravel,0
;   retractionMinTravel,3
;   retractWhileWiping,0
;   onlyWipeOutlines,1
;   avoidCrossingOutline,0
;   maxMovementDetourFactor,1
;   toolChangeRetractionDistance,12
;   toolChangeExtraRestartDistance,-0.5
;   toolChangeRetractionSpeed,600
;   allowThinWallGapFill,0
;   thinWallAllowedOverlapPercentage,10
;   horizontalSizeCompensation,0
G90
M82
M106 S0
M140 S60
M190 S60
M104 S205 T0
M109 S205 T0
G28 ; home all axes
G92 E0
G1 E-6.0000 F6600
G1 Z0.453 F1200
; layer 1, Z = 0.153
T0
; tool H0.170 W0.600
; skirt
G1 X-49.449 Y1.480 F9000
G1 Z0.153 F1200
G1 E0.0000 F1980
G92 E0
G1 X-49.523 Y1.300 E0.0088 F1200
G1 X-49.523 Y-82.300 E3.7656
G1 X-49.414 Y-82.565 E3.7784
G1 X-46.868 Y-85.110 E3.9402
G1 X-46.603 Y-85.220 E3.9531
G1 X-26.883 Y-85.220 E4.8393
G1 X-26.744 Y-85.192 E4.8456
G1 X-25.143 Y-84.529 E4.9235
G1 X-25.025 Y-84.450 E4.9299
G1 X-22.795 Y-82.220 E5.0716
G1 X23.295 Y-82.220 E7.1428
G1 X25.525 Y-84.450 E7.2846
G1 X25.643 Y-84.529 E7.2909
G1 X27.245 Y-85.192 E7.3688
G1 X27.384 Y-85.220 E7.3752
G1 X57.050 Y-85.220 E8.7083
G1 X57.315 Y-85.110 E8.7212
G1 X59.861 Y-82.565 E8.8830
G1 X59.970 Y-82.300 E8.8959
G1 X59.970 Y-57.633 E10.0043
G1 X59.943 Y-57.494 E10.0107
G1 X59.279 Y-55.893 E10.0886
G1 X59.201 Y-55.775 E10.0950
G1 X56.970 Y-53.545 E10.2367
G1 X56.970 Y-27.455 E11.4091
G1 X59.201 Y-25.225 E11.5509
G1 X59.279 Y-25.107 E11.5572
G1 X59.943 Y-23.506 E11.6351
G1 X59.970 Y-23.367 E11.6415
G1 X59.970 Y1.300 E12.7500
G1 X59.861 Y1.565 E12.7628
G1 X57.315 Y4.110 E12.9246
G1 X57.050 Y4.220 E12.9375
G1 X51.175 Y4.220 E13.2015
G1 X51.249 Y4.400 E13.2103
G1 X51.249 Y26.238 E14.1916
G1 X51.221 Y26.377 E14.1980
G1 X50.558 Y27.978 E14.2759
G1 X50.479 Y28.096 E14.2823
G1 X48.249 Y30.327 E14.4240
G1 X48.249 Y58.073 E15.6709
G1 X50.479 Y60.304 E15.8126
G1 X50.558 Y60.422 E15.8190
G1 X51.221 Y62.023 E15.8969
G1 X51.249 Y62.162 E15.9033
G1 X51.249 Y84.000 E16.8846
G1 X51.140 Y84.265 E16.8975
G1 X48.594 Y86.810 E17.0593
G1 X48.329 Y86.920 E17.0721
G1 X21.491 Y86.920 E18.2782
G1 X21.352 Y86.892 E18.2846
G1 X19.751 Y86.229 E18.3625
G1 X19.633 Y86.150 E18.3688
G1 X17.402 Y83.920 E18.5106
G1 X-30.344 Y83.920 E20.6562
G1 X-32.574 Y86.150 E20.7979
G1 X-32.692 Y86.229 E20.8043
G1 X-34.294 Y86.892 E20.8822
G1 X-34.433 Y86.920 E20.8886
G1 X-51.804 Y86.920 E21.6692
G1 X-52.069 Y86.810 E21.6821
G1 X-54.614 Y84.265 E21.8438
G1 X-54.724 Y84.000 E21.8567
G1 X-54.724 Y4.400 E25.4338
G1 X-54.614 Y4.135 E25.4467
G1 X-52.069 Y1.590 E25.6084
G1 X-51.804 Y1.480 E25.6213
G1 X-49.449 Y1.480 E25.7271
G1 X-49.007 Y1.293 F9000
G92 E0
G1 X-49.043 Y1.205 E0.0043 F1200
G1 X-49.043 Y-82.205 E3.7525
G1 X-49.007 Y-82.293 E3.7568
G1 X-46.596 Y-84.703 E3.9100
G1 X-46.508 Y-84.740 E3.9143
G1 X-26.930 Y-84.740 E4.7941
G1 X-26.884 Y-84.731 E4.7962
G1 X-25.370 Y-84.104 E4.8698
G1 X-25.331 Y-84.077 E4.8720
G1 X-22.993 Y-81.740 E5.0205
G1 X23.494 Y-81.740 E7.1096
G1 X25.831 Y-84.077 E7.2581
G1 X25.871 Y-84.104 E7.2602
G1 X27.385 Y-84.731 E7.3339
G1 X27.431 Y-84.740 E7.3360
G1 X56.955 Y-84.740 E8.6627
G1 X57.043 Y-84.703 E8.6670
G1 X59.454 Y-82.293 E8.8202
G1 X59.490 Y-82.205 E8.8245
G1 X59.490 Y-57.681 E9.9266
G1 X59.481 Y-57.634 E9.9287
G1 X58.854 Y-56.120 E10.0023
G1 X58.828 Y-56.081 E10.0044
G1 X56.490 Y-53.744 E10.1530
G1 X56.490 Y-27.256 E11.3433
G1 X58.828 Y-24.919 E11.4918
G1 X58.854 Y-24.880 E11.4940
G1 X59.481 Y-23.366 E11.5676
G1 X59.490 Y-23.319 E11.5697
G1 X59.490 Y1.205 E12.6718
G1 X59.454 Y1.293 E12.6761
G1 X57.043 Y3.703 E12.8293
G1 X56.955 Y3.740 E12.8335
G1 X50.065 Y3.740 E13.1431
G1 X50.733 Y4.407 E13.1855
G1 X50.769 Y4.495 E13.1898
G1 X50.769 Y26.191 E14.1648
G1 X50.760 Y26.237 E14.1669
G1 X50.133 Y27.751 E14.2405
G1 X50.107 Y27.790 E14.2427
G1 X47.769 Y30.128 E14.3912
G1 X47.769 Y58.272 E15.6560
G1 X50.107 Y60.610 E15.8045
G1 X50.133 Y60.649 E15.8066
G1 X50.760 Y62.163 E15.8803
G1 X50.769 Y62.209 E15.8824
G1 X50.769 Y83.905 E16.8573
G1 X50.733 Y83.993 E16.8616
G1 X48.322 Y86.403 E17.0148
G1 X48.234 Y86.440 E17.0191
G1 X21.538 Y86.440 E18.2188
G1 X21.492 Y86.431 E18.2209
G1 X19.978 Y85.804 E18.2945
G1 X19.939 Y85.777 E18.2966
G1 X17.601 Y83.440 E18.4452
G1 X-30.543 Y83.440 E20.6087
G1 X-32.880 Y85.777 E20.7572
G1 X-32.920 Y85.804 E20.7594
G1 X-34.434 Y86.431 E20.8330
G1 X-34.480 Y86.440 E20.8351
G1 X-51.708 Y86.440 E21.6093
G1 X-51.797 Y86.403 E21.6136
G1 X-54.207 Y83.993 E21.7668
G1 X-54.244 Y83.905 E21.7711
G1 X-54.244 Y4.495 E25.3396
G1 X-54.207 Y4.407 E25.3439
G1 X-51.797 Y1.997 E25.4971
G1 X-51.708 Y1.960 E25.5014
G1 X-48.340 Y1.960 E25.6528
G1 X-49.007 Y1.293 E25.6952
G92 E0
G1 E-6.0000 F6600
G1 Z0.453 F1200
; inner perimeter
G1 X-43.303 Y-2.000 F9000
G1 Z0.153 F1200
G1 E0.0000 F6600
G92 E0
G1 X-43.303 Y-79.000 E3.4602 F1000
G1 X-28.371 Y-79.000 E4.1312
G1 X-25.371 Y-76.000 E4.3219
G1 X25.872 Y-76.000 E6.6246
G1 X28.872 Y-79.000 E6.8153
G1 X53.750 Y-79.000 E7.9333
G1 X53.750 Y-59.121 E8.8266
G1 X50.750 Y-56.121 E9.0172
G1 X50.750 Y-24.879 E10.4212
G1 X53.750 Y-21.879 E10.6119
G1 X53.750 Y-2.000 E11.5052
G1 X28.872 Y-2.000 E12.6232
G1 X25.872 Y-5.000 E12.8138
G1 X-25.371 Y-5.000 E15.1166
G1 X-28.371 Y-2.000 E15.3072
G1 X-43.303 Y-2.000 E15.9782
; inner perimeter
G1 X-43.903 Y-1.400 F9000
G92 E0
G1 X-43.903 Y-79.600 E3.5141 F800
G1 X-28.123 Y-79.600 E4.2233
G1 X-25.123 Y-76.600 E4.4140
G1 X25.623 Y-76.600 E6.6943
G1 X28.623 Y-79.600 E6.8850
G1 X54.350 Y-79.600 E8.0411
G1 X54.350 Y-58.873 E8.9726
G1 X51.350 Y-55.873 E9.1632
G1 X51.350 Y-25.127 E10.5449
G1 X54.350 Y-22.127 E10.7355
G1 X54.350 Y-1.400 E11.6670
G1 X28.623 Y-1.400 E12.8231
G1 X25.623 Y-4.400 E13.0137
G1 X-25.123 Y-4.400 E15.2941
G1 X-28.123 Y-1.400 E15.4848
G1 X-43.903 Y-1.400 E16.1939
; outer perimeter
G1 X-44.503 Y-0.800 F9000
G92 E0
G1 X-44.503 Y-80.200 E3.5681 F600
G1 X-27.874 Y-80.200 E4.3154
G1 X-24.874 Y-77.200 E4.5060
G1 X25.375 Y-77.200 E6.7641
G1 X28.375 Y-80.200 E6.9547
G1 X54.950 Y-80.200 E8.1490
G1 X54.950 Y-58.624 E9.1185
G1 X51.950 Y-55.624 E9.3092
G1 X51.950 Y-25.376 E10.6685
G1 X54.950 Y-22.376 E10.8592
G1 X54.950 Y-0.800 E11.8287
G1 X28.375 Y-0.800 E13.0230
G1 X25.375 Y-3.800 E13.2136
G1 X-24.874 Y-3.800 E15.4717
G1 X-27.874 Y-0.800 E15.6624
G1 X-44.503 Y-0.800 E16.4096
G1 X-44.503 Y-5.800 F3000
; solid layer
G1 X-42.391 Y-2.510 F9000
G92 E0
G1 X-42.793 Y-2.912 E0.0256 F960
G1 X-42.793 Y-3.761 E0.0637
G1 X-41.542 Y-2.510 E0.1432
G1 X-40.694 Y-2.510 E0.1813
G1 X-42.793 Y-4.610 E0.3148
G1 X-42.793 Y-5.458 E0.3529
G1 X-39.845 Y-2.510 E0.5403
G1 X-38.997 Y-2.510 E0.5784
G1 X-42.793 Y-6.307 E0.8197
G1 X-42.793 Y-7.155 E0.8578
G1 X-38.148 Y-2.510 E1.1530
G1 X-37.300 Y-2.510 E1.1911
G1 X-42.793 Y-8.004 E1.5403
G1 X-42.793 Y-8.852 E1.5784
G1 X-36.451 Y-2.510 E1.9815
G1 X-35.603 Y-2.510 E2.0196
G1 X-42.793 Y-9.701 E2.4766
G1 X-42.793 Y-10.549 E2.5147
G1 X-34.754 Y-2.510 E3.0256
G1 X-33.906 Y-2.510 E3.0637
G1 X-42.793 Y-11.398 E3.6286
G1 X-42.793 Y-12.246 E3.6667
G1 X-33.057 Y-2.510 E4.2855
G1 X-32.208 Y-2.510 E4.3236
G1 X-42.793 Y-13.095 E4.9963
G1 X-42.793 Y-13.943 E5.0344
G1 X-31.360 Y-2.510 E5.7610
G1 X-30.511 Y-2.510 E5.7991
G1 X-42.793 Y-14.792 E6.5797
G1 X-42.793 Y-15.640 E6.6178
G1 X-29.663 Y-2.510 E7.4523
G1 X-28.814 Y-2.510 E7.4904
G1 X-42.793 Y-16.489 E8.3788
G1 X-42.793 Y-17.337 E8.4169
G1 X-28.274 Y-2.818 E9.3396
G1 X-27.850 Y-3.242 E9.3666
G1 X-42.793 Y-18.186 E10.3163
G1 X-42.793 Y-19.035 E10.3544
G1 X-27.426 Y-3.667 E11.3311
G1 X-27.001 Y-4.091 E11.3580
G1 X-42.793 Y-19.883 E12.3616
G1 X-42.793 Y-20.732 E12.3998
G1 X-26.577 Y-4.515 E13.4303
G1 X-26.153 Y-4.940 E13.4573
G1 X-42.793 Y-21.580 E14.5148
G1 X-42.793 Y-22.429 E14.5530
G1 X-25.728 Y-5.364 E15.6375
G1 X-25.582 Y-5.510 E15.6468
G1 X-25.026 Y-5.510 E15.6718
G1 X-42.793 Y-23.277 E16.8009
G1 X-42.793 Y-24.126 E16.8390
G1 X-24.178 Y-5.510 E18.0221
G1 X-23.329 Y-5.510 E18.0602
G1 X-42.793 Y-24.974 E19.2972
G1 X-42.793 Y-25.823 E19.3353
G1 X-22.481 Y-5.510 E20.6262
G1 X-21.632 Y-5.510 E20.6644
G1 X-42.793 Y-26.671 E22.0092
G1 X-42.793 Y-27.520 E22.0473
G1 X-20.783 Y-5.510 E23.4461
G1 X-19.935 Y-5.510 E23.4842
G1 X-42.793 Y-28.368 E24.9369
G1 X-42.793 Y-29.217 E24.9750
G1 X-19.086 Y-5.510 E26.4817
G1 X-18.238 Y-5.510 E26.5198
G1 X-42.793 Y-30.065 E28.0803
G1 X-42.793 Y-30.914 E28.1185
G1 X-17.389 Y-5.510 E29.7329
G1 X-16.541 Y-5.510 E29.7710
G1 X-42.793 Y-31.762 E31.4394
G1 X-42.793 Y-32.611 E31.4776
G1 X-15.692 Y-5.510 E33.1999
G1 X-14.844 Y-5.510 E33.2380
G1 X-42.793 Y-33.459 E35.0143
G1 X-42.793 Y-34.308 E35.0524
G1 X-13.995 Y-5.510 E36.8825
G1 X-13.147 Y-5.510 E36.9207
G1 X-42.793 Y-35.157 E38.8048
G1 X-42.793 Y-36.005 E38.8429
G1 X-12.298 Y-5.510 E40.7809
G1 X-11.450 Y-5.510 E40.8190
G1 X-42.793 Y-36.854 E42.8110
G1 X-42.793 Y-37.702 E42.8491
G1 X-10.601 Y-5.510 E44.8950
G1 X-9.753 Y-5.510 E44.9331
G1 X-42.793 Y-38.551 E47.0329
G1 X-42.793 Y-39.399 E47.0710
G1 X-8.904 Y-5.510 E49.2248
G1 X-8.056 Y-5.510 E49.2629
G1 X-42.793 Y-40.248 E51.4705
G1 X-42.793 Y-41.096 E51.5087
G1 X-7.207 Y-5.510 E53.7702
G1 X-6.359 Y-5.510 E53.8084
G1 X-42.793 Y-41.945 E56.1239
G1 X-42.793 Y-42.793 E56.1620
G1 X-5.510 Y-5.510 E58.5314
G1 X-4.661 Y-5.510 E58.5695
G1 X-42.793 Y-43.642 E60.9929
G1 X-42.793 Y-44.490 E61.0310
G1 X-3.813 Y-5.510 E63.5083
G1 X-2.964 Y-5.510 E63.5464
G1 X-42.793 Y-45.339 E66.0776
G1 X-42.793 Y-46.187 E66.1157
G1 X-2.116 Y-5.510 E68.7009
G1 X-1.267 Y-5.510 E68.7390
G1 X-42.793 Y-47.036 E71.3780
G1 X-42.793 Y-47.884 E71.4162
G1 X-0.419 Y-5.510 E74.1091
G1 X0.430 Y-5.510 E74.1473
G1 X-42.793 Y-48.733 E76.8942
G1 X-42.793 Y-49.582 E76.9323
G1 X1.278 Y-5.510 E79.7331
G1 X2.127 Y-5.510 E79.7712
G1 X-42.793 Y-50.430 E82.6260
G1 X-42.793 Y-51.279 E82.6641
G1 X2.975 Y-5.510 E85.5728
G1 X3.824 Y-5.510 E85.6109
G1 X-42.793 Y-52.127 E88.5735
G1 X-42.793 Y-52.976 E88.6117
G1 X4.672 Y-5.510 E91.6282
G1 X5.521 Y-5.510 E91.6663
G1 X-42.793 Y-53.824 E94.7368
G1 X-42.793 Y-54.673 E94.7749
G1 X6.369 Y-5.510 E97.8993
G1 X7.218 Y-5.510 E97.9374
G1 X-42.793 Y-55.521 E101.1157
G1 X-42.793 Y-56.370 E101.1538
G1 X8.066 Y-5.510 E104.3861
G1 X8.915 Y-5.510 E104.4242
G1 X-42.793 Y-57.218 E107.7103
G1 X-42.793 Y-58.067 E107.7485
G1 X9.764 Y-5.510 E111.0886
G1 X10.612 Y-5.510 E111.1267
G1 X-42.793 Y-58.915 E114.5207
G1 X-42.793 Y-59.764 E114.5588
G1 X11.461 Y-5.510 E118.0067
G1 X12.309 Y-5.510 E118.0449
G1 X-42.793 Y-60.612 E121.5467
G1 X-42.793 Y-61.461 E121.5849
G1 X13.158 Y-5.510 E125.1406
G1 X14.006 Y-5.510 E125.1788
G1 X-42.793 Y-62.309 E128.7885
G1 X-42.793 Y-63.158 E128.8266
G1 X14.855 Y-5.510 E132.4902
G1 X15.703 Y-5.510 E132.5284
G1 X-42.793 Y-64.007 E136.2459
G1 X-42.793 Y-64.855 E136.2840
G1 X16.552 Y-5.510 E140.0555
G1 X17.400 Y-5.510 E140.0937
G1 X-42.793 Y-65.704 E143.9191
G1 X-42.793 Y-66.552 E143.9572
G1 X18.249 Y-5.510 E147.8365
G1 X19.097 Y-5.510 E147.8747
G1 X-42.793 Y-67.401 E151.8079
G1 X-42.793 Y-68.249 E151.8460
G1 X19.946 Y-5.510 E155.8332
G1 X20.794 Y-5.510 E155.8714
G1 X-42.793 Y-69.098 E159.9125
G1 X-42.793 Y-69.946 E159.9506
G1 X21.643 Y-5.510 E164.0456
G1 X22.491 Y-5.510 E164.0838
G1 X-42.793 Y-70.795 E168.2327
G1 X-42.793 Y-71.643 E168.2709
G1 X23.340 Y-5.510 E172.4737
G1 X24.188 Y-5.510 E172.5119
G1 X-42.793 Y-72.492 E176.7687
G1 X-42.793 Y-73.340 E176.8068
G1 X25.037 Y-5.510 E181.1175
G1 X25.886 Y-5.510 E181.1557
G1 X-42.793 Y-74.189 E185.5203
G1 X-42.793 Y-75.037 E185.5585
G1 X29.734 Y-2.510 E190.1677
G1 X30.583 Y-2.510 E190.2058
