; G-Code generated by Simplify3D(R) Version 3.1.0
; Aug 15, 2016 at 9:40:49 PM
; Settings Summary
;   processName,Process1
;   applyToModels,arms,arms(2)
;   profileName,Rostock MAX v2 (modified)
;   profileVersion,2015-05-01 08:00:00
;   baseProfile,
;   printMaterial,PLA
;   printQuality,Medium
;   printExtruders,
;   extruderName,Primary Extruder
;   extruderToolheadNumber,0
;   extruderDiameter,0.4
;   extruderAutoWidth,1
;   extruderWidth,0.48
;   extrusionMultiplier,1.1
;   extruderUseRetract,1
;   extruderRetractionDistance,7
;   extruderExtraRestartDistance,0
;   extruderRetractionZLift,0.5
;   extruderRetractionSpeed,1800
;   extruderUseCoasting,1
;   extruderCoastingDistance,1
;   extruderUseWipe,1
;   extruderWipeDistance,5
;   primaryExtruder,0
;   layerHeight,0.2
;   topSolidLayers,3
;   bottomSolidLayers,3
;   perimeterOutlines,3
;   printPerimetersInsideOut,1
;   startPointOption,2
;   startPointOriginX,0
;   startPointOriginY,0
;   startPointOriginZ,300
;   sequentialIslands,0
;   spiralVaseMode,0
;   firstLayerHeightPercentage,25
;   firstLayerWidthPercentage,100
;   firstLayerUnderspeed,0.4
;   useRaft,0
;   raftExtruder,0
;   raftLayers,3
;   raftOffset,15
;   raftSeparationDistance,0.14
;   raftInfill,85
;   disableRaftBaseLayers,0
;   useSkirt,1
;   skirtExtruder,0
;   skirtLayers,1
;   skirtOutlines,3
;   skirtOffset,10
;   usePrimePillar,0
;   primePillarExtruder,999
;   primePillarWidth,12
;   primePillarLocation,7
;   primePillarSpeedMultiplier,1
;   useOozeShield,0
;   oozeShieldExtruder,999
;   oozeShieldOffset,2
;   oozeShieldOutlines,1
;   oozeShieldSidewallShape,1
;   oozeShieldSidewallAngle,30
;   oozeShieldSpeedMultiplier,1
;   infillExtruder,0
;   internalInfillPattern,Rectilinear
;   externalInfillPattern,Rectilinear
;   infillPercentage,33
;   outlineOverlapPercentage,25
;   infillExtrusionWidthPercentage,150
;   minInfillLength,5
;   infillLayerInterval,1
;   infillAngles,45,-45
;   overlapInfillAngles,0
;   generateSupport,0
;   supportExtruder,0
;   supportInfillPercentage,30
;   supportExtraInflation,0
;   denseSupportLayers,0
;   denseSupportInfillPercentage,70
;   supportLayerInterval,1
;   supportHorizontalPartOffset,0.3
;   supportUpperSeparationLayers,1
;   supportLowerSeparationLayers,1
;   supportType,1
;   supportGridSpacing,4
;   maxOverhangAngle,45
;   supportAngles,0
;   temperatureName,Primary Extruder,Heated Bed
;   temperatureNumber,0,1
;   temperatureSetpointCount,1,1
;   temperatureSetpointLayers,1,1
;   temperatureSetpointTemperatures,205,60
;   temperatureStabilizeAtStartup,1,1
;   temperatureHeatedBed,0,1
;   temperatureRelayBetweenLayers,0,0
;   temperatureRelayBetweenLoops,0,0
;   fanLayers,1,2
;   fanSpeeds,0,100
;   blipFanToFullPower,1
;   adjustSpeedForCooling,1
;   minSpeedLayerTime,15
;   minCoolingSpeedSlowdown,20
;   increaseFanForCooling,0
;   minFanLayerTime,60
;   maxCoolingFanSpeed,100
;   increaseFanForBridging,0
;   bridgingFanSpeed,100
;   use5D,1
;   relativeEdistances,0
;   allowEaxisZeroing,1
;   independentExtruderAxes,0
;   includeM10123,0
;   stickySupport,1
;   applyToolheadOffsets,0
;   gcodeXoffset,0
;   gcodeYoffset,0
;   gcodeZoffset,0
;   overrideMachineDefinition,1
;   machineTypeOverride,1
;   strokeXoverride,197
;   strokeYoverride,197
;   strokeZoverride,375
;   originOffsetXoverride,98.5
;   originOffsetYoverride,98.5
;   originOffsetZoverride,0
;   homeXdirOverride,0
;   homeYdirOverride,0
;   homeZdirOverride,1
;   flipXoverride,1
;   flipYoverride,-1
;   flipZoverride,1
;   toolheadOffsets,0,0|0,0|0,0|0,0|0,0|0,0
;   overrideFirmwareConfiguration,1
;   firmwareTypeOverride,RepRap (Marlin/Repetier/Sprinter)
;   GPXconfigOverride,r2
;   baudRateOverride,115200
;   overridePrinterModels,1
;   printerModelsOverride
;   startingGcode,G28 ; home all axes
;   layerChangeGcode,
;   retractionGcode,
;   toolChangeGcode,
;   endingGcode,M104 S0 ; turn off extruder,M140 S0 ; turn off bed,G28 ; home axes,M84 ; disable motors
;   exportFileFormat,gcode
;   celebration,0
;   celebrationSong,Random Song
;   postProcessing,
;   defaultSpeed,1500
;   outlineUnderspeed,0.5
;   solidInfillUnderspeed,0.8
;   supportUnderspeed,0.8
;   rapidXYspeed,12000
;   rapidZspeed,1200
;   minBridgingArea,50
;   bridgingExtraInflation,0
;   bridgingExtrusionMultiplier,0.95
;   bridgingSpeedMultiplier,0.7
;   filamentDiameter,1.75
;   filamentPricePerKg,22
;   filamentDensity,1.25
;   useMinPrintHeight,0
;   minPrintHeight,0.05
;   useMaxPrintHeight,0
;   maxPrintHeight,0
;   useDiaphragm,0
;   diaphragmLayerInterval,20
;   robustSlicing,1
;   mergeAllIntoSolid,0
;   onlyRetractWhenCrossingOutline,1
;   retractBetweenLayers,0
;   useRetractionMinTravel,0
;   retractionMinTravel,3
;   retractWhileWiping,1
;   onlyWipeOutlines,1
;   avoidCrossingOutline,1
;   maxMovementDetourFactor,1.5
;   toolChangeRetractionDistance,12
;   toolChangeExtraRestartDistance,-0.5
;   toolChangeRetractionSpeed,600
;   allowThinWallGapFill,1
;   thinWallAllowedOverlapPercentage,10
;   horizontalSizeCompensation,0
G90
M82
M106 S0
M140 S60
M190 S60
M104 S205 T0
M109 S205 T0
G28 ; home all axes
G92 E0
G1 E-7.0000 F1800
G1 Z0.550 F1200
; layer 1, Z = 0.05
T0
; tool H0.200 W0.480
; skirt
G1 X-23.490 Y0.001 F12000
G1 Z0.050 F1200
G1 E0.0000 F540
G92 E0
G1 X-23.596 Y-4.264 E0.1873 F600
G1 X-23.964 Y-8.905 E0.3917
G1 X-24.544 Y-13.285 E0.5857
G1 X-25.316 Y-17.555 E0.7762
G1 X-26.164 Y-21.324 E0.9458
G1 X-26.167 Y-21.340 E0.9465
G1 X-26.222 Y-21.619 E0.9590
G1 X-26.225 Y-21.635 E0.9597
G1 X-26.587 Y-23.770 E1.0548
G1 X-26.594 Y-23.840 E1.0579
G1 X-26.657 Y-25.085 E1.1126
G1 X-26.656 Y-25.155 E1.1157
G1 X-26.490 Y-27.619 E1.2241
G1 X-26.484 Y-27.673 E1.2265
G1 X-26.336 Y-28.611 E1.2682
G1 X-26.325 Y-28.664 E1.2705
G1 X-25.834 Y-30.619 E1.3590
G1 X-25.815 Y-30.678 E1.3618
G1 X-25.436 Y-31.715 E1.4103
G1 X-25.412 Y-31.773 E1.4130
G1 X-24.528 Y-33.582 E1.5014
G1 X-24.502 Y-33.629 E1.5038
G1 X-24.013 Y-34.439 E1.5453
G1 X-23.983 Y-34.483 E1.5476
G1 X-22.522 Y-36.476 E1.6561
G1 X-22.476 Y-36.531 E1.6592
G1 X-21.620 Y-37.448 E1.7143
G1 X-21.569 Y-37.497 E1.7174
G1 X-19.819 Y-38.975 E1.8180
G1 X-19.775 Y-39.009 E1.8204
G1 X-18.976 Y-39.567 E1.8632
G1 X-18.929 Y-39.597 E1.8657
G1 X-17.235 Y-40.562 E1.9513
G1 X-17.184 Y-40.587 E1.9538
G1 X-16.267 Y-41.000 E1.9979
G1 X-16.214 Y-41.021 E2.0004
G1 X-14.192 Y-41.710 E2.0942
G1 X-14.134 Y-41.726 E2.0968
G1 X-13.106 Y-41.965 E2.1432
G1 X-13.048 Y-41.976 E2.1458
G1 X-10.818 Y-42.265 E2.2445
G1 X-10.759 Y-42.270 E2.2471
G1 X-9.713 Y-42.302 E2.2931
G1 X-9.654 Y-42.301 E2.2957
G1 X-7.533 Y-42.156 E2.3890
G1 X-7.477 Y-42.149 E2.3915
G1 X-6.486 Y-41.986 E2.4356
G1 X-6.430 Y-41.975 E2.4381
G1 X-4.577 Y-41.486 E2.5222
G1 X-4.527 Y-41.471 E2.5245
G1 X-3.662 Y-41.160 E2.5649
G1 X-3.613 Y-41.141 E2.5671
G1 X-1.723 Y-40.271 E2.6585
G1 X-1.672 Y-40.245 E2.6610
G1 X-0.799 Y-39.737 E2.7054
G1 X-0.751 Y-39.706 E2.7079
G1 X-0.013 Y-39.178 E2.7477
G1 X0.545 Y-39.567 E2.7776
G1 X0.592 Y-39.597 E2.7800
G1 X2.286 Y-40.562 E2.8656
G1 X2.337 Y-40.587 E2.8681
G1 X3.254 Y-41.000 E2.9123
G1 X3.307 Y-41.021 E2.9148
G1 X5.325 Y-41.708 E3.0084
G1 X5.381 Y-41.724 E3.0109
G1 X6.400 Y-41.962 E3.0569
G1 X6.458 Y-41.973 E3.0595
G1 X8.662 Y-42.263 E3.1570
G1 X8.721 Y-42.268 E3.1596
G1 X9.767 Y-42.302 E3.2056
G1 X9.826 Y-42.301 E3.2082
G1 X11.973 Y-42.158 E3.3027
G1 X12.030 Y-42.151 E3.3052
G1 X13.030 Y-41.988 E3.3497
G1 X13.086 Y-41.976 E3.3522
G1 X14.944 Y-41.486 E3.4365
G1 X14.994 Y-41.471 E3.4388
G1 X15.859 Y-41.160 E3.4792
G1 X15.908 Y-41.141 E3.4815
G1 X17.803 Y-40.269 E3.5731
G1 X17.855 Y-40.242 E3.5756
G1 X18.737 Y-39.728 E3.6205
G1 X18.786 Y-39.697 E3.6230
G1 X20.471 Y-38.484 E3.7142
G1 X20.523 Y-38.442 E3.7171
G1 X21.404 Y-37.645 E3.7693
G1 X21.451 Y-37.597 E3.7722
G1 X23.293 Y-35.511 E3.8944
G1 X23.338 Y-35.453 E3.8976
G1 X24.072 Y-34.383 E3.9546
G1 X24.109 Y-34.320 E3.9578
G1 X25.345 Y-31.939 E4.0756
G1 X25.374 Y-31.875 E4.0786
G1 X25.813 Y-30.716 E4.1331
G1 X25.834 Y-30.649 E4.1361
G1 X26.376 Y-28.480 E4.2343
G1 X26.387 Y-28.430 E4.2366
G1 X26.532 Y-27.526 E4.2768
G1 X26.538 Y-27.474 E4.2790
G1 X26.673 Y-25.612 E4.3610
G1 X26.674 Y-25.553 E4.3636
G1 X26.647 Y-24.511 E4.4094
G1 X26.643 Y-24.452 E4.4120
G1 X26.412 Y-22.603 E4.4938
G1 X26.409 Y-22.577 E4.4949
G1 X26.331 Y-22.119 E4.5153
G1 X26.326 Y-22.093 E4.5165
G1 X25.069 Y-16.245 E4.7791
G1 X24.495 Y-12.920 E4.9272
G1 X23.860 Y-7.683 E5.1588
G1 X23.602 Y-4.283 E5.3085
G1 X23.496 Y0.001 E5.4967
G1 X23.603 Y4.291 E5.6851
G1 X23.922 Y8.571 E5.8735
G1 X24.455 Y12.829 E6.0619
G1 X25.201 Y17.072 E6.2510
G1 X26.392 Y22.379 E6.4898
G1 X26.401 Y22.424 E6.4919
G1 X26.518 Y23.233 E6.5277
G1 X26.523 Y23.279 E6.5298
G1 X26.666 Y25.415 E6.6237
G1 X26.666 Y25.477 E6.6265
G1 X26.626 Y26.577 E6.6748
G1 X26.620 Y26.639 E6.6775
G1 X26.314 Y28.802 E6.7734
G1 X26.304 Y28.853 E6.7757
G1 X26.098 Y29.748 E6.8160
G1 X26.084 Y29.798 E6.8183
G1 X25.526 Y31.515 E6.8976
G1 X25.508 Y31.564 E6.8999
G1 X25.151 Y32.409 E6.9402
G1 X25.128 Y32.456 E6.9424
G1 X24.280 Y34.058 E7.0220
G1 X24.254 Y34.103 E7.0243
G1 X23.754 Y34.877 E7.0648
G1 X23.724 Y34.920 E7.0671
G1 X22.438 Y36.575 E7.1591
G1 X22.404 Y36.614 E7.1613
G1 X21.780 Y37.288 E7.2017
G1 X21.744 Y37.324 E7.2039
G1 X20.407 Y38.538 E7.2832
G1 X20.367 Y38.571 E7.2855
G1 X19.636 Y39.127 E7.3258
G1 X19.594 Y39.157 E7.3281
G1 X18.138 Y40.078 E7.4037
G1 X18.102 Y40.099 E7.4055
G1 X17.451 Y40.450 E7.4380
G1 X17.413 Y40.469 E7.4399
G1 X15.848 Y41.176 E7.5152
G1 X15.800 Y41.195 E7.5175
G1 X14.933 Y41.500 E7.5579
G1 X14.883 Y41.515 E7.5602
G1 X13.118 Y41.968 E7.6402
G1 X13.065 Y41.979 E7.6426
G1 X12.126 Y42.132 E7.6843
G1 X12.072 Y42.139 E7.6867
G1 X9.779 Y42.304 E7.7876
G1 X9.710 Y42.305 E7.7907
G1 X8.500 Y42.253 E7.8438
G1 X8.432 Y42.247 E7.8468
G1 X5.800 Y41.831 E7.9638
G1 X5.731 Y41.816 E7.9669
G1 X4.539 Y41.482 E8.0213
G1 X4.473 Y41.459 E8.0243
G1 X2.298 Y40.566 E8.1276
G1 X2.241 Y40.539 E8.1303
G1 X1.272 Y40.017 E8.1787
G1 X1.219 Y39.985 E8.1814
G1 X0.036 Y39.180 E8.2442
G1 X-1.383 Y40.078 E8.3179
G1 X-1.419 Y40.099 E8.3197
G1 X-2.070 Y40.450 E8.3522
G1 X-2.108 Y40.469 E8.3541
G1 X-3.673 Y41.176 E8.4295
G1 X-3.721 Y41.195 E8.4317
G1 X-4.588 Y41.500 E8.4721
G1 X-4.638 Y41.515 E8.4744
G1 X-6.403 Y41.968 E8.5544
G1 X-6.456 Y41.979 E8.5568
G1 X-7.395 Y42.132 E8.5986
G1 X-7.449 Y42.139 E8.6009
G1 X-9.742 Y42.304 E8.7019
G1 X-9.811 Y42.305 E8.7049
G1 X-11.021 Y42.253 E8.7580
G1 X-11.089 Y42.247 E8.7611
G1 X-13.721 Y41.831 E8.8780
G1 X-13.790 Y41.816 E8.8811
G1 X-14.982 Y41.482 E8.9355
G1 X-15.048 Y41.459 E8.9386
G1 X-17.223 Y40.566 E9.0418
G1 X-17.280 Y40.539 E9.0445
G1 X-18.249 Y40.017 E9.0929
G1 X-18.302 Y39.985 E9.0956
G1 X-20.183 Y38.706 E9.1954
G1 X-20.232 Y38.668 E9.1982
G1 X-21.071 Y37.960 E9.2464
G1 X-21.117 Y37.917 E9.2491
G1 X-22.632 Y36.343 E9.3450
G1 X-22.666 Y36.304 E9.3473
G1 X-23.242 Y35.592 E9.3875
G1 X-23.273 Y35.550 E9.3898
G1 X-24.287 Y34.047 E9.4694
G1 X-24.315 Y34.002 E9.4717
G1 X-24.763 Y33.195 E9.5123
G1 X-24.786 Y33.148 E9.5146
G1 X-25.526 Y31.489 E9.5943
G1 X-25.545 Y31.441 E9.5966
G1 X-25.845 Y30.570 E9.6370
G1 X-25.860 Y30.520 E9.6393
G1 X-26.370 Y28.487 E9.7314
G1 X-26.381 Y28.436 E9.7336
G1 X-26.526 Y27.528 E9.7740
G1 X-26.532 Y27.476 E9.7763
G1 X-26.663 Y25.667 E9.8559
G1 X-26.665 Y25.615 E9.8582
G1 X-26.651 Y24.693 E9.8987
G1 X-26.648 Y24.641 E9.9010
G1 X-26.480 Y22.985 E9.9741
G1 X-26.475 Y22.949 E9.9756
G1 X-26.373 Y22.324 E10.0034
G1 X-26.367 Y22.289 E10.0050
G1 X-25.195 Y17.072 E10.2398
G1 X-24.449 Y12.829 E10.4289
G1 X-23.917 Y8.571 E10.6173
G1 X-23.597 Y4.291 E10.8057
G1 X-23.515 Y1.001 E10.9502
G1 X-23.490 Y0.001 F600
G1 X-23.010 Y0.001 F12000
G92 E0
G1 X-23.117 Y-4.289 E0.1884 F600
G1 X-23.486 Y-8.955 E0.3939
G1 X-24.070 Y-13.359 E0.5889
G1 X-24.845 Y-17.650 E0.7804
G1 X-25.695 Y-21.426 E0.9503
G1 X-25.697 Y-21.436 E0.9508
G1 X-25.751 Y-21.709 E0.9630
G1 X-25.752 Y-21.718 E0.9634
G1 X-26.111 Y-23.836 E1.0577
G1 X-26.116 Y-23.878 E1.0596
G1 X-26.177 Y-25.095 E1.1130
G1 X-26.176 Y-25.137 E1.1149
G1 X-26.012 Y-27.576 E1.2222
G1 X-26.009 Y-27.608 E1.2236
G1 X-25.864 Y-28.525 E1.2644
G1 X-25.857 Y-28.557 E1.2658
G1 X-25.371 Y-30.490 E1.3533
G1 X-25.360 Y-30.525 E1.3549
G1 X-24.990 Y-31.539 E1.4023
G1 X-24.975 Y-31.573 E1.4040
G1 X-24.101 Y-33.362 E1.4914
G1 X-24.086 Y-33.390 E1.4928
G1 X-23.608 Y-34.181 E1.5333
G1 X-23.590 Y-34.208 E1.5348
G1 X-22.143 Y-36.181 E1.6422
G1 X-22.116 Y-36.214 E1.6440
G1 X-21.279 Y-37.110 E1.6979
G1 X-21.248 Y-37.139 E1.6998
G1 X-19.518 Y-38.602 E1.7992
G1 X-19.491 Y-38.622 E1.8007
G1 X-18.710 Y-39.167 E1.8425
G1 X-18.682 Y-39.185 E1.8440
G1 X-17.007 Y-40.139 E1.9286
G1 X-16.977 Y-40.154 E1.9301
G1 X-16.081 Y-40.558 E1.9732
G1 X-16.049 Y-40.570 E1.9747
G1 X-14.048 Y-41.251 E2.0675
G1 X-14.014 Y-41.261 E2.0691
G1 X-13.009 Y-41.495 E2.1144
G1 X-12.974 Y-41.501 E2.1159
G1 X-10.768 Y-41.788 E2.2136
G1 X-10.733 Y-41.791 E2.2151
G1 X-9.710 Y-41.822 E2.2601
G1 X-9.675 Y-41.821 E2.2616
G1 X-7.577 Y-41.678 E2.3539
G1 X-7.544 Y-41.674 E2.3554
G1 X-6.575 Y-41.515 E2.3985
G1 X-6.541 Y-41.507 E2.4000
G1 X-4.709 Y-41.025 E2.4832
G1 X-4.680 Y-41.016 E2.4846
G1 X-3.833 Y-40.712 E2.5240
G1 X-3.804 Y-40.700 E2.5254
G1 X-1.934 Y-39.840 E2.6158
G1 X-1.903 Y-39.824 E2.6173
G1 X-1.050 Y-39.328 E2.6607
G1 X-1.021 Y-39.309 E2.6622
G1 X-0.013 Y-38.588 E2.7166
G1 X0.003 Y-38.602 E2.7175
G1 X0.030 Y-38.622 E2.7190
G1 X0.811 Y-39.167 E2.7608
G1 X0.839 Y-39.185 E2.7623
G1 X2.514 Y-40.139 E2.8469
G1 X2.544 Y-40.154 E2.8484
G1 X3.440 Y-40.558 E2.8915
G1 X3.472 Y-40.570 E2.8930
G1 X5.468 Y-41.250 E2.9856
G1 X5.502 Y-41.260 E2.9872
G1 X6.498 Y-41.492 E3.0320
G1 X6.532 Y-41.499 E3.0336
G1 X8.713 Y-41.786 E3.1301
G1 X8.748 Y-41.789 E3.1317
G1 X9.771 Y-41.822 E3.1766
G1 X9.806 Y-41.821 E3.1782
G1 X11.929 Y-41.680 E3.2716
G1 X11.964 Y-41.676 E3.2731
G1 X12.942 Y-41.516 E3.3166
G1 X12.975 Y-41.509 E3.3181
G1 X14.811 Y-41.025 E3.4015
G1 X14.841 Y-41.016 E3.4029
G1 X15.688 Y-40.712 E3.4423
G1 X15.716 Y-40.700 E3.4437
G1 X17.592 Y-39.837 E3.5344
G1 X17.623 Y-39.821 E3.5359
G1 X18.486 Y-39.319 E3.5797
G1 X18.515 Y-39.300 E3.5812
G1 X20.180 Y-38.102 E3.6713
G1 X20.211 Y-38.077 E3.6731
G1 X21.072 Y-37.298 E3.7240
G1 X21.100 Y-37.269 E3.7258
G1 X22.924 Y-35.204 E3.8468
G1 X22.951 Y-35.169 E3.8487
G1 X23.668 Y-34.124 E3.9044
G1 X23.690 Y-34.086 E3.9063
G1 X24.913 Y-31.731 E4.0228
G1 X24.930 Y-31.692 E4.0246
G1 X25.359 Y-30.559 E4.0778
G1 X25.372 Y-30.519 E4.0797
G1 X25.908 Y-28.374 E4.1768
G1 X25.914 Y-28.343 E4.1781
G1 X26.056 Y-27.460 E4.2174
G1 X26.060 Y-27.429 E4.2188
G1 X26.193 Y-25.589 E4.2998
G1 X26.194 Y-25.554 E4.3013
G1 X26.168 Y-24.535 E4.3461
G1 X26.165 Y-24.500 E4.3476
G1 X25.937 Y-22.668 E4.4287
G1 X25.934 Y-22.652 E4.4294
G1 X25.859 Y-22.204 E4.4493
G1 X25.856 Y-22.189 E4.4500
G1 X24.597 Y-16.336 E4.7128
G1 X24.020 Y-12.989 E4.8619
G1 X23.383 Y-7.730 E5.0945
G1 X23.123 Y-4.307 E5.2452
G1 X23.016 Y0.001 E5.4344
G1 X23.123 Y4.315 E5.6239
G1 X23.445 Y8.618 E5.8133
G1 X23.980 Y12.900 E6.0028
G1 X24.730 Y17.166 E6.1929
G1 X25.922 Y22.475 E6.4318
G1 X25.927 Y22.502 E6.4331
G1 X26.041 Y23.293 E6.4681
G1 X26.044 Y23.320 E6.4693
G1 X26.186 Y25.434 E6.5624
G1 X26.186 Y25.472 E6.5640
G1 X26.147 Y26.546 E6.6112
G1 X26.143 Y26.584 E6.6128
G1 X25.840 Y28.725 E6.7078
G1 X25.834 Y28.755 E6.7092
G1 X25.632 Y29.630 E6.7485
G1 X25.624 Y29.660 E6.7499
G1 X25.073 Y31.357 E6.8283
G1 X25.062 Y31.387 E6.8296
G1 X24.713 Y32.213 E6.8690
G1 X24.699 Y32.241 E6.8704
G1 X23.861 Y33.825 E6.9491
G1 X23.845 Y33.852 E6.9504
G1 X23.356 Y34.608 E6.9900
G1 X23.338 Y34.633 E6.9913
G1 X22.065 Y36.272 E7.0824
G1 X22.045 Y36.296 E7.0838
G1 X21.435 Y36.954 E7.1232
G1 X21.413 Y36.976 E7.1246
G1 X20.092 Y38.176 E7.2029
G1 X20.068 Y38.196 E7.2043
G1 X19.354 Y38.739 E7.2437
G1 X19.328 Y38.757 E7.2451
G1 X17.889 Y39.668 E7.3199
G1 X17.867 Y39.680 E7.3210
G1 X17.230 Y40.023 E7.3527
G1 X17.208 Y40.035 E7.3538
G1 X15.660 Y40.734 E7.4284
G1 X15.631 Y40.746 E7.4298
G1 X14.784 Y41.044 E7.4692
G1 X14.754 Y41.053 E7.4705
G1 X13.009 Y41.501 E7.5497
G1 X12.977 Y41.507 E7.5511
G1 X12.059 Y41.657 E7.5919
