; G-Code generated by Simplify3D(R) Version 3.1.0
; Jun 22, 2016 at 7:08:47 PM
; Settings Summary
;   processName,Process1
;   applyToModels,INDOOR,INDOOR(2)
;   profileName,Rostock MAX v2 (modified)
;   profileVersion,2015-05-01 08:00:00
;   baseProfile,
;   printMaterial,PLA
;   printQuality,Medium
;   printExtruders,
;   extruderName,Primary Extruder
;   extruderToolheadNumber,0
;   extruderDiameter,0.5
;   extruderAutoWidth,0
;   extruderWidth,0.5
;   extrusionMultiplier,0.95
;   extruderUseRetract,1
;   extruderRetractionDistance,10
;   extruderExtraRestartDistance,0
;   extruderRetractionZLift,0.3
;   extruderRetractionSpeed,6600
;   extruderUseCoasting,0
;   extruderCoastingDistance,1
;   extruderUseWipe,1
;   extruderWipeDistance,5
;   primaryExtruder,0
;   layerHeight,0.2
;   topSolidLayers,3
;   bottomSolidLayers,3
;   perimeterOutlines,3
;   printPerimetersInsideOut,1
;   startPointOption,2
;   startPointOriginX,0
;   startPointOriginY,0
;   startPointOriginZ,300
;   sequentialIslands,0
;   spiralVaseMode,0
;   firstLayerHeightPercentage,90
;   firstLayerWidthPercentage,100
;   firstLayerUnderspeed,0.5
;   useRaft,1
;   raftExtruder,0
;   raftLayers,3
;   raftOffset,3
;   raftSeparationDistance,0.14
;   raftInfill,85
;   disableRaftBaseLayers,0
;   useSkirt,1
;   skirtExtruder,0
;   skirtLayers,1
;   skirtOutlines,2
;   skirtOffset,4
;   usePrimePillar,0
;   primePillarExtruder,999
;   primePillarWidth,12
;   primePillarLocation,7
;   primePillarSpeedMultiplier,1
;   useOozeShield,0
;   oozeShieldExtruder,999
;   oozeShieldOffset,2
;   oozeShieldOutlines,1
;   oozeShieldSidewallShape,1
;   oozeShieldSidewallAngle,30
;   oozeShieldSpeedMultiplier,1
;   infillExtruder,0
;   internalInfillPattern,Rectilinear
;   externalInfillPattern,Rectilinear
;   infillPercentage,20
;   outlineOverlapPercentage,15
;   infillExtrusionWidthPercentage,150
;   minInfillLength,5
;   infillLayerInterval,1
;   infillAngles,45,-45
;   overlapInfillAngles,0
;   generateSupport,0
;   supportExtruder,0
;   supportInfillPercentage,30
;   supportExtraInflation,0
;   denseSupportLayers,0
;   denseSupportInfillPercentage,70
;   supportLayerInterval,1
;   supportHorizontalPartOffset,0.3
;   supportUpperSeparationLayers,1
;   supportLowerSeparationLayers,1
;   supportType,0
;   supportGridSpacing,4
;   maxOverhangAngle,45
;   supportAngles,0
;   temperatureName,Primary Extruder,Heated Bed
;   temperatureNumber,0,1
;   temperatureSetpointCount,1,1
;   temperatureSetpointLayers,1,1
;   temperatureSetpointTemperatures,205,60
;   temperatureStabilizeAtStartup,1,1
;   temperatureHeatedBed,0,1
;   temperatureRelayBetweenLayers,0,0
;   temperatureRelayBetweenLoops,0,0
;   fanLayers,1,2
;   fanSpeeds,0,100
;   blipFanToFullPower,1
;   adjustSpeedForCooling,1
;   minSpeedLayerTime,15
;   minCoolingSpeedSlowdown,20
;   increaseFanForCooling,0
;   minFanLayerTime,60
;   maxCoolingFanSpeed,100
;   increaseFanForBridging,0
;   bridgingFanSpeed,100
;   use5D,1
;   relativeEdistances,0
;   allowEaxisZeroing,1
;   independentExtruderAxes,0
;   includeM10123,0
;   stickySupport,1
;   applyToolheadOffsets,0
;   gcodeXoffset,0
;   gcodeYoffset,0
;   gcodeZoffset,0
;   overrideMachineDefinition,1
;   machineTypeOverride,1
;   strokeXoverride,197
;   strokeYoverride,197
;   strokeZoverride,375
;   originOffsetXoverride,98.5
;   originOffsetYoverride,98.5
;   originOffsetZoverride,0
;   homeXdirOverride,0
;   homeYdirOverride,0
;   homeZdirOverride,1
;   flipXoverride,1
;   flipYoverride,-1
;   flipZoverride,1
;   toolheadOffsets,0,0|0,0|0,0|0,0|0,0|0,0
;   overrideFirmwareConfiguration,1
;   firmwareTypeOverride,RepRap (Marlin/Repetier/Sprinter)
;   GPXconfigOverride,r2
;   baudRateOverride,115200
;   overridePrinterModels,1
;   printerModelsOverride
;   startingGcode,G28 ; home all axes
;   layerChangeGcode,
;   retractionGcode,
;   toolChangeGcode,
;   endingGcode,M104 S0 ; turn off extruder,M140 S0 ; turn off bed,G28 ; home axes,M84 ; disable motors
;   exportFileFormat,gcode
;   celebration,0
;   celebrationSong,Random Song
;   postProcessing,
;   defaultSpeed,3000
;   outlineUnderspeed,0.5
;   solidInfillUnderspeed,0.8
;   supportUnderspeed,0.8
;   rapidXYspeed,9000
;   rapidZspeed,1200
;   minBridgingArea,50
;   bridgingExtraInflation,0
;   bridgingExtrusionMultiplier,0.95
;   bridgingSpeedMultiplier,0.7
;   filamentDiameter,1.7
;   filamentPricePerKg,33.98
;   filamentDensity,1.25
;   useMinPrintHeight,0
;   minPrintHeight,0
;   useMaxPrintHeight,0
;   maxPrintHeight,0
;   useDiaphragm,0
;   diaphragmLayerInterval,20
;   robustSlicing,1
;   mergeAllIntoSolid,0
;   onlyRetractWhenCrossingOutline,1
;   retractBetweenLayers,1
;   useRetractionMinTravel,0
;   retractionMinTravel,3
;   retractWhileWiping,0
;   onlyWipeOutlines,1
;   avoidCrossingOutline,0
;   maxMovementDetourFactor,3
;   toolChangeRetractionDistance,12
;   toolChangeExtraRestartDistance,-0.5
;   toolChangeRetractionSpeed,600
;   allowThinWallGapFill,1
;   thinWallAllowedOverlapPercentage,10
;   horizontalSizeCompensation,0
G90
M82
M106 S0
M140 S60
M190 S60
M104 S205 T0
M109 S205 T0
G28 ; home all axes
G92 E0
G1 E-10.0000 F6600
G1 Z0.862 F1200
; layer 1, Z = 0.5625
T0
; tool H0.625 W0.500
; skirt
G1 X6.765 Y-1.582 F9000
G1 Z0.562 F1200
G1 E0.0000 F1980
G92 E0
G1 X6.751 Y-1.545 E0.0053 F1500
G1 X5.889 Y0.428 E0.2868
G1 X5.862 Y0.478 E0.2943
G1 X5.503 Y1.045 E0.3821
G1 X5.468 Y1.091 E0.3897
G1 X4.484 Y2.217 E0.5852
G1 X4.736 Y2.482 E0.6330
G1 X4.763 Y2.515 E0.6386
G1 X5.700 Y3.761 E0.8425
G1 X5.717 Y3.785 E0.8463
G1 X5.901 Y4.074 E0.8912
G1 X5.916 Y4.100 E0.8951
G1 X6.482 Y5.167 E1.0530
G1 X6.495 Y5.193 E1.0569
G1 X6.631 Y5.508 E1.1018
G1 X6.642 Y5.535 E1.1056
G1 X7.088 Y6.832 E1.2850
G1 X7.097 Y6.863 E1.2892
G1 X7.189 Y7.229 E1.3385
G1 X7.195 Y7.260 E1.3427
G1 X7.405 Y8.570 E1.5162
G1 X7.409 Y8.602 E1.5204
G1 X7.436 Y8.978 E1.5697
G1 X7.437 Y9.010 E1.5739
G1 X7.421 Y10.228 E1.7332
G1 X7.420 Y10.246 E1.7355
G1 X7.408 Y10.451 E1.7624
G1 X7.407 Y10.468 E1.7647
G1 X7.329 Y11.186 E1.8592
G1 X7.327 Y11.204 E1.8615
G1 X7.296 Y11.407 E1.8883
G1 X7.293 Y11.424 E1.8906
G1 X7.012 Y12.802 E2.0746
G1 X7.011 Y12.806 E2.0750
G1 X7.002 Y12.847 E2.0806
G1 X7.001 Y12.851 E2.0811
G1 X6.969 Y12.996 E2.1005
G1 X6.968 Y12.999 E2.1010
G1 X6.958 Y13.041 E2.1065
G1 X6.958 Y13.044 E2.1070
G1 X6.455 Y15.099 E2.3837
G1 X6.454 Y15.103 E2.3843
G1 X6.440 Y15.158 E2.3917
G1 X6.439 Y15.163 E2.3923
G1 X6.387 Y15.354 E2.4183
G1 X6.385 Y15.359 E2.4189
G1 X6.370 Y15.413 E2.4263
G1 X6.369 Y15.418 E2.4270
G1 X5.754 Y17.468 E2.7069
G1 X5.752 Y17.473 E2.7075
G1 X5.736 Y17.527 E2.7149
G1 X5.734 Y17.531 E2.7155
G1 X5.672 Y17.720 E2.7415
G1 X5.671 Y17.724 E2.7421
G1 X5.652 Y17.778 E2.7495
G1 X5.651 Y17.782 E2.7501
G1 X4.931 Y19.798 E3.0300
G1 X4.929 Y19.802 E3.0307
G1 X4.910 Y19.855 E3.0380
G1 X4.908 Y19.860 E3.0387
G1 X4.836 Y20.045 E3.0646
G1 X4.835 Y20.049 E3.0653
G1 X4.814 Y20.102 E3.0727
G1 X4.812 Y20.106 E3.0733
G1 X3.989 Y22.082 E3.3532
G1 X3.987 Y22.086 E3.3538
G1 X3.965 Y22.138 E3.3612
G1 X3.963 Y22.143 E3.3619
G1 X3.882 Y22.324 E3.3878
G1 X3.880 Y22.328 E3.3884
G1 X3.856 Y22.380 E3.3958
G1 X3.854 Y22.384 E3.3965
G1 X3.835 Y22.423 E3.4021
G1 X9.510 Y22.423 E4.1442
G1 X9.655 Y22.451 E4.1636
G1 X9.914 Y22.559 E4.2003
G1 X10.974 Y22.557 E4.3389
G1 X10.993 Y22.558 E4.3414
G1 X11.218 Y22.569 E4.3708
G1 X11.237 Y22.570 E4.3733
G1 X12.023 Y22.650 E4.4767
G1 X12.042 Y22.653 E4.4792
G1 X12.264 Y22.687 E4.5086
G1 X12.283 Y22.690 E4.5111
G1 X13.417 Y22.924 E4.6626
G1 X13.444 Y22.931 E4.6662
G1 X13.758 Y23.021 E4.7090
G1 X13.785 Y23.030 E4.7127
G1 X13.965 Y23.096 E4.7377
G1 X14.361 Y22.970 E4.7920
G1 X14.400 Y22.960 E4.7973
G1 X15.731 Y22.688 E4.9750
G1 X15.749 Y22.685 E4.9774
G1 X15.966 Y22.652 E5.0061
G1 X15.984 Y22.650 E5.0085
G1 X16.750 Y22.572 E5.1092
G1 X16.769 Y22.571 E5.1117
G1 X16.988 Y22.560 E5.1403
G1 X17.006 Y22.559 E5.1428
G1 X17.648 Y22.559 E5.2267
G1 X18.544 Y22.388 E5.3460
G1 X19.417 Y22.166 E5.4638
G1 X20.995 Y21.657 E5.6807
G1 X21.884 Y21.307 E5.8057
G1 X22.618 Y20.975 E5.9110
G1 X22.619 Y20.967 E5.9120
G1 X22.962 Y19.351 E6.1281
G1 X22.972 Y19.312 E6.1333
G1 X23.118 Y18.866 E6.1947
G1 X23.132 Y18.829 E6.1999
G1 X23.807 Y17.331 E6.4148
G1 X23.818 Y17.308 E6.4181
G1 X23.955 Y17.052 E6.4561
G1 X23.967 Y17.030 E6.4594
G1 X24.507 Y16.162 E6.5931
G1 X24.521 Y16.141 E6.5964
G1 X24.690 Y15.905 E6.6344
G1 X24.706 Y15.885 E6.6377
G1 X25.430 Y15.006 E6.7866
G1 X25.442 Y14.991 E6.7891
G1 X25.591 Y14.828 E6.8181
G1 X25.605 Y14.814 E6.8206
G1 X26.158 Y14.266 E6.9224
G1 X26.172 Y14.253 E6.9249
G1 X26.337 Y14.105 E6.9539
G1 X26.351 Y14.093 E6.9563
G1 X27.445 Y13.210 E7.1402
G1 X27.470 Y13.191 E7.1444
G1 X27.779 Y12.982 E7.1931
G1 X27.806 Y12.966 E7.1973
G1 X28.951 Y12.326 E7.3688
G1 X28.980 Y12.312 E7.3730
G1 X29.319 Y12.159 E7.4217
G1 X29.349 Y12.147 E7.4259
G1 X31.354 Y11.440 E7.7039
G1 X31.409 Y11.425 E7.7115
G1 X32.074 Y11.301 E7.7999
G1 X32.132 Y11.295 E7.8074
G1 X34.516 Y11.222 E8.1195
G1 X34.574 Y11.225 E8.1271
G1 X35.245 Y11.308 E8.2155
G1 X35.302 Y11.320 E8.2231
G1 X37.521 Y11.953 E8.5249
G1 X37.565 Y11.969 E8.5311
G1 X37.817 Y12.077 E8.5669
G1 X38.267 Y10.841 E8.7389
G1 X38.674 Y9.517 E8.9201
G1 X38.811 Y9.001 E8.9899
G1 X39.323 Y6.726 E9.2949
G1 X39.331 Y6.697 E9.2989
G1 X39.435 Y6.363 E9.3446
G1 X39.445 Y6.334 E9.3485
G1 X39.903 Y5.192 E9.5095
G1 X39.915 Y5.165 E9.5134
G1 X40.071 Y4.852 E9.5591
G1 X40.085 Y4.826 E9.5630
G1 X41.137 Y3.075 E9.8302
G1 X41.172 Y3.027 E9.8379
G1 X41.612 Y2.502 E9.9275
G1 X41.653 Y2.460 E9.9352
G1 X41.756 Y2.370 E9.9531
G1 X40.765 Y1.226 E10.1511
G1 X40.739 Y1.193 E10.1566
G1 X40.459 Y0.785 E10.2213
G1 X40.437 Y0.748 E10.2269
G1 X39.619 Y-0.791 E10.4549
G1 X39.601 Y-0.830 E10.4605
G1 X39.420 Y-1.290 E10.5252
G1 X39.406 Y-1.330 E10.5307
G1 X38.496 Y-4.721 E10.9899
G1 X38.094 Y-5.940 E11.1578
G1 X37.619 Y-7.162 E11.3293
G1 X37.083 Y-8.359 E11.5007
G1 X36.487 Y-9.526 E11.6722
G1 X35.798 Y-10.718 E11.8522
G1 X35.519 Y-11.162 E11.9209
G1 X34.740 Y-12.297 E12.1009
G1 X33.945 Y-13.339 E12.2723
G1 X33.097 Y-14.339 E12.4438
G1 X32.155 Y-15.342 E12.6239
G1 X31.781 Y-15.710 E12.6925
G1 X30.764 Y-16.638 E12.8725
G1 X29.752 Y-17.471 E13.0439
G1 X28.645 Y-18.290 E13.2240
G1 X28.212 Y-18.585 E13.2926
G1 X27.046 Y-19.317 E13.4727
G1 X25.844 Y-19.988 E13.6527
G1 X25.377 Y-20.225 E13.7212
G1 X24.067 Y-20.829 E13.9099
G1 X23.522 Y-21.056 E13.9870
G1 X22.972 Y-21.268 E14.0642
G1 X22.964 Y-21.271 E14.0653
G1 X22.867 Y-21.138 E14.0867
G1 X22.815 Y-21.080 E14.0970
G1 X20.934 Y-19.388 E14.4279
G1 X20.906 Y-19.365 E14.4327
G1 X20.558 Y-19.109 E14.4891
G1 X20.527 Y-19.089 E14.4939
G1 X19.222 Y-18.314 E14.6925
G1 X19.189 Y-18.297 E14.6973
G1 X18.799 Y-18.114 E14.7537
G1 X18.764 Y-18.100 E14.7585
G1 X17.449 Y-17.637 E14.9410
G1 X17.428 Y-17.630 E14.9438
G1 X17.184 Y-17.560 E14.9771
G1 X17.163 Y-17.554 E14.9800
G1 X16.289 Y-17.357 E15.0970
G1 X16.268 Y-17.353 E15.0999
G1 X16.017 Y-17.311 E15.1332
G1 X15.995 Y-17.308 E15.1360
G1 X14.707 Y-17.171 E15.3055
G1 X14.687 Y-17.170 E15.3081
G1 X14.455 Y-17.157 E15.3384
G1 X14.435 Y-17.157 E15.3410
G1 X13.619 Y-17.157 E15.4479
G1 X13.599 Y-17.157 E15.4505
G1 X13.367 Y-17.170 E15.4809
G1 X13.347 Y-17.171 E15.4835
G1 X11.715 Y-17.345 E15.6981
G1 X11.681 Y-17.351 E15.7027
G1 X11.279 Y-17.432 E15.7563
G1 X11.245 Y-17.441 E15.7609
G1 X9.864 Y-17.858 E15.9496
G1 X9.831 Y-17.870 E15.9542
G1 X9.451 Y-18.025 E16.0078
G1 X9.420 Y-18.039 E16.0124
G1 X7.421 Y-19.082 E16.3071
G1 X7.369 Y-19.115 E16.3152
G1 X6.795 Y-19.546 E16.4092
G1 X6.749 Y-19.587 E16.4172
G1 X4.997 Y-21.423 E16.7491
G1 X4.958 Y-21.471 E16.7572
G1 X4.553 Y-22.064 E16.8512
G1 X4.523 Y-22.118 E16.8592
G1 X3.609 Y-24.087 E17.1431
G1 X3.594 Y-24.125 E17.1485
G1 X3.442 Y-24.576 E17.2107
G1 X3.431 Y-24.615 E17.2160
G1 X3.070 Y-26.250 E17.4351
G1 X3.063 Y-26.291 E17.4404
G1 X3.012 Y-26.763 E17.5026
G1 X3.010 Y-26.804 E17.5079
G1 X3.010 Y-40.187 E19.2584
G1 X3.012 Y-40.228 E19.2637
G1 X3.063 Y-40.698 E19.3255
G1 X3.070 Y-40.738 E19.3308
G1 X3.426 Y-42.365 E19.5487
G1 X3.437 Y-42.404 E19.5539
G1 X3.588 Y-42.852 E19.6158
G1 X3.603 Y-42.890 E19.6211
G1 X4.381 Y-44.579 E19.8644
G1 X4.402 Y-44.617 E19.8701
G1 X4.666 Y-45.050 E19.9364
G1 X4.691 Y-45.086 E19.9421
G1 X5.793 Y-46.495 E20.1760
G1 X5.822 Y-46.527 E20.1817
G1 X6.178 Y-46.888 E20.2481
G1 X6.211 Y-46.917 E20.2538
G1 X7.521 Y-47.966 E20.4733
G1 X7.545 Y-47.984 E20.4773
G1 X7.842 Y-48.185 E20.5241
G1 X7.868 Y-48.201 E20.5281
G1 X8.967 Y-48.818 E20.6929
G1 X8.994 Y-48.831 E20.6969
G1 X9.320 Y-48.981 E20.7438
G1 X9.348 Y-48.992 E20.7478
G1 X10.621 Y-49.454 E20.9248
G1 X10.642 Y-49.461 E20.9277
G1 X10.892 Y-49.535 E20.9618
G1 X10.913 Y-49.541 E20.9648
G1 X11.807 Y-49.749 E21.0847
G1 X11.829 Y-49.753 E21.0877
G1 X12.086 Y-49.797 E21.1218
G1 X12.108 Y-49.800 E21.1247
G1 X13.250 Y-49.926 E21.2749
G1 X13.268 Y-49.927 E21.2774
G1 X13.488 Y-49.940 E21.3061
G1 X13.507 Y-49.941 E21.3086
G1 X14.280 Y-49.948 E21.4097
G1 X14.298 Y-49.948 E21.4122
G1 X14.518 Y-49.939 E21.4409
G1 X14.537 Y-49.937 E21.4434
G1 X15.632 Y-49.837 E21.5873
G1 X15.651 Y-49.835 E21.5897
G1 X15.864 Y-49.805 E21.6178
G1 X15.882 Y-49.802 E21.6202
G1 X16.625 Y-49.659 E21.7192
G1 X16.643 Y-49.655 E21.7216
G1 X16.852 Y-49.604 E21.7498
G1 X16.870 Y-49.599 E21.7522
G1 X17.852 Y-49.308 E21.8862
G1 X17.874 Y-49.301 E21.8891
G1 X18.120 Y-49.212 E21.9234
G1 X18.141 Y-49.203 E21.9264
G1 X18.988 Y-48.838 E22.0470
G1 X19.008 Y-48.828 E22.0499
G1 X19.242 Y-48.710 E22.0842
G1 X19.262 Y-48.699 E22.0871
G1 X20.670 Y-47.878 E22.3004
G1 X20.709 Y-47.852 E22.3066
G1 X21.149 Y-47.515 E22.3790
G1 X21.185 Y-47.483 E22.3852
G1 X22.571 Y-46.110 E22.6404
G1 X22.603 Y-46.075 E22.6466
G1 X22.944 Y-45.639 E22.7191
G1 X22.971 Y-45.599 E22.7253
G1 X23.851 Y-44.122 E22.9502
G1 X24.500 Y-43.991 E23.0369
G1 X24.505 Y-43.990 E23.0375
G1 X24.560 Y-43.978 E23.0449
G1 X24.565 Y-43.977 E23.0455
G1 X24.759 Y-43.933 E23.0715
G1 X24.764 Y-43.932 E23.0722
G1 X24.819 Y-43.919 E23.0796
G1 X24.823 Y-43.917 E23.0802
G1 X26.899 Y-43.387 E23.3605
G1 X26.904 Y-43.385 E23.3611
G1 X26.959 Y-43.371 E23.3685
G1 X26.964 Y-43.369 E23.3692
G1 X27.155 Y-43.315 E23.3952
G1 X27.159 Y-43.314 E23.3958
G1 X27.214 Y-43.298 E23.4032
G1 X27.218 Y-43.296 E23.4038
G1 X29.240 Y-42.666 E23.6808
G1 X29.244 Y-42.665 E23.6813
G1 X29.284 Y-42.652 E23.6868
G1 X29.287 Y-42.651 E23.6873
G1 X29.429 Y-42.604 E23.7068
G1 X29.432 Y-42.603 E23.7073
G1 X29.472 Y-42.589 E23.7128
G1 X29.476 Y-42.588 E23.7133
G1 X30.533 Y-42.213 E23.8599
G1 X30.536 Y-42.212 E23.8604
G1 X30.576 Y-42.197 E23.8660
G1 X30.579 Y-42.196 E23.8664
G1 X30.718 Y-42.144 E23.8859
G1 X30.722 Y-42.142 E23.8864
G1 X30.762 Y-42.127 E23.8920
G1 X30.765 Y-42.125 E23.8924
G1 X32.732 Y-41.341 E24.1695
G1 X32.737 Y-41.339 E24.1701
G1 X32.789 Y-41.317 E24.1775
G1 X32.793 Y-41.315 E24.1781
G1 X32.976 Y-41.237 E24.2041
G1 X32.980 Y-41.235 E24.2047
G1 X33.032 Y-41.212 E24.2121
G1 X33.037 Y-41.210 E24.2128
G1 X34.983 Y-40.314 E24.4930
G1 X34.988 Y-40.312 E24.4937
G1 X35.039 Y-40.288 E24.5011
G1 X35.043 Y-40.286 E24.5017
G1 X35.221 Y-40.198 E24.5277
G1 X35.226 Y-40.196 E24.5283
G1 X35.276 Y-40.170 E24.5357
G1 X35.280 Y-40.168 E24.5364
G1 X37.156 Y-39.184 E24.8134
G1 X37.159 Y-39.183 E24.8139
G1 X37.197 Y-39.163 E24.8194
G1 X37.200 Y-39.161 E24.8199
G1 X37.331 Y-39.089 E24.8394
G1 X37.334 Y-39.087 E24.8399
G1 X37.371 Y-39.066 E24.8454
G1 X37.374 Y-39.065 E24.8459
G1 X38.346 Y-38.506 E24.9925
G1 X38.349 Y-38.504 E24.9930
G1 X38.386 Y-38.483 E24.9986
G1 X38.389 Y-38.481 E24.9990
G1 X38.517 Y-38.404 E25.0185
G1 X38.520 Y-38.402 E25.0190
G1 X38.556 Y-38.380 E25.0245
G1 X38.559 Y-38.378 E25.0250
G1 X40.353 Y-37.252 E25.3020
G1 X40.357 Y-37.249 E25.3027
G1 X40.404 Y-37.219 E25.3101
G1 X40.408 Y-37.216 E25.3107
G1 X40.574 Y-37.106 E25.3367
G1 X40.578 Y-37.103 E25.3373
G1 X40.625 Y-37.071 E25.3447
G1 X40.629 Y-37.069 E25.3454
G1 X42.382 Y-35.837 E25.6256
G1 X42.386 Y-35.834 E25.6263
G1 X42.432 Y-35.801 E25.6337
G1 X42.436 Y-35.798 E25.6343
G1 X42.595 Y-35.680 E25.6603
G1 X42.599 Y-35.677 E25.6609
G1 X42.644 Y-35.643 E25.6683
