; G-Code generated by Simplify3D(R) Version 3.1.0
; Jun 24, 2016 at 12:15:02 AM
; Settings Summary
;   processName,Process1
;   applyToModels,OUTDOOR_L
;   profileName,Rostock MAX v2 (modified)
;   profileVersion,2015-05-01 08:00:00
;   baseProfile,
;   printMaterial,PLA
;   printQuality,Medium
;   printExtruders,
;   extruderName,Primary Extruder
;   extruderToolheadNumber,0
;   extruderDiameter,0.5
;   extruderAutoWidth,0
;   extruderWidth,0.5
;   extrusionMultiplier,0.95
;   extruderUseRetract,1
;   extruderRetractionDistance,10
;   extruderExtraRestartDistance,0
;   extruderRetractionZLift,0.3
;   extruderRetractionSpeed,55
;   extruderUseCoasting,0
;   extruderCoastingDistance,1
;   extruderUseWipe,1
;   extruderWipeDistance,5
;   primaryExtruder,0
;   layerHeight,0.2
;   topSolidLayers,3
;   bottomSolidLayers,3
;   perimeterOutlines,3
;   printPerimetersInsideOut,1
;   startPointOption,2
;   startPointOriginX,0
;   startPointOriginY,0
;   startPointOriginZ,300
;   sequentialIslands,0
;   spiralVaseMode,0
;   firstLayerHeightPercentage,90
;   firstLayerWidthPercentage,100
;   firstLayerUnderspeed,0.5
;   useRaft,1
;   raftExtruder,0
;   raftLayers,3
;   raftOffset,3
;   raftSeparationDistance,0.14
;   raftInfill,85
;   disableRaftBaseLayers,0
;   useSkirt,1
;   skirtExtruder,0
;   skirtLayers,1
;   skirtOutlines,2
;   skirtOffset,4
;   usePrimePillar,0
;   primePillarExtruder,999
;   primePillarWidth,12
;   primePillarLocation,7
;   primePillarSpeedMultiplier,1
;   useOozeShield,0
;   oozeShieldExtruder,999
;   oozeShieldOffset,2
;   oozeShieldOutlines,1
;   oozeShieldSidewallShape,1
;   oozeShieldSidewallAngle,30
;   oozeShieldSpeedMultiplier,1
;   infillExtruder,0
;   internalInfillPattern,Rectilinear
;   externalInfillPattern,Rectilinear
;   infillPercentage,20
;   outlineOverlapPercentage,15
;   infillExtrusionWidthPercentage,150
;   minInfillLength,5
;   infillLayerInterval,1
;   infillAngles,45,-45
;   overlapInfillAngles,0
;   generateSupport,0
;   supportExtruder,0
;   supportInfillPercentage,30
;   supportExtraInflation,0
;   denseSupportLayers,0
;   denseSupportInfillPercentage,70
;   supportLayerInterval,1
;   supportHorizontalPartOffset,0.3
;   supportUpperSeparationLayers,1
;   supportLowerSeparationLayers,1
;   supportType,0
;   supportGridSpacing,4
;   maxOverhangAngle,45
;   supportAngles,0
;   temperatureName,Primary Extruder,Heated Bed
;   temperatureNumber,0,1
;   temperatureSetpointCount,1,1
;   temperatureSetpointLayers,1,1
;   temperatureSetpointTemperatures,205,60
;   temperatureStabilizeAtStartup,1,1
;   temperatureHeatedBed,0,1
;   temperatureRelayBetweenLayers,0,0
;   temperatureRelayBetweenLoops,0,0
;   fanLayers,1,2
;   fanSpeeds,0,100
;   blipFanToFullPower,1
;   adjustSpeedForCooling,1
;   minSpeedLayerTime,15
;   minCoolingSpeedSlowdown,20
;   increaseFanForCooling,0
;   minFanLayerTime,60
;   maxCoolingFanSpeed,100
;   increaseFanForBridging,0
;   bridgingFanSpeed,100
;   use5D,1
;   relativeEdistances,0
;   allowEaxisZeroing,1
;   independentExtruderAxes,0
;   includeM10123,0
;   stickySupport,1
;   applyToolheadOffsets,0
;   gcodeXoffset,0
;   gcodeYoffset,0
;   gcodeZoffset,0
;   overrideMachineDefinition,1
;   machineTypeOverride,1
;   strokeXoverride,197
;   strokeYoverride,197
;   strokeZoverride,375
;   originOffsetXoverride,98.5
;   originOffsetYoverride,98.5
;   originOffsetZoverride,0
;   homeXdirOverride,0
;   homeYdirOverride,0
;   homeZdirOverride,1
;   flipXoverride,1
;   flipYoverride,-1
;   flipZoverride,1
;   toolheadOffsets,0,0|0,0|0,0|0,0|0,0|0,0
;   overrideFirmwareConfiguration,1
;   firmwareTypeOverride,RepRap (Marlin/Repetier/Sprinter)
;   GPXconfigOverride,r2
;   baudRateOverride,115200
;   overridePrinterModels,1
;   printerModelsOverride
;   startingGcode,G28 ; home all axes
;   layerChangeGcode,
;   retractionGcode,
;   toolChangeGcode,
;   endingGcode,M104 S0 ; turn off extruder,M140 S0 ; turn off bed,G28 ; home axes,M84 ; disable motors
;   exportFileFormat,gcode
;   celebration,0
;   celebrationSong,Random Song
;   postProcessing,
;   defaultSpeed,3000
;   outlineUnderspeed,0.5
;   solidInfillUnderspeed,0.8
;   supportUnderspeed,0.8
;   rapidXYspeed,9000
;   rapidZspeed,1200
;   minBridgingArea,50
;   bridgingExtraInflation,0
;   bridgingExtrusionMultiplier,0.95
;   bridgingSpeedMultiplier,0.7
;   filamentDiameter,1.7
;   filamentPricePerKg,33.98
;   filamentDensity,1.25
;   useMinPrintHeight,0
;   minPrintHeight,0
;   useMaxPrintHeight,0
;   maxPrintHeight,0
;   useDiaphragm,0
;   diaphragmLayerInterval,20
;   robustSlicing,1
;   mergeAllIntoSolid,0
;   onlyRetractWhenCrossingOutline,1
;   retractBetweenLayers,1
;   useRetractionMinTravel,0
;   retractionMinTravel,3
;   retractWhileWiping,0
;   onlyWipeOutlines,1
;   avoidCrossingOutline,0
;   maxMovementDetourFactor,3
;   toolChangeRetractionDistance,12
;   toolChangeExtraRestartDistance,-0.5
;   toolChangeRetractionSpeed,600
;   allowThinWallGapFill,1
;   thinWallAllowedOverlapPercentage,10
;   horizontalSizeCompensation,0
G90
M82
M106 S0
M140 S60
M190 S60
M104 S205 T0
M109 S205 T0
G28 ; home all axes
G92 E0
G1 E-10.0000 F55
G1 Z0.862 F1200
; layer 1, Z = 0.5625
T0
; tool H0.625 W0.500
; skirt
G1 X-3.121 Y-9.582 F9000
G1 Z0.562 F1200
G1 E0.0000 F16
G92 E0
G1 X-3.188 Y-9.581 E0.0087 F1500
G1 X-3.958 Y-9.642 E0.1098
G1 X-4.024 Y-9.653 E0.1184
G1 X-6.668 Y-10.344 E0.4759
G1 X-6.730 Y-10.367 E0.4845
G1 X-7.432 Y-10.690 E0.5856
G1 X-7.489 Y-10.723 E0.5943
G1 X-8.967 Y-11.752 E0.8297
G1 X-9.351 Y-10.800 E0.9640
G1 X-9.678 Y-9.862 E1.0939
G1 X-10.114 Y-8.422 E1.2907
G1 X-10.502 Y-6.837 E1.5041
G1 X-10.739 Y-5.602 E1.6686
G1 X-10.906 Y-4.448 E1.8211
G1 X-11.294 Y-0.782 E2.3033
G1 X-10.776 Y3.389 E2.8530
G1 X-10.645 Y4.153 E2.9544
G1 X-10.231 Y6.026 E3.2052
G1 X-9.981 Y6.930 E3.3279
G1 X-9.407 Y8.655 E3.5658
G1 X-8.721 Y10.367 E3.8070
G1 X-8.460 Y10.942 E3.8895
G1 X-7.770 Y12.314 E4.0904
G1 X-7.242 Y13.253 E4.2313
G1 X-6.939 Y13.757 E4.3082
G1 X-6.106 Y15.024 E4.5065
G1 X-5.125 Y16.355 E4.7228
G1 X-4.704 Y16.880 E4.8109
G1 X-3.603 Y18.134 E5.0292
G1 X-2.704 Y19.061 E5.1980
G1 X-1.758 Y19.943 E5.3671
G1 X-0.773 Y20.785 E5.5366
G1 X0.342 Y21.650 E5.7212
G1 X1.164 Y22.232 E5.8530
G1 X1.845 Y22.678 E5.9594
G1 X3.074 Y23.421 E6.1473
G1 X3.725 Y23.780 E6.2446
G1 X5.155 Y24.498 E6.4538
G1 X5.158 Y24.499 E6.4542
G1 X5.188 Y24.514 E6.4585
G1 X5.190 Y24.516 E6.4589
G1 X5.294 Y24.570 E6.4742
G1 X5.296 Y24.571 E6.4746
G1 X5.326 Y24.587 E6.4790
G1 X5.328 Y24.588 E6.4793
G1 X6.417 Y25.177 E6.6412
G1 X7.003 Y24.592 E6.7494
G1 X8.553 Y22.341 E7.1069
G1 X8.596 Y22.290 E7.1157
G1 X9.146 Y21.735 E7.2177
G1 X9.197 Y21.692 E7.2265
G1 X11.455 Y20.108 E7.5873
G1 X11.513 Y20.075 E7.5960
G1 X12.221 Y19.747 E7.6981
G1 X12.284 Y19.724 E7.7068
G1 X14.185 Y19.227 E7.9638
G1 X14.202 Y19.223 E7.9661
G1 X14.394 Y19.182 E7.9919
G1 X14.411 Y19.179 E7.9941
G1 X15.095 Y19.065 E8.0848
G1 X15.112 Y19.062 E8.0870
G1 X15.308 Y19.038 E8.1128
G1 X15.325 Y19.037 E8.1150
G1 X16.545 Y18.945 E8.2750
G1 X16.566 Y18.944 E8.2778
G1 X16.812 Y18.939 E8.3100
G1 X16.833 Y18.939 E8.3128
G1 X17.700 Y18.971 E8.4262
G1 X17.721 Y18.973 E8.4289
G1 X17.966 Y18.996 E8.4612
G1 X17.987 Y18.998 E8.4639
G1 X20.333 Y19.353 E8.7743
G1 X20.399 Y19.369 E8.7832
G1 X21.155 Y19.629 E8.8877
G1 X21.217 Y19.657 E8.8966
G1 X23.676 Y21.046 E9.2660
G1 X23.732 Y21.085 E9.2750
G1 X24.345 Y21.597 E9.3795
G1 X24.394 Y21.646 E9.3884
G1 X26.314 Y23.961 E9.7818
G1 X26.351 Y24.014 E9.7902
G1 X26.726 Y24.669 E9.8890
G1 X26.753 Y24.728 E9.8975
G1 X27.663 Y27.236 E10.2465
G1 X27.680 Y27.298 E10.2549
G1 X27.812 Y28.042 E10.3537
G1 X27.818 Y28.106 E10.3621
G1 X27.833 Y32.079 E10.8818
G1 X27.832 Y32.091 E10.8833
G1 X27.829 Y32.227 E10.9011
G1 X27.828 Y32.238 E10.9026
G1 X27.801 Y32.709 E10.9643
G1 X27.780 Y41.457 E12.1085
G1 X27.780 Y41.471 E12.1103
G1 X27.774 Y41.632 E12.1313
G1 X27.773 Y41.645 E12.1331
G1 X27.730 Y42.209 E12.2071
G1 X27.729 Y42.223 E12.2089
G1 X27.711 Y42.383 E12.2299
G1 X27.709 Y42.396 E12.2317
G1 X27.225 Y45.611 E12.6569
G1 X27.182 Y45.738 E12.6744
G1 X26.422 Y47.113 E12.8799
G1 X26.338 Y47.217 E12.8974
G1 X22.048 Y50.905 E13.6374
G1 X21.932 Y50.973 E13.6549
G1 X20.458 Y51.518 E13.8604
G1 X20.327 Y51.542 E13.8779
G1 X12.911 Y51.533 E14.8479
G1 X12.766 Y51.504 E14.8672
G1 X11.166 Y50.842 E15.0938
G1 X11.043 Y50.760 E15.1130
G1 X9.288 Y49.011 E15.4371
G1 X8.877 Y48.950 E15.4914
G1 X8.874 Y48.950 E15.4918
G1 X8.839 Y48.944 E15.4964
G1 X8.836 Y48.944 E15.4968
G1 X8.714 Y48.923 E15.5130
G1 X8.711 Y48.923 E15.5134
G1 X8.676 Y48.917 E15.5180
G1 X8.673 Y48.916 E15.5184
G1 X7.224 Y48.653 E15.7111
G1 X7.222 Y48.652 E15.7114
G1 X7.194 Y48.647 E15.7152
G1 X7.191 Y48.646 E15.7155
G1 X7.092 Y48.627 E15.7287
G1 X7.089 Y48.626 E15.7291
G1 X7.061 Y48.621 E15.7328
G1 X7.059 Y48.620 E15.7332
G1 X5.939 Y48.386 E15.8827
G1 X5.936 Y48.385 E15.8832
G1 X5.896 Y48.376 E15.8886
G1 X5.892 Y48.375 E15.8890
G1 X5.750 Y48.343 E15.9081
G1 X5.747 Y48.342 E15.9085
G1 X5.706 Y48.332 E15.9140
G1 X5.703 Y48.332 E15.9144
G1 X3.729 Y47.840 E16.1805
G1 X3.725 Y47.838 E16.1811
G1 X3.671 Y47.824 E16.1884
G1 X3.666 Y47.823 E16.1890
G1 X3.478 Y47.771 E16.2146
G1 X3.473 Y47.770 E16.2152
G1 X3.420 Y47.754 E16.2225
G1 X3.415 Y47.753 E16.2231
G1 X1.104 Y47.050 E16.5390
G1 X1.100 Y47.048 E16.5397
G1 X1.047 Y47.032 E16.5468
G1 X1.043 Y47.030 E16.5475
G1 X0.859 Y46.970 E16.5727
G1 X0.855 Y46.968 E16.5734
G1 X0.803 Y46.950 E16.5806
G1 X0.798 Y46.948 E16.5812
G1 X-1.158 Y46.244 E16.8531
G1 X-1.163 Y46.242 E16.8538
G1 X-1.217 Y46.222 E16.8614
G1 X-1.222 Y46.220 E16.8621
G1 X-1.412 Y46.146 E16.8888
G1 X-1.417 Y46.144 E16.8894
G1 X-1.470 Y46.122 E16.8970
G1 X-1.475 Y46.121 E16.8976
G1 X-3.800 Y45.141 E17.2276
G1 X-3.804 Y45.139 E17.2282
G1 X-3.858 Y45.116 E17.2358
G1 X-3.862 Y45.114 E17.2365
G1 X-4.047 Y45.031 E17.2630
G1 X-4.051 Y45.029 E17.2636
G1 X-4.104 Y45.004 E17.2712
G1 X-4.108 Y45.002 E17.2718
G1 X-6.083 Y44.045 E17.5589
G1 X-6.087 Y44.043 E17.5594
G1 X-6.132 Y44.020 E17.5660
G1 X-6.135 Y44.018 E17.5665
G1 X-6.293 Y43.938 E17.5896
G1 X-6.296 Y43.936 E17.5902
G1 X-6.341 Y43.912 E17.5968
G1 X-6.345 Y43.910 E17.5974
G1 X-8.056 Y42.981 E17.8521
G1 X-8.060 Y42.979 E17.8527
G1 X-8.106 Y42.953 E17.8596
G1 X-8.110 Y42.951 E17.8602
G1 X-8.272 Y42.858 E17.8845
G1 X-8.275 Y42.856 E17.8851
G1 X-8.321 Y42.829 E17.8920
G1 X-8.325 Y42.827 E17.8926
G1 X-10.212 Y41.681 E18.1814
G1 X-10.215 Y41.679 E18.1818
G1 X-10.249 Y41.658 E18.1871
G1 X-10.252 Y41.656 E18.1875
G1 X-10.372 Y41.580 E18.2060
G1 X-10.375 Y41.579 E18.2065
G1 X-10.408 Y41.557 E18.2118
G1 X-10.411 Y41.555 E18.2122
G1 X-11.435 Y40.880 E18.3726
G1 X-11.438 Y40.879 E18.3730
G1 X-11.468 Y40.858 E18.3777
G1 X-11.470 Y40.857 E18.3781
G1 X-11.575 Y40.785 E18.3947
G1 X-11.578 Y40.783 E18.3951
G1 X-11.607 Y40.763 E18.3998
G1 X-11.610 Y40.761 E18.4002
G1 X-12.851 Y39.883 E18.5991
G1 X-12.854 Y39.881 E18.5995
G1 X-12.884 Y39.859 E18.6044
G1 X-12.887 Y39.857 E18.6049
G1 X-12.994 Y39.779 E18.6222
G1 X-12.996 Y39.777 E18.6226
G1 X-13.026 Y39.755 E18.6275
G1 X-13.029 Y39.753 E18.6279
G1 X-14.112 Y38.930 E18.8058
G1 X-14.114 Y38.928 E18.8062
G1 X-14.136 Y38.911 E18.8099
G1 X-14.138 Y38.909 E18.8102
G1 X-14.218 Y38.847 E18.8234
G1 X-14.220 Y38.846 E18.8237
G1 X-14.243 Y38.828 E18.8275
G1 X-14.244 Y38.826 E18.8278
G1 X-15.237 Y38.030 E18.9942
G1 X-15.240 Y38.028 E18.9947
G1 X-15.273 Y38.000 E19.0004
G1 X-15.276 Y37.998 E19.0009
G1 X-15.394 Y37.900 E19.0209
G1 X-15.396 Y37.897 E19.0214
G1 X-15.430 Y37.869 E19.0271
G1 X-15.432 Y37.867 E19.0276
G1 X-17.014 Y36.491 E19.3017
G1 X-17.017 Y36.488 E19.3023
G1 X-17.053 Y36.456 E19.3087
G1 X-17.057 Y36.453 E19.3092
G1 X-17.183 Y36.338 E19.3316
G1 X-17.186 Y36.335 E19.3321
G1 X-17.221 Y36.302 E19.3384
G1 X-17.225 Y36.299 E19.3390
G1 X-18.551 Y35.037 E19.5784
G1 X-18.554 Y35.034 E19.5790
G1 X-18.590 Y34.999 E19.5856
G1 X-18.594 Y34.996 E19.5862
G1 X-18.720 Y34.870 E19.6095
G1 X-18.723 Y34.867 E19.6101
G1 X-18.759 Y34.831 E19.6168
G1 X-18.762 Y34.828 E19.6173
G1 X-20.365 Y33.154 E19.9204
G1 X-20.368 Y33.151 E19.9210
G1 X-20.402 Y33.114 E19.9276
G1 X-20.405 Y33.111 E19.9282
G1 X-20.526 Y32.979 E19.9516
G1 X-20.529 Y32.975 E19.9522
G1 X-20.563 Y32.937 E19.9589
G1 X-20.566 Y32.934 E19.9594
G1 X-21.760 Y31.566 E20.1969
G1 X-21.762 Y31.563 E20.1975
G1 X-21.794 Y31.526 E20.2038
G1 X-21.797 Y31.522 E20.2044
G1 X-21.906 Y31.391 E20.2267
G1 X-21.909 Y31.388 E20.2273
G1 X-21.939 Y31.350 E20.2336
G1 X-21.942 Y31.347 E20.2342
G1 X-23.166 Y29.811 E20.4910
G1 X-23.168 Y29.809 E20.4915
G1 X-23.194 Y29.775 E20.4970
G1 X-23.196 Y29.773 E20.4975
G1 X-23.286 Y29.655 E20.5168
G1 X-23.289 Y29.652 E20.5173
G1 X-23.314 Y29.618 E20.5228
G1 X-23.316 Y29.616 E20.5233
G1 X-24.318 Y28.254 E20.7444
G1 X-24.321 Y28.250 E20.7450
G1 X-24.351 Y28.208 E20.7519
G1 X-24.354 Y28.204 E20.7524
G1 X-24.459 Y28.054 E20.7764
G1 X-24.461 Y28.050 E20.7770
G1 X-24.491 Y28.007 E20.7838
G1 X-24.493 Y28.004 E20.7843
G1 X-25.833 Y25.989 E21.1008
G1 X-25.835 Y25.985 E21.1014
G1 X-25.863 Y25.943 E21.1080
G1 X-25.865 Y25.939 E21.1086
G1 X-25.960 Y25.789 E21.1319
G1 X-25.962 Y25.785 E21.1324
G1 X-25.989 Y25.742 E21.1391
G1 X-25.991 Y25.738 E21.1396
G1 X-26.790 Y24.407 E21.3427
G1 X-26.792 Y24.403 E21.3432
G1 X-26.814 Y24.366 E21.3489
G1 X-26.816 Y24.363 E21.3494
G1 X-26.892 Y24.230 E21.3694
G1 X-26.894 Y24.226 E21.3699
G1 X-26.915 Y24.189 E21.3756
G1 X-26.917 Y24.185 E21.3761
G1 X-27.914 Y22.363 E21.6478
G1 X-27.917 Y22.358 E21.6484
G1 X-27.943 Y22.309 E21.6558
G1 X-27.945 Y22.304 E21.6565
G1 X-28.036 Y22.128 E21.6824
G1 X-28.038 Y22.124 E21.6830
G1 X-28.063 Y22.073 E21.6904
G1 X-28.065 Y22.069 E21.6910
G1 X-29.147 Y19.826 E22.0167
G1 X-29.149 Y19.821 E22.0173
G1 X-29.171 Y19.772 E22.0244
G1 X-29.173 Y19.768 E22.0250
G1 X-29.252 Y19.594 E22.0501
G1 X-29.254 Y19.589 E22.0507
G1 X-29.276 Y19.539 E22.0578
G1 X-29.278 Y19.535 E22.0584
G1 X-29.916 Y18.024 E22.2730
G1 X-29.917 Y18.020 E22.2734
G1 X-29.932 Y17.984 E22.2786
G1 X-29.933 Y17.981 E22.2790
G1 X-29.985 Y17.853 E22.2971
G1 X-29.986 Y17.849 E22.2976
G1 X-30.000 Y17.813 E22.3027
G1 X-30.001 Y17.810 E22.3031
G1 X-30.651 Y16.102 E22.5420
G1 X-30.652 Y16.098 E22.5426
G1 X-30.670 Y16.049 E22.5495
G1 X-30.672 Y16.045 E22.5501
G1 X-30.733 Y15.870 E22.5743
G1 X-30.735 Y15.866 E22.5749
G1 X-30.752 Y15.816 E22.5818
G1 X-30.753 Y15.812 E22.5824
G1 X-31.500 Y13.520 E22.8976
G1 X-31.502 Y13.516 E22.8981
G1 X-31.516 Y13.470 E22.9045
G1 X-31.518 Y13.466 E22.9051
G1 X-31.567 Y13.300 E22.9277
G1 X-31.569 Y13.296 E22.9283
G1 X-31.582 Y13.248 E22.9347
G1 X-31.584 Y13.244 E22.9353
G1 X-32.005 Y11.723 E23.1418
G1 X-32.006 Y11.718 E23.1424
G1 X-32.020 Y11.664 E23.1497
G1 X-32.022 Y11.660 E23.1503
G1 X-32.069 Y11.471 E23.1758
G1 X-32.070 Y11.466 E23.1764
G1 X-32.083 Y11.412 E23.1837
G1 X-32.084 Y11.407 E23.1843
G1 X-32.696 Y8.665 E23.5519
G1 X-32.697 Y8.660 E23.5524
G1 X-32.708 Y8.608 E23.5595
G1 X-32.709 Y8.603 E23.5601
G1 X-32.745 Y8.418 E23.5847
G1 X-32.746 Y8.414 E23.5853
G1 X-32.756 Y8.361 E23.5923
G1 X-32.757 Y8.357 E23.5929
G1 X-33.043 Y6.695 E23.8135
G1 X-33.043 Y6.690 E23.8141
G1 X-33.052 Y6.634 E23.8215
G1 X-33.053 Y6.629 E23.8222
G1 X-33.082 Y6.432 E23.8482
G1 X-33.082 Y6.427 E23.8489
G1 X-33.090 Y6.371 E23.8563
G1 X-33.090 Y6.366 E23.8569
G1 X-33.795 Y0.463 E24.6345
G1 X-33.780 Y0.304 E24.6553
G1 X-33.338 Y-1.103 E24.8483
G1 X-33.734 Y-2.333 E25.0174
G1 X-33.750 Y-2.490 E25.0380
G1 X-33.253 Y-7.111 E25.6458
G1 X-33.253 Y-7.114 E25.6463
G1 X-33.248 Y-7.154 E25.6515
G1 X-33.248 Y-7.157 E25.6519
G1 X-33.231 Y-7.295 E25.6701
G1 X-33.230 Y-7.298 E25.6705
G1 X-33.225 Y-7.337 E25.6757
G1 X-33.224 Y-7.341 E25.6761
G1 X-32.969 Y-9.112 E25.9102
G1 X-32.968 Y-9.116 E25.9106
G1 X-32.962 Y-9.156 E25.9160
G1 X-32.962 Y-9.159 E25.9164
G1 X-32.939 Y-9.300 E25.9351
G1 X-32.938 Y-9.304 E25.9356
G1 X-32.931 Y-9.344 E25.9409
G1 X-32.931 Y-9.347 E25.9413
G1 X-32.679 Y-10.725 E26.1246
G1 X-32.679 Y-10.728 E26.1250
G1 X-32.672 Y-10.764 E26.1297
G1 X-32.671 Y-10.767 E26.1302
G1 X-32.646 Y-10.894 E26.1470
G1 X-32.645 Y-10.897 E26.1474
G1 X-32.638 Y-10.933 E26.1522
