; G-Code generated by Simplify3D(R) Version 3.1.0
; Oct 10, 2016 at 1:03:09 AM
; Settings Summary
;   processName,Process1
;   applyToModels,Fidget Cube
;   profileName,Rostock MAX v2 (modified)
;   profileVersion,2015-05-01 08:00:00
;   baseProfile,
;   printMaterial,PLA
;   printQuality,Medium
;   printExtruders,
;   extruderName,Primary Extruder
;   extruderToolheadNumber,0
;   extruderDiameter,0.4
;   extruderAutoWidth,1
;   extruderWidth,0.48
;   extrusionMultiplier,1
;   extruderUseRetract,1
;   extruderRetractionDistance,2
;   extruderExtraRestartDistance,0
;   extruderRetractionZLift,0
;   extruderRetractionSpeed,1800
;   extruderUseCoasting,1
;   extruderCoastingDistance,1
;   extruderUseWipe,0
;   extruderWipeDistance,5
;   primaryExtruder,0
;   layerHeight,0.3
;   topSolidLayers,3
;   bottomSolidLayers,3
;   perimeterOutlines,3
;   printPerimetersInsideOut,1
;   startPointOption,2
;   startPointOriginX,0
;   startPointOriginY,0
;   startPointOriginZ,300
;   sequentialIslands,0
;   spiralVaseMode,0
;   firstLayerHeightPercentage,25
;   firstLayerWidthPercentage,100
;   firstLayerUnderspeed,0.4
;   useRaft,0
;   raftExtruder,0
;   raftLayers,3
;   raftOffset,15
;   raftSeparationDistance,0.14
;   raftInfill,85
;   disableRaftBaseLayers,0
;   useSkirt,1
;   skirtExtruder,0
;   skirtLayers,1
;   skirtOutlines,2
;   skirtOffset,5
;   usePrimePillar,0
;   primePillarExtruder,999
;   primePillarWidth,12
;   primePillarLocation,7
;   primePillarSpeedMultiplier,1
;   useOozeShield,0
;   oozeShieldExtruder,999
;   oozeShieldOffset,2
;   oozeShieldOutlines,1
;   oozeShieldSidewallShape,1
;   oozeShieldSidewallAngle,30
;   oozeShieldSpeedMultiplier,1
;   infillExtruder,0
;   internalInfillPattern,Rectilinear
;   externalInfillPattern,Rectilinear
;   infillPercentage,20
;   outlineOverlapPercentage,40
;   infillExtrusionWidthPercentage,100
;   minInfillLength,3
;   infillLayerInterval,1
;   infillAngles,45,-45
;   overlapInfillAngles,0
;   generateSupport,0
;   supportExtruder,0
;   supportInfillPercentage,30
;   supportExtraInflation,0
;   denseSupportLayers,0
;   denseSupportInfillPercentage,70
;   supportLayerInterval,1
;   supportHorizontalPartOffset,0.3
;   supportUpperSeparationLayers,1
;   supportLowerSeparationLayers,1
;   supportType,1
;   supportGridSpacing,4
;   maxOverhangAngle,45
;   supportAngles,0
;   temperatureName,Primary Extruder,Heated Bed
;   temperatureNumber,0,1
;   temperatureSetpointCount,1,1
;   temperatureSetpointLayers,1,1
;   temperatureSetpointTemperatures,205,60
;   temperatureStabilizeAtStartup,1,0
;   temperatureHeatedBed,0,1
;   temperatureRelayBetweenLayers,0,0
;   temperatureRelayBetweenLoops,0,0
;   fanLayers,1,2
;   fanSpeeds,0,100
;   blipFanToFullPower,1
;   adjustSpeedForCooling,1
;   minSpeedLayerTime,15
;   minCoolingSpeedSlowdown,20
;   increaseFanForCooling,0
;   minFanLayerTime,60
;   maxCoolingFanSpeed,100
;   increaseFanForBridging,0
;   bridgingFanSpeed,100
;   use5D,1
;   relativeEdistances,0
;   allowEaxisZeroing,1
;   independentExtruderAxes,0
;   includeM10123,0
;   stickySupport,1
;   applyToolheadOffsets,0
;   gcodeXoffset,0
;   gcodeYoffset,0
;   gcodeZoffset,0
;   overrideMachineDefinition,1
;   machineTypeOverride,1
;   strokeXoverride,197
;   strokeYoverride,197
;   strokeZoverride,375
;   originOffsetXoverride,98.5
;   originOffsetYoverride,98.5
;   originOffsetZoverride,0
;   homeXdirOverride,0
;   homeYdirOverride,0
;   homeZdirOverride,1
;   flipXoverride,1
;   flipYoverride,-1
;   flipZoverride,1
;   toolheadOffsets,0,0|0,0|0,0|0,0|0,0|0,0
;   overrideFirmwareConfiguration,1
;   firmwareTypeOverride,RepRap (Marlin/Repetier/Sprinter)
;   GPXconfigOverride,r2
;   baudRateOverride,115200
;   overridePrinterModels,1
;   printerModelsOverride
;   startingGcode,G28 ; home all axes
;   layerChangeGcode,
;   retractionGcode,
;   toolChangeGcode,
;   endingGcode,M104 S0 ; turn off extruder,M140 S0 ; turn off bed,G28 ; home axes,M84 ; disable motors
;   exportFileFormat,gcode
;   celebration,0
;   celebrationSong,Random Song
;   postProcessing,
;   defaultSpeed,1500
;   outlineUnderspeed,0.5
;   solidInfillUnderspeed,0.8
;   supportUnderspeed,0.8
;   rapidXYspeed,9000
;   rapidZspeed,1200
;   minBridgingArea,50
;   bridgingExtraInflation,0
;   bridgingExtrusionMultiplier,0.8
;   bridgingSpeedMultiplier,0.7
;   filamentDiameter,1.75
;   filamentPricePerKg,22
;   filamentDensity,1.25
;   useMinPrintHeight,0
;   minPrintHeight,0.05
;   useMaxPrintHeight,0
;   maxPrintHeight,0
;   useDiaphragm,0
;   diaphragmLayerInterval,20
;   robustSlicing,1
;   mergeAllIntoSolid,1
;   onlyRetractWhenCrossingOutline,0
;   retractBetweenLayers,0
;   useRetractionMinTravel,0
;   retractionMinTravel,3
;   retractWhileWiping,1
;   onlyWipeOutlines,1
;   avoidCrossingOutline,1
;   maxMovementDetourFactor,1.5
;   toolChangeRetractionDistance,12
;   toolChangeExtraRestartDistance,-0.5
;   toolChangeRetractionSpeed,600
;   allowThinWallGapFill,0
;   thinWallAllowedOverlapPercentage,10
;   horizontalSizeCompensation,0
G90
M82
M106 S0
M140 S60
M104 S205 T0
M109 S205 T0
G28 ; home all axes
G92 E0
G1 E-2.0000 F1800
G1 Z0.075 F1200
; layer 1, Z = 0.075
T0
; tool H0.300 W0.480
; skirt
G1 X24.510 Y0.100 F9000
G1 E0.0000 F540
G92 E0
G1 X24.875 Y0.647 E0.0394 F600
G1 X24.908 Y0.709 E0.0436
G1 X25.312 Y1.683 E0.1067
G1 X25.332 Y1.751 E0.1110
G1 X25.861 Y4.412 E0.2734
G1 X25.867 Y4.447 E0.2755
G1 X25.918 Y4.971 E0.3070
G1 X25.920 Y5.006 E0.3091
G1 X25.920 Y18.483 E1.1160
G1 X25.921 Y18.486 E1.1161
G1 X25.921 Y35.983 E2.1637
G1 X25.919 Y36.019 E2.1658
G1 X25.868 Y36.543 E2.1973
G1 X25.862 Y36.578 E2.1995
G1 X25.331 Y39.248 E2.3625
G1 X25.311 Y39.316 E2.3667
G1 X24.907 Y40.290 E2.4298
G1 X24.874 Y40.352 E2.4340
G1 X23.204 Y42.855 E2.6142
G1 X23.159 Y42.909 E2.6184
G1 X22.411 Y43.658 E2.6818
G1 X22.356 Y43.703 E2.6860
G1 X19.853 Y45.373 E2.8661
G1 X19.791 Y45.406 E2.8704
G1 X18.817 Y45.810 E2.9335
G1 X18.749 Y45.830 E2.9377
G1 X16.079 Y46.361 E3.1007
G1 X16.044 Y46.367 E3.1028
G1 X15.520 Y46.418 E3.1344
G1 X15.484 Y46.420 E3.1365
G1 X2.776 Y46.420 E3.8973
G1 X2.511 Y46.310 E3.9144
G1 X0.001 Y43.800 E4.1270
G1 X-2.509 Y46.310 E4.3396
G1 X-2.774 Y46.420 E4.3567
G1 X-15.482 Y46.420 E5.1175
G1 X-15.518 Y46.418 E5.1196
G1 X-16.042 Y46.367 E5.1512
G1 X-16.077 Y46.361 E5.1533
G1 X-18.747 Y45.830 E5.3163
G1 X-18.815 Y45.810 E5.3205
G1 X-19.789 Y45.406 E5.3836
G1 X-19.851 Y45.373 E5.3879
G1 X-22.354 Y43.703 E5.5680
G1 X-22.409 Y43.658 E5.5722
G1 X-23.157 Y42.909 E5.6356
G1 X-23.202 Y42.855 E5.6398
G1 X-24.872 Y40.352 E5.8200
G1 X-24.905 Y40.290 E5.8242
G1 X-25.309 Y39.316 E5.8873
G1 X-25.329 Y39.248 E5.8916
G1 X-25.859 Y36.583 E6.0542
G1 X-25.865 Y36.548 E6.0564
G1 X-25.916 Y36.024 E6.0879
G1 X-25.918 Y35.988 E6.0900
G1 X-25.918 Y22.519 E6.8964
G1 X-25.920 Y22.514 E6.8967
G1 X-25.920 Y5.006 E7.9449
G1 X-25.918 Y4.971 E7.9470
G1 X-25.867 Y4.447 E7.9785
G1 X-25.861 Y4.412 E7.9806
G1 X-25.332 Y1.751 E8.1431
G1 X-25.312 Y1.683 E8.1473
G1 X-24.909 Y0.709 E8.2104
G1 X-24.875 Y0.647 E8.2146
G1 X-24.510 Y0.100 E8.2540
G1 X-24.875 Y-0.447 E8.2934
G1 X-24.908 Y-0.509 E8.2976
G1 X-25.312 Y-1.483 E8.3607
G1 X-25.332 Y-1.551 E8.3649
G1 X-25.861 Y-4.211 E8.5273
G1 X-25.867 Y-4.246 E8.5294
G1 X-25.918 Y-4.770 E8.5610
G1 X-25.920 Y-4.805 E8.5631
G1 X-25.920 Y-20.545 E9.5054
G1 X-25.921 Y-35.885 E10.4237
G1 X-25.919 Y-35.920 E10.4259
G1 X-25.867 Y-36.444 E10.4574
G1 X-25.862 Y-36.479 E10.4595
G1 X-25.331 Y-39.148 E10.6224
G1 X-25.311 Y-39.216 E10.6267
G1 X-24.907 Y-40.190 E10.6898
G1 X-24.874 Y-40.252 E10.6940
G1 X-23.204 Y-42.755 E10.8741
G1 X-23.159 Y-42.810 E10.8784
G1 X-22.410 Y-43.558 E10.9417
G1 X-22.356 Y-43.603 E10.9460
G1 X-19.853 Y-45.273 E11.1261
G1 X-19.791 Y-45.306 E11.1304
G1 X-18.817 Y-45.710 E11.1935
G1 X-18.749 Y-45.730 E11.1977
G1 X-16.079 Y-46.261 E11.3607
G1 X-16.044 Y-46.267 E11.3628
G1 X-15.520 Y-46.318 E11.3943
G1 X-15.484 Y-46.320 E11.3965
G1 X-2.776 Y-46.320 E12.1573
G1 X-2.511 Y-46.210 E12.1744
G1 X0.000 Y-43.699 E12.3871
G1 X2.511 Y-46.210 E12.5997
G1 X2.776 Y-46.320 E12.6169
G1 X15.484 Y-46.320 E13.3777
G1 X15.520 Y-46.318 E13.3798
G1 X16.044 Y-46.267 E13.4113
G1 X16.079 Y-46.261 E13.4135
G1 X18.749 Y-45.730 E13.5764
G1 X18.817 Y-45.710 E13.5807
G1 X19.791 Y-45.306 E13.6438
G1 X19.853 Y-45.273 E13.6480
G1 X22.356 Y-43.603 E13.8282
G1 X22.410 Y-43.558 E13.8324
G1 X23.159 Y-42.809 E13.8958
G1 X23.204 Y-42.755 E13.9000
G1 X24.874 Y-40.252 E14.0801
G1 X24.907 Y-40.190 E14.0844
G1 X25.311 Y-39.216 E14.1475
G1 X25.331 Y-39.148 E14.1517
G1 X25.862 Y-36.482 E14.3145
G1 X25.867 Y-36.447 E14.3166
G1 X25.919 Y-35.922 E14.3481
G1 X25.920 Y-35.887 E14.3502
G1 X25.921 Y-18.386 E15.3980
G1 X25.920 Y-18.383 E15.3982
G1 X25.920 Y-4.806 E16.2110
G1 X25.918 Y-4.771 E16.2131
G1 X25.867 Y-4.247 E16.2447
G1 X25.861 Y-4.212 E16.2468
G1 X25.332 Y-1.551 E16.4092
G1 X25.312 Y-1.483 E16.4134
G1 X25.012 Y-0.760 E16.4603
G1 X24.908 Y-0.509 F600
G1 X24.875 Y-0.447 F600
G1 X24.510 Y0.100 F600
G92 E0
G1 E-2.0000 F1800
G1 X23.933 Y0.100 F9000
G1 E0.0000 F1800
G92 E0
G1 X24.463 Y0.894 E0.0571 F600
G1 X24.474 Y0.915 E0.0585
G1 X24.859 Y1.845 E0.1189
G1 X24.866 Y1.868 E0.1203
G1 X25.388 Y4.494 E0.2806
G1 X25.390 Y4.506 E0.2813
G1 X25.439 Y5.006 E0.3114
G1 X25.440 Y5.018 E0.3121
G1 X25.440 Y18.579 E1.1239
G1 X25.441 Y18.581 E1.1241
G1 X25.441 Y35.972 E2.1652
G1 X25.440 Y35.983 E2.1660
G1 X25.391 Y36.484 E2.1961
G1 X25.389 Y36.496 E2.1968
G1 X24.865 Y39.131 E2.3577
G1 X24.858 Y39.154 E2.3591
G1 X24.473 Y40.085 E2.4194
G1 X24.462 Y40.105 E2.4208
G1 X22.818 Y42.569 E2.5981
G1 X22.803 Y42.587 E2.5995
G1 X22.088 Y43.302 E2.6600
G1 X22.070 Y43.317 E2.6614
G1 X19.606 Y44.961 E2.8387
G1 X19.586 Y44.972 E2.8401
G1 X18.655 Y45.357 E2.9004
G1 X18.632 Y45.364 E2.9019
G1 X15.997 Y45.888 E3.0627
G1 X15.985 Y45.890 E3.0634
G1 X15.484 Y45.939 E3.0936
G1 X15.473 Y45.940 E3.0943
G1 X2.872 Y45.940 E3.8487
G1 X2.783 Y45.903 E3.8544
G1 X0.001 Y43.121 E4.0900
G1 X-2.781 Y45.903 E4.3255
G1 X-2.870 Y45.940 E4.3313
G1 X-15.471 Y45.940 E5.0857
G1 X-15.482 Y45.939 E5.0864
G1 X-15.983 Y45.890 E5.1165
G1 X-15.995 Y45.888 E5.1172
G1 X-18.630 Y45.364 E5.2781
G1 X-18.653 Y45.357 E5.2795
G1 X-19.584 Y44.972 E5.3398
G1 X-19.604 Y44.961 E5.3412
G1 X-22.068 Y43.317 E5.5185
G1 X-22.086 Y43.302 E5.5199
G1 X-22.801 Y42.587 E5.5804
G1 X-22.816 Y42.569 E5.5818
G1 X-24.460 Y40.105 E5.7592
G1 X-24.471 Y40.084 E5.7606
G1 X-24.856 Y39.154 E5.8209
G1 X-24.863 Y39.131 E5.8223
G1 X-25.386 Y36.501 E5.9828
G1 X-25.388 Y36.489 E5.9835
G1 X-25.437 Y35.988 E6.0137
G1 X-25.438 Y35.977 E6.0144
G1 X-25.438 Y22.424 E6.8258
G1 X-25.440 Y22.419 E6.8261
G1 X-25.440 Y5.018 E7.8678
G1 X-25.439 Y5.006 E7.8686
G1 X-25.390 Y4.506 E7.8987
G1 X-25.388 Y4.494 E7.8994
G1 X-24.866 Y1.868 E8.0597
G1 X-24.859 Y1.845 E8.0611
G1 X-24.474 Y0.915 E8.1214
G1 X-24.463 Y0.894 E8.1228
G1 X-23.933 Y0.100 E8.1799
G1 X-24.463 Y-0.694 E8.2371
G1 X-24.474 Y-0.714 E8.2385
G1 X-24.859 Y-1.645 E8.2988
G1 X-24.866 Y-1.668 E8.3002
G1 X-25.388 Y-4.293 E8.4604
G1 X-25.390 Y-4.305 E8.4612
G1 X-25.439 Y-4.805 E8.4913
G1 X-25.440 Y-4.817 E8.4920
G1 X-25.440 Y-20.545 E9.4336
G1 X-25.441 Y-35.873 E10.3512
G1 X-25.440 Y-35.885 E10.3519
G1 X-25.391 Y-36.385 E10.3821
G1 X-25.389 Y-36.397 E10.3828
G1 X-24.865 Y-39.031 E10.5436
G1 X-24.858 Y-39.054 E10.5450
G1 X-24.473 Y-39.984 E10.6053
G1 X-24.462 Y-40.005 E10.6067
G1 X-22.818 Y-42.469 E10.7840
G1 X-22.803 Y-42.487 E10.7854
G1 X-22.088 Y-43.202 E10.8459
G1 X-22.070 Y-43.217 E10.8473
G1 X-19.606 Y-44.861 E11.0246
G1 X-19.586 Y-44.872 E11.0261
G1 X-18.655 Y-45.257 E11.0864
G1 X-18.632 Y-45.264 E11.0878
G1 X-15.997 Y-45.788 E11.2486
G1 X-15.985 Y-45.790 E11.2493
G1 X-15.484 Y-45.839 E11.2795
G1 X-15.473 Y-45.840 E11.2802
G1 X-2.872 Y-45.840 E12.0346
G1 X-2.783 Y-45.803 E12.0403
G1 X0.000 Y-43.020 E12.2760
G1 X2.783 Y-45.803 E12.5116
G1 X2.872 Y-45.840 E12.5173
G1 X15.473 Y-45.840 E13.2717
G1 X15.484 Y-45.839 E13.2724
G1 X15.985 Y-45.790 E13.3026
G1 X15.997 Y-45.788 E13.3033
G1 X18.632 Y-45.264 E13.4641
G1 X18.655 Y-45.257 E13.4656
G1 X19.585 Y-44.872 E13.5259
G1 X19.606 Y-44.861 E13.5273
G1 X22.070 Y-43.217 E13.7046
G1 X22.088 Y-43.202 E13.7060
G1 X22.803 Y-42.487 E13.7665
G1 X22.818 Y-42.468 E13.7679
G1 X24.462 Y-40.005 E13.9452
G1 X24.473 Y-39.984 E13.9466
G1 X24.858 Y-39.054 E14.0069
G1 X24.865 Y-39.031 E14.0083
G1 X25.389 Y-36.399 E14.1690
G1 X25.390 Y-36.388 E14.1697
G1 X25.440 Y-35.887 E14.1998
G1 X25.440 Y-35.875 E14.2005
G1 X25.441 Y-18.481 E15.2419
G1 X25.440 Y-18.479 E15.2421
G1 X25.440 Y-4.818 E16.0599
G1 X25.439 Y-4.806 E16.0606
G1 X25.390 Y-4.306 E16.0907
G1 X25.388 Y-4.294 E16.0914
G1 X24.866 Y-1.668 E16.2517
G1 X24.859 Y-1.645 E16.2531
G1 X24.482 Y-0.735 E16.3121
G1 X24.474 Y-0.715 F600
G1 X24.463 Y-0.694 F600
G1 X23.933 Y0.100 F600
G92 E0
G1 E-2.0000 F1800
; inner perimeter
G1 X18.695 Y-3.652 F9000
G1 E0.0000 F1800
G92 E0
G1 X17.876 Y-2.425 E0.0883 F500
G1 X16.649 Y-1.606 E0.1766
G1 X15.114 Y-1.301 E0.2703
G1 X6.191 Y-1.301 E0.8045
G1 X6.191 Y-18.901 E1.8582
G1 X19.000 Y-18.901 E2.6250
G1 X19.000 Y-5.188 E3.4460
G1 X18.890 Y-4.633 E3.4799
G1 X18.695 Y-3.652 F500
G92 E0
G1 E-2.0000 F1800
; inner perimeter
G1 X19.147 Y-3.465 F9000
G1 E0.0000 F1800
G92 E0
G1 X18.222 Y-2.079 E0.0997 F400
G1 X16.836 Y-1.154 E0.1995
G1 X15.161 Y-0.821 E0.3017
G1 X5.711 Y-0.821 E0.8675
G1 X5.711 Y-19.381 E1.9786
G1 X19.480 Y-19.381 E2.8029
G1 X19.480 Y-5.140 E3.6555
G1 X19.342 Y-4.446 E3.6979
G1 X19.147 Y-3.465 F400
G92 E0
G1 E-2.0000 F1800
; outer perimeter
G1 X19.599 Y-3.278 F9000
G1 E0.0000 F1800
G92 E0
G1 X18.568 Y-1.733 E0.1112 F300
G1 X17.023 Y-0.702 E0.2224
G1 X15.208 Y-0.341 E0.3331
G1 X5.231 Y-0.341 E0.9304
G1 X5.231 Y-19.861 E2.0991
G1 X19.960 Y-19.861 E2.9808
G1 X19.960 Y-5.093 E3.8650
G1 X19.794 Y-4.258 E3.9159
G1 X19.599 Y-3.278 F300
G92 E0
G1 E-2.0000 F1800
; solid layer
G1 X6.557 Y-1.589 F9000
G1 E0.0000 F1800
G92 E0
G1 X6.479 Y-1.666 E0.0066 F480
G1 X6.479 Y-2.345 E0.0472
G1 X7.236 Y-1.589 E0.1112
G1 X7.915 Y-1.589 E0.1519
G1 X6.479 Y-3.024 E0.2734
G1 X6.479 Y-3.703 E0.3140
G1 X8.593 Y-1.589 E0.4930
G1 X9.272 Y-1.589 E0.5336
G1 X6.479 Y-4.382 E0.7701
G1 X6.479 Y-5.061 E0.8107
G1 X9.951 Y-1.589 E1.1047
G1 X10.630 Y-1.589 E1.1453
G1 X6.479 Y-5.739 E1.4967
G1 X6.479 Y-6.418 E1.5373
G1 X11.309 Y-1.589 E1.9462
G1 X11.987 Y-1.589 E1.9869
G1 X6.479 Y-7.097 E2.4532
G1 X6.479 Y-7.776 E2.4938
G1 X12.666 Y-1.589 E3.0177
G1 X13.345 Y-1.589 E3.0583
G1 X6.479 Y-8.455 E3.6396
G1 X6.479 Y-9.134 E3.6802
G1 X14.024 Y-1.589 E4.3190
G1 X14.703 Y-1.589 E4.3596
G1 X6.479 Y-9.812 E5.0559
G1 X6.479 Y-10.491 E5.0965
G1 X15.332 Y-1.638 E5.8461
G1 X15.899 Y-1.751 E5.8806
G1 X6.479 Y-11.170 E6.6781
G1 X6.479 Y-11.849 E6.7188
G1 X16.465 Y-1.863 E7.5642
G1 X16.537 Y-1.878 E7.5686
G1 X16.892 Y-2.115 E7.5942
G1 X6.479 Y-12.528 E8.4758
G1 X6.479 Y-13.206 E8.5164
G1 X17.299 Y-2.387 E9.4325
G1 X17.668 Y-2.633 E9.4591
G1 X17.694 Y-2.671 E9.4618
G1 X6.479 Y-13.885 E10.4113
G1 X6.479 Y-14.564 E10.4519
G1 X17.965 Y-3.078 E11.4244
G1 X18.237 Y-3.485 E11.4537
G1 X6.479 Y-15.243 E12.4492
G1 X6.479 Y-15.922 E12.4898
G1 X18.459 Y-3.942 E13.5040
G1 X18.571 Y-4.509 E13.5386
G1 X6.479 Y-16.601 E14.5624
G1 X6.479 Y-17.279 E14.6030
G1 X18.684 Y-5.075 E15.6363
G1 X18.712 Y-5.216 E15.6449
G1 X18.712 Y-5.726 E15.6755
G1 X6.479 Y-17.958 E16.7112
G1 X6.479 Y-18.613 E16.7504
G1 X6.503 Y-18.613 E16.7518
G1 X18.712 Y-6.404 E17.7854
G1 X18.712 Y-7.083 E17.8261
G1 X7.182 Y-18.613 E18.8023
G1 X7.861 Y-18.613 E18.8429
G1 X18.712 Y-7.762 E19.7616
G1 X18.712 Y-8.441 E19.8023
G1 X8.540 Y-18.613 E20.6635
G1 X9.219 Y-18.613 E20.7041
G1 X18.712 Y-9.120 E21.5079
G1 X18.712 Y-9.799 E21.5485
G1 X9.898 Y-18.613 E22.2948
G1 X10.576 Y-18.613 E22.3355
G1 X18.712 Y-10.477 E23.0243
G1 X18.712 Y-11.156 E23.0649
G1 X11.255 Y-18.613 E23.6962
G1 X11.934 Y-18.613 E23.7369
G1 X18.712 Y-11.835 E24.3107
G1 X18.712 Y-12.514 E24.3514
G1 X12.613 Y-18.613 E24.8678
G1 X13.292 Y-18.613 E24.9084
G1 X18.712 Y-13.193 E25.3673
G1 X18.712 Y-13.871 E25.4080
G1 X13.970 Y-18.613 E25.8094
G1 X14.649 Y-18.613 E25.8501
G1 X18.712 Y-14.550 E26.1940
