; G-Code generated by Simplify3D(R) Version 3.1.1
; Dec 16, 2016 at 11:14:04 PM
; Settings Summary
;   processName,Process1
;   applyToModels,Tip
;   profileName,Rostock MAX v2 (modified)
;   profileVersion,2015-05-01 08:00:00
;   baseProfile,
;   printMaterial,Iron PLA
;   printQuality,Medium
;   printExtruders,
;   extruderName,Primary Extruder
;   extruderToolheadNumber,0
;   extruderDiameter,0.6
;   extruderAutoWidth,1
;   extruderWidth,0.72
;   extrusionMultiplier,1.1
;   extruderUseRetract,1
;   extruderRetractionDistance,2
;   extruderExtraRestartDistance,-0.2
;   extruderRetractionZLift,0
;   extruderRetractionSpeed,1800
;   extruderUseCoasting,1
;   extruderCoastingDistance,1
;   extruderUseWipe,0
;   extruderWipeDistance,5
;   primaryExtruder,0
;   layerHeight,0.3
;   topSolidLayers,3
;   bottomSolidLayers,3
;   perimeterOutlines,3
;   printPerimetersInsideOut,1
;   startPointOption,2
;   startPointOriginX,0
;   startPointOriginY,0
;   startPointOriginZ,300
;   sequentialIslands,0
;   spiralVaseMode,0
;   firstLayerHeightPercentage,25
;   firstLayerWidthPercentage,100
;   firstLayerUnderspeed,0.4
;   useRaft,0
;   raftExtruder,0
;   raftLayers,2
;   raftOffset,3
;   raftSeparationDistance,0.14
;   raftInfill,85
;   disableRaftBaseLayers,0
;   useSkirt,1
;   skirtExtruder,0
;   skirtLayers,1
;   skirtOutlines,2
;   skirtOffset,5
;   usePrimePillar,0
;   primePillarExtruder,999
;   primePillarWidth,12
;   primePillarLocation,7
;   primePillarSpeedMultiplier,1
;   useOozeShield,0
;   oozeShieldExtruder,999
;   oozeShieldOffset,2
;   oozeShieldOutlines,1
;   oozeShieldSidewallShape,1
;   oozeShieldSidewallAngle,30
;   oozeShieldSpeedMultiplier,1
;   infillExtruder,0
;   internalInfillPattern,Rectilinear
;   externalInfillPattern,Rectilinear
;   infillPercentage,85
;   outlineOverlapPercentage,40
;   infillExtrusionWidthPercentage,100
;   minInfillLength,3
;   infillLayerInterval,1
;   infillAngles,45,-45
;   overlapInfillAngles,0
;   generateSupport,1
;   supportExtruder,0
;   supportInfillPercentage,30
;   supportExtraInflation,0
;   denseSupportLayers,0
;   denseSupportInfillPercentage,70
;   supportLayerInterval,1
;   supportHorizontalPartOffset,0.3
;   supportUpperSeparationLayers,1
;   supportLowerSeparationLayers,1
;   supportType,0
;   supportGridSpacing,1
;   maxOverhangAngle,70
;   supportAngles,0
;   temperatureName,Primary Extruder,Heated Bed
;   temperatureNumber,0,1
;   temperatureSetpointCount,1,1
;   temperatureSetpointLayers,1,1
;   temperatureSetpointTemperatures,210,60
;   temperatureStabilizeAtStartup,1,1
;   temperatureHeatedBed,0,1
;   temperatureRelayBetweenLayers,0,0
;   temperatureRelayBetweenLoops,0,0
;   fanLayers,1,2
;   fanSpeeds,0,100
;   blipFanToFullPower,1
;   adjustSpeedForCooling,1
;   minSpeedLayerTime,5
;   minCoolingSpeedSlowdown,80
;   increaseFanForCooling,0
;   minFanLayerTime,60
;   maxCoolingFanSpeed,100
;   increaseFanForBridging,0
;   bridgingFanSpeed,100
;   use5D,1
;   relativeEdistances,0
;   allowEaxisZeroing,1
;   independentExtruderAxes,0
;   includeM10123,0
;   stickySupport,1
;   applyToolheadOffsets,0
;   gcodeXoffset,0
;   gcodeYoffset,0
;   gcodeZoffset,0
;   overrideMachineDefinition,1
;   machineTypeOverride,1
;   strokeXoverride,197
;   strokeYoverride,197
;   strokeZoverride,375
;   originOffsetXoverride,98.5
;   originOffsetYoverride,98.5
;   originOffsetZoverride,0
;   homeXdirOverride,0
;   homeYdirOverride,0
;   homeZdirOverride,1
;   flipXoverride,1
;   flipYoverride,-1
;   flipZoverride,1
;   toolheadOffsets,0,0|0,0|0,0|0,0|0,0|0,0
;   overrideFirmwareConfiguration,1
;   firmwareTypeOverride,RepRap (Marlin/Repetier/Sprinter)
;   GPXconfigOverride,r2
;   baudRateOverride,115200
;   overridePrinterModels,1
;   printerModelsOverride
;   startingGcode,G28 ; home all axes
;   layerChangeGcode,
;   retractionGcode,
;   toolChangeGcode,
;   endingGcode,M104 S0 ; turn off extruder,M140 S0 ; turn off bed,G28 ; home axes,M84 ; disable motors
;   exportFileFormat,gcode
;   celebration,0
;   celebrationSong,Random Song
;   postProcessing,
;   defaultSpeed,1000
;   outlineUnderspeed,0.5
;   solidInfillUnderspeed,0.8
;   supportUnderspeed,0.8
;   rapidXYspeed,9000
;   rapidZspeed,1200
;   minBridgingArea,50
;   bridgingExtraInflation,0
;   bridgingExtrusionMultiplier,0.8
;   bridgingSpeedMultiplier,1.25
;   filamentDiameter,1.75
;   filamentPricePerKg,22
;   filamentDensity,1.25
;   useMinPrintHeight,0
;   minPrintHeight,0.05
;   useMaxPrintHeight,0
;   maxPrintHeight,0
;   useDiaphragm,0
;   diaphragmLayerInterval,20
;   robustSlicing,1
;   mergeAllIntoSolid,0
;   onlyRetractWhenCrossingOutline,0
;   retractBetweenLayers,0
;   useRetractionMinTravel,0
;   retractionMinTravel,3
;   retractWhileWiping,1
;   onlyWipeOutlines,1
;   avoidCrossingOutline,1
;   maxMovementDetourFactor,1.5
;   toolChangeRetractionDistance,12
;   toolChangeExtraRestartDistance,-0.5
;   toolChangeRetractionSpeed,600
;   allowThinWallGapFill,1
;   thinWallAllowedOverlapPercentage,10
;   horizontalSizeCompensation,0
G90
M82
M106 S0
M140 S60
M190 S60
M104 S210 T0
M109 S210 T0
G28 ; home all axes
G92 E0
G1 E-2.0000 F1800
G1 Z0.075 F1200
; layer 1, Z = 0.075
T0
; tool H0.300 W0.720
; skirt
G1 X6.523 Y0.027 F9000
G1 E-0.2000 F540
G92 E0
G1 X7.417 Y4.416 E0.4425 F400
G1 X7.059 Y5.098 E0.5186
G1 X2.667 Y6.966 E0.9901
G1 X2.631 Y6.980 E0.9938
G1 X2.259 Y7.108 E1.0327
G1 X2.222 Y7.119 E1.0365
G1 X1.567 Y7.293 E1.1035
G1 X1.521 Y7.303 E1.1081
G1 X1.045 Y7.386 E1.1559
G1 X0.998 Y7.393 E1.1606
G1 X0.277 Y7.454 E1.2320
G1 X0.230 Y7.456 E1.2367
G1 X-0.254 Y7.456 E1.2845
G1 X-0.301 Y7.453 E1.2891
G1 X-1.080 Y7.384 E1.3664
G1 X-1.138 Y7.376 E1.3721
G1 X-1.727 Y7.258 E1.4315
G1 X-1.784 Y7.243 E1.4373
G1 X-6.867 Y5.639 E1.9639
G1 X-7.289 Y4.960 E2.0429
G1 X-6.525 Y0.003 E2.5383
G1 X-7.286 Y-4.966 E3.0348
G1 X-6.863 Y-5.644 E3.1138
G1 X-1.767 Y-7.244 E3.6414
G1 X-1.710 Y-7.258 E3.6473
G1 X-1.116 Y-7.375 E3.7071
G1 X-1.057 Y-7.384 E3.7129
G1 X-0.276 Y-7.451 E3.7904
G1 X-0.229 Y-7.453 E3.7950
G1 X0.255 Y-7.452 E3.8428
G1 X0.302 Y-7.450 E3.8475
G1 X1.081 Y-7.380 E3.9247
G1 X1.139 Y-7.372 E3.9305
G1 X1.728 Y-7.254 E3.9899
G1 X1.785 Y-7.239 E3.9957
G1 X6.868 Y-5.635 E4.5222
G1 X7.290 Y-4.956 E4.6012
G1 X6.675 Y-0.961 E5.0004
G1 X6.523 Y0.027 F400
G92 E0
G1 E-2.0000 F1800
G1 X5.791 Y0.044 F9000
G1 E-0.2000 F1800
G92 E0
G1 X6.660 Y4.309 E0.4299 F400
G1 X6.541 Y4.536 E0.4552
G1 X2.397 Y6.298 E0.9001
G1 X2.385 Y6.303 E0.9014
G1 X2.037 Y6.423 E0.9377
G1 X2.025 Y6.426 E0.9390
G1 X1.397 Y6.593 E1.0031
G1 X1.382 Y6.597 E1.0047
G1 X0.936 Y6.675 E1.0494
G1 X0.921 Y6.677 E1.0509
G1 X0.231 Y6.736 E1.1193
G1 X0.216 Y6.736 E1.1208
G1 X-0.237 Y6.736 E1.1655
G1 X-0.252 Y6.735 E1.1670
G1 X-0.996 Y6.669 E1.2408
G1 X-1.016 Y6.666 E1.2427
G1 X-1.567 Y6.556 E1.2983
G1 X-1.586 Y6.551 E1.3002
G1 X-6.396 Y5.032 E1.7985
G1 X-6.537 Y4.806 E1.8248
G1 X-5.797 Y0.003 E2.3049
G1 X-6.534 Y-4.811 E2.7860
G1 X-6.393 Y-5.037 E2.8123
G1 X-1.570 Y-6.551 E3.3116
G1 X-1.551 Y-6.556 E3.3136
G1 X-0.996 Y-6.665 E3.3695
G1 X-0.976 Y-6.668 E3.3715
G1 X-0.230 Y-6.732 E3.4454
G1 X-0.214 Y-6.733 E3.4470
G1 X0.238 Y-6.732 E3.4917
G1 X0.254 Y-6.731 E3.4932
G1 X0.997 Y-6.665 E3.5670
G1 X1.017 Y-6.662 E3.5689
G1 X1.568 Y-6.552 E3.6244
G1 X1.587 Y-6.547 E3.6264
G1 X6.397 Y-5.028 E4.1247
G1 X6.538 Y-4.802 E4.1510
G1 X5.944 Y-0.944 E4.5366
G1 X5.791 Y0.044 F400
G92 E0
G1 E-2.0000 F1800
; support
G1 X2.015 Y4.800 F9000
G1 E-0.2000 F1800
G92 E0
G1 X-0.505 Y4.800 E0.2489 F320
G1 X-0.505 Y4.642 E0.2645
G1 X-1.934 Y4.642 E0.4056
G1 X-1.934 Y4.645 E0.4059
G1 X-4.454 Y4.645 E0.6548
G1 X-4.454 Y2.400 E0.8766
G1 X5.537 Y2.400 E1.8634
G1 X5.060 Y0.062 E2.0991
G1 X5.070 Y0.000 E2.1053
G1 X-4.650 Y0.000 E3.0655
G1 X-4.650 Y-0.204 E3.0856
G1 X-4.440 Y-0.204 E3.1064
G1 X-4.440 Y-1.875 E3.2715
G1 X-3.362 Y-1.875 E3.3780
G1 X-3.362 Y-2.400 E3.4298
G1 X5.439 Y-2.400 E4.2992
G1 X5.458 Y-2.518 E4.3110
G1 X5.458 Y-2.709 E4.3299
G1 X4.467 Y-2.709 E4.4278
G1 X4.467 Y-3.977 E4.5531
G1 X3.042 Y-3.977 E4.6938
G1 X3.042 Y-4.800 E4.7751
G1 X-1.987 Y-4.800 E5.2718
G1 X-2.987 Y-4.800 F320
G92 E0
G1 E-2.0000 F1800
; layer 2, Z = 0.375
M106 S255
; support
G1 X-2.987 Y-4.800 F9000
G1 Z0.375 F1200
G1 E-0.2000 F1800
G92 E0
G1 X3.042 Y-4.800 E0.5955 F664
G1 X3.042 Y-3.977 E0.6768
G1 X4.467 Y-3.977 E0.8175
G1 X4.467 Y-2.709 E0.9428
G1 X5.458 Y-2.709 E1.0407
G1 X5.458 Y-2.400 E1.0712
G1 X-3.362 Y-2.400 E1.9424
G1 X-3.362 Y-1.875 E1.9942
G1 X-4.440 Y-1.875 E2.1007
G1 X-4.440 Y-0.204 E2.2658
G1 X-4.650 Y-0.204 E2.2866
G1 X-4.650 Y0.000 E2.3067
G1 X5.814 Y0.000 E3.3404
G1 X5.814 Y1.052 E3.4443
G1 X5.645 Y1.052 E3.4611
G1 X5.645 Y2.400 E3.5943
G1 X-4.454 Y2.400 E4.5918
G1 X-4.454 Y4.645 E4.8136
G1 X-1.934 Y4.645 E5.0625
G1 X-1.934 Y4.642 E5.0628
G1 X-0.505 Y4.642 E5.2039
G1 X-0.505 Y4.800 E5.2195
G1 X1.015 Y4.800 E5.3696
G1 X2.015 Y4.800 F664
G92 E0
G1 E-2.0000 F1800
; layer 3, Z = 0.675
; support
G1 X2.015 Y4.800 F9000
G1 Z0.675 F1200
G1 E-0.2000 F1800
G92 E0
G1 X-0.505 Y4.800 E0.2489 F664
G1 X-0.505 Y4.642 E0.2645
G1 X-1.934 Y4.642 E0.4056
G1 X-1.934 Y4.645 E0.4059
G1 X-4.454 Y4.645 E0.6548
G1 X-4.454 Y2.400 E0.8766
G1 X5.645 Y2.400 E1.8741
G1 X5.645 Y1.052 E2.0073
G1 X5.814 Y1.052 E2.0241
G1 X5.814 Y0.000 E2.1280
G1 X-4.650 Y0.000 E3.1617
G1 X-4.650 Y-0.204 E3.1818
G1 X-4.440 Y-0.204 E3.2026
G1 X-4.440 Y-1.875 E3.3677
G1 X-3.362 Y-1.875 E3.4742
G1 X-3.362 Y-2.400 E3.5260
G1 X5.458 Y-2.400 E4.3972
G1 X5.458 Y-2.709 E4.4277
G1 X4.467 Y-2.709 E4.5256
G1 X4.467 Y-3.977 E4.6509
G1 X3.042 Y-3.977 E4.7916
G1 X3.042 Y-4.800 E4.8729
G1 X-1.987 Y-4.800 E5.3696
G1 X-2.987 Y-4.800 F664
G92 E0
G1 E-2.0000 F1800
; layer 4, Z = 0.975
; support
G1 X-2.987 Y-4.800 F9000
G1 Z0.975 F1200
G1 E-0.2000 F1800
G92 E0
G1 X3.042 Y-4.800 E0.5955 F664
G1 X3.042 Y-3.977 E0.6768
G1 X4.467 Y-3.977 E0.8175
G1 X4.467 Y-2.709 E0.9428
G1 X5.458 Y-2.709 E1.0407
G1 X5.458 Y-2.400 E1.0712
G1 X-3.362 Y-2.400 E1.9424
G1 X-3.362 Y-1.875 E1.9942
G1 X-4.440 Y-1.875 E2.1007
G1 X-4.440 Y-0.204 E2.2658
G1 X-4.650 Y-0.204 E2.2866
G1 X-4.650 Y0.000 E2.3067
G1 X5.814 Y0.000 E3.3404
G1 X5.814 Y1.052 E3.4443
G1 X5.645 Y1.052 E3.4611
G1 X5.645 Y2.400 E3.5943
G1 X-4.454 Y2.400 E4.5918
G1 X-4.454 Y4.645 E4.8136
G1 X-1.934 Y4.645 E5.0625
G1 X-1.934 Y4.642 E5.0628
G1 X-0.505 Y4.642 E5.2039
G1 X-0.505 Y4.800 E5.2195
G1 X1.015 Y4.800 E5.3696
G1 X2.015 Y4.800 F664
G92 E0
G1 E-2.0000 F1800
; layer 5, Z = 1.275
; support
G1 X2.015 Y4.800 F9000
G1 Z1.275 F1200
G1 E-0.2000 F1800
G92 E0
G1 X-0.505 Y4.800 E0.2489 F664
G1 X-0.505 Y4.642 E0.2645
G1 X-1.934 Y4.642 E0.4056
G1 X-1.934 Y4.645 E0.4059
G1 X-4.454 Y4.645 E0.6548
G1 X-4.454 Y2.400 E0.8766
G1 X5.645 Y2.400 E1.8741
G1 X5.645 Y1.052 E2.0073
G1 X5.814 Y1.052 E2.0241
G1 X5.814 Y0.000 E2.1280
G1 X-4.650 Y0.000 E3.1617
G1 X-4.650 Y-0.204 E3.1818
G1 X-4.440 Y-0.204 E3.2026
G1 X-4.440 Y-1.875 E3.3677
G1 X-3.362 Y-1.875 E3.4742
G1 X-3.362 Y-2.400 E3.5260
G1 X5.458 Y-2.400 E4.3972
G1 X5.458 Y-2.709 E4.4277
G1 X4.467 Y-2.709 E4.5256
G1 X4.467 Y-3.977 E4.6509
G1 X3.042 Y-3.977 E4.7916
G1 X3.042 Y-4.800 E4.8729
G1 X-1.987 Y-4.800 E5.3696
G1 X-2.987 Y-4.800 F664
G92 E0
G1 E-2.0000 F1800
; layer 6, Z = 1.575
; support
G1 X-2.987 Y-4.800 F9000
G1 Z1.575 F1200
G1 E-0.2000 F1800
G92 E0
G1 X3.042 Y-4.800 E0.5955 F664
G1 X3.042 Y-3.977 E0.6768
G1 X4.467 Y-3.977 E0.8175
G1 X4.467 Y-2.709 E0.9428
G1 X5.458 Y-2.709 E1.0407
G1 X5.458 Y-2.400 E1.0712
G1 X-3.362 Y-2.400 E1.9424
G1 X-3.362 Y-1.875 E1.9942
G1 X-4.440 Y-1.875 E2.1007
G1 X-4.440 Y-0.204 E2.2658
G1 X-4.650 Y-0.204 E2.2866
G1 X-4.650 Y0.000 E2.3067
G1 X5.814 Y0.000 E3.3404
G1 X5.814 Y1.052 E3.4443
G1 X5.645 Y1.052 E3.4611
G1 X5.645 Y2.400 E3.5943
G1 X-4.454 Y2.400 E4.5918
G1 X-4.454 Y4.645 E4.8136
G1 X-1.934 Y4.645 E5.0625
G1 X-1.934 Y4.642 E5.0628
G1 X-0.505 Y4.642 E5.2039
G1 X-0.505 Y4.800 E5.2195
G1 X1.015 Y4.800 E5.3696
G1 X2.015 Y4.800 F664
G92 E0
G1 E-2.0000 F1800
; layer 7, Z = 1.875
; support
G1 X2.015 Y4.800 F9000
G1 Z1.875 F1200
G1 E-0.2000 F1800
G92 E0
G1 X-0.505 Y4.800 E0.2489 F800
G1 X-0.505 Y4.642 E0.2645
G1 X-1.934 Y4.642 E0.4056
G1 X-1.934 Y4.645 E0.4059
G1 X-4.454 Y4.645 E0.6548
G1 X-4.454 Y2.400 E0.8766
G1 X-0.515 Y2.400 E1.2656
G1 X-0.859 Y2.308 E1.3008
G1 X-1.110 Y2.173 E1.3290
G1 X-1.224 Y2.119 E1.3414
G1 X-1.572 Y1.894 E1.3823
G1 X-2.019 Y1.447 E1.4448
G1 X-3.351 Y0.592 E1.6011
G1 X3.249 Y0.592 E2.2531
G1 X2.195 Y1.308 E2.3790
G1 X1.508 Y1.941 E2.4713
G1 X1.036 Y2.222 E2.5256
G1 X0.842 Y2.313 E2.5468
G1 X0.516 Y2.400 E2.5800
G1 X5.645 Y2.400 E3.0866
G1 X5.645 Y1.052 E3.2198
G1 X5.814 Y1.052 E3.2366
G1 X5.814 Y0.000 E3.3405
G1 X-4.650 Y0.000 E4.3741
G1 X-4.650 Y-0.204 E4.3943
G1 X-4.440 Y-0.204 E4.4151
G1 X-4.440 Y-1.875 E4.5801
G1 X-3.362 Y-1.875 E4.6866
G1 X-3.362 Y-2.400 E4.7385
G1 X-0.501 Y-2.400 E5.0210
G1 X-0.426 Y-2.420 E5.0287
G1 X0.001 Y-2.457 E5.0710
G1 X0.428 Y-2.420 E5.1134
G1 X0.502 Y-2.400 E5.1210
G1 X5.458 Y-2.400 E5.6105
G1 X5.458 Y-2.709 E5.6411
G1 X4.467 Y-2.709 E5.7390
G1 X4.467 Y-3.977 E5.8642
G1 X3.042 Y-3.977 E6.0050
G1 X3.042 Y-4.800 E6.0862
G1 X-1.987 Y-4.800 E6.5830
G1 X-2.987 Y-4.800 F800
G92 E0
G1 E-2.0000 F1800
; layer 8, Z = 2.175
; support
G1 X-2.987 Y-4.800 F9000
G1 Z2.175 F1200
G1 E-0.2000 F1800
G92 E0
G1 X3.042 Y-4.800 E0.5955 F787
G1 X3.042 Y-3.977 E0.6768
G1 X4.467 Y-3.977 E0.8175
G1 X4.467 Y-2.709 E0.9428
G1 X5.458 Y-2.709 E1.0407
G1 X5.458 Y-2.400 E1.0712
G1 X0.748 Y-2.400 E1.5365
G1 X0.439 Y-2.483 E1.5681
G1 X0.001 Y-2.521 E1.6115
G1 X-0.437 Y-2.483 E1.6550
G1 X-0.747 Y-2.400 E1.6866
G1 X-3.362 Y-2.400 E1.9449
G1 X-3.362 Y-1.875 E1.9967
G1 X-4.440 Y-1.875 E2.1032
G1 X-4.440 Y-0.204 E2.2683
G1 X-4.650 Y-0.204 E2.2891
G1 X-4.650 Y0.000 E2.3092
G1 X5.814 Y0.000 E3.3429
G1 X5.814 Y1.052 E3.4468
G1 X5.645 Y1.052 E3.4636
G1 X5.645 Y2.400 E3.5968
G1 X0.762 Y2.400 E4.0791
G1 X0.876 Y2.370 E4.0907
G1 X1.268 Y2.168 E4.1343
G1 X1.615 Y1.943 E4.1752
G1 X2.895 Y0.662 E4.3540
G1 X2.971 Y0.592 E4.3643
G1 X-2.964 Y0.592 E4.9505
G1 X-1.613 Y1.943 E5.1392
G1 X-1.256 Y2.175 E5.1813
G1 X-1.124 Y2.237 E5.1957
G1 X-0.881 Y2.368 E5.2230
G1 X-0.761 Y2.400 E5.2353
G1 X-4.454 Y2.400 E5.6001
G1 X-4.454 Y4.645 E5.8218
G1 X-1.934 Y4.645 E6.0708
G1 X-1.934 Y4.642 E6.0710
G1 X-0.505 Y4.642 E6.2122
G1 X-0.505 Y4.800 E6.2277
G1 X1.015 Y4.800 E6.3779
G1 X2.015 Y4.800 F787
G92 E0
G1 E-2.0000 F1800
; layer 9, Z = 2.475
; support
G1 X2.015 Y4.800 F9000
G1 Z2.475 F1200
G1 E-0.2000 F1800
G92 E0
G1 X-0.505 Y4.800 E0.2489 F782
G1 X-0.505 Y4.642 E0.2645
G1 X-1.934 Y4.642 E0.4056
G1 X-1.934 Y4.645 E0.4059
G1 X-4.454 Y4.645 E0.6548
G1 X-4.454 Y2.400 E0.8766
G1 X-0.954 Y2.400 E1.2223
G1 X-1.139 Y2.301 E1.2430
G1 X-1.289 Y2.231 E1.2593
G1 X-1.655 Y1.991 E1.3026
G1 X-3.054 Y0.592 E1.4980
G1 X3.055 Y0.592 E2.1014
G1 X1.656 Y1.991 E2.2968
G1 X1.300 Y2.224 E2.3389
G1 X0.955 Y2.400 E2.3772
G1 X5.645 Y2.400 E2.8405
G1 X5.645 Y1.052 E2.9736
G1 X5.814 Y1.052 E2.9904
G1 X5.814 Y0.000 E3.0943
G1 X-4.650 Y0.000 E4.1280
G1 X-4.650 Y-0.204 E4.1482
G1 X-4.440 Y-0.204 E4.1689
G1 X-4.440 Y-1.875 E4.3340
G1 X-3.362 Y-1.875 E4.4405
G1 X-3.362 Y-2.400 E4.4923
G1 X-0.946 Y-2.400 E4.7309
G1 X-0.895 Y-2.426 E4.7366
G1 X-0.449 Y-2.546 E4.7823
G1 X0.001 Y-2.585 E4.8268
G1 X0.450 Y-2.546 E4.8713
G1 X0.897 Y-2.426 E4.9170
G1 X0.947 Y-2.400 E4.9227
G1 X5.458 Y-2.400 E5.3682
G1 X5.458 Y-2.709 E5.3987
G1 X4.467 Y-2.709 E5.4966
G1 X4.467 Y-3.977 E5.6219
G1 X3.042 Y-3.977 E5.7626
G1 X3.042 Y-4.800 E5.8439
G1 X-1.987 Y-4.800 E6.3406
G1 X-2.987 Y-4.800 F782
G92 E0
G1 E-2.0000 F1800
; layer 10, Z = 2.775
; support
G1 X-2.987 Y-4.800 F9000
G1 Z2.775 F1200
G1 E-0.2000 F1800
G92 E0
G1 X3.042 Y-4.800 E0.5955 F779
G1 X3.042 Y-3.977 E0.6768
G1 X4.467 Y-3.977 E0.8175
G1 X4.467 Y-2.709 E0.9428
G1 X5.458 Y-2.709 E1.0407
G1 X5.458 Y-2.400 E1.0712
G1 X1.087 Y-2.400 E1.5029
G1 X0.918 Y-2.486 E1.5217
G1 X0.461 Y-2.608 E1.5684
G1 X0.001 Y-2.649 E1.6141
G1 X-0.460 Y-2.608 E1.6597
G1 X-0.916 Y-2.486 E1.7064
G1 X-1.086 Y-2.400 E1.7252
G1 X-3.362 Y-2.400 E1.9500
G1 X-3.362 Y-1.875 E2.0018
G1 X-4.440 Y-1.875 E2.1083
G1 X-4.440 Y-0.204 E2.2734
G1 X-4.650 Y-0.204 E2.2942
