; G-Code generated by Simplify3D(R) Version 3.1.0
; Sep 29, 2016 at 9:00:44 PM
; Settings Summary
;   processName,Process1
;   applyToModels,King
;   profileName,Rostock MAX v2 (modified)
;   profileVersion,2015-05-01 08:00:00
;   baseProfile,
;   printMaterial,PLA
;   printQuality,Medium
;   printExtruders,
;   extruderName,Primary Extruder
;   extruderToolheadNumber,0
;   extruderDiameter,0.4
;   extruderAutoWidth,1
;   extruderWidth,0.48
;   extrusionMultiplier,1.1
;   extruderUseRetract,1
;   extruderRetractionDistance,3
;   extruderExtraRestartDistance,0
;   extruderRetractionZLift,0
;   extruderRetractionSpeed,2000
;   extruderUseCoasting,1
;   extruderCoastingDistance,1
;   extruderUseWipe,1
;   extruderWipeDistance,5
;   primaryExtruder,0
;   layerHeight,0.2
;   topSolidLayers,3
;   bottomSolidLayers,3
;   perimeterOutlines,3
;   printPerimetersInsideOut,1
;   startPointOption,2
;   startPointOriginX,0
;   startPointOriginY,0
;   startPointOriginZ,300
;   sequentialIslands,0
;   spiralVaseMode,0
;   firstLayerHeightPercentage,25
;   firstLayerWidthPercentage,100
;   firstLayerUnderspeed,0.25
;   useRaft,0
;   raftExtruder,0
;   raftLayers,3
;   raftOffset,15
;   raftSeparationDistance,0.14
;   raftInfill,85
;   disableRaftBaseLayers,0
;   useSkirt,1
;   skirtExtruder,0
;   skirtLayers,1
;   skirtOutlines,2
;   skirtOffset,5
;   usePrimePillar,0
;   primePillarExtruder,999
;   primePillarWidth,12
;   primePillarLocation,7
;   primePillarSpeedMultiplier,1
;   useOozeShield,0
;   oozeShieldExtruder,999
;   oozeShieldOffset,2
;   oozeShieldOutlines,1
;   oozeShieldSidewallShape,1
;   oozeShieldSidewallAngle,30
;   oozeShieldSpeedMultiplier,1
;   infillExtruder,0
;   internalInfillPattern,Fast Honeycomb
;   externalInfillPattern,Rectilinear
;   infillPercentage,75
;   outlineOverlapPercentage,40
;   infillExtrusionWidthPercentage,100
;   minInfillLength,3
;   infillLayerInterval,1
;   infillAngles,0
;   overlapInfillAngles,0
;   generateSupport,0
;   supportExtruder,0
;   supportInfillPercentage,30
;   supportExtraInflation,0
;   denseSupportLayers,0
;   denseSupportInfillPercentage,70
;   supportLayerInterval,1
;   supportHorizontalPartOffset,0.3
;   supportUpperSeparationLayers,1
;   supportLowerSeparationLayers,1
;   supportType,1
;   supportGridSpacing,4
;   maxOverhangAngle,45
;   supportAngles,0
;   temperatureName,Primary Extruder,Heated Bed
;   temperatureNumber,0,1
;   temperatureSetpointCount,1,1
;   temperatureSetpointLayers,1,1
;   temperatureSetpointTemperatures,205,60
;   temperatureStabilizeAtStartup,1,1
;   temperatureHeatedBed,0,1
;   temperatureRelayBetweenLayers,0,0
;   temperatureRelayBetweenLoops,0,0
;   fanLayers,1,2
;   fanSpeeds,0,100
;   blipFanToFullPower,1
;   adjustSpeedForCooling,1
;   minSpeedLayerTime,15
;   minCoolingSpeedSlowdown,20
;   increaseFanForCooling,0
;   minFanLayerTime,60
;   maxCoolingFanSpeed,100
;   increaseFanForBridging,0
;   bridgingFanSpeed,100
;   use5D,1
;   relativeEdistances,0
;   allowEaxisZeroing,1
;   independentExtruderAxes,0
;   includeM10123,0
;   stickySupport,1
;   applyToolheadOffsets,0
;   gcodeXoffset,0
;   gcodeYoffset,0
;   gcodeZoffset,0
;   overrideMachineDefinition,1
;   machineTypeOverride,1
;   strokeXoverride,197
;   strokeYoverride,197
;   strokeZoverride,375
;   originOffsetXoverride,98.5
;   originOffsetYoverride,98.5
;   originOffsetZoverride,0
;   homeXdirOverride,0
;   homeYdirOverride,0
;   homeZdirOverride,1
;   flipXoverride,1
;   flipYoverride,-1
;   flipZoverride,1
;   toolheadOffsets,0,0|0,0|0,0|0,0|0,0|0,0
;   overrideFirmwareConfiguration,1
;   firmwareTypeOverride,RepRap (Marlin/Repetier/Sprinter)
;   GPXconfigOverride,r2
;   baudRateOverride,115200
;   overridePrinterModels,1
;   printerModelsOverride
;   startingGcode,G28 ; home all axes
;   layerChangeGcode,
;   retractionGcode,
;   toolChangeGcode,
;   endingGcode,M104 S0 ; turn off extruder,M140 S0 ; turn off bed,G28 ; home axes,M84 ; disable motors
;   exportFileFormat,gcode
;   celebration,0
;   celebrationSong,Random Song
;   postProcessing,
;   defaultSpeed,1500
;   outlineUnderspeed,0.5
;   solidInfillUnderspeed,0.8
;   supportUnderspeed,0.8
;   rapidXYspeed,9000
;   rapidZspeed,1200
;   minBridgingArea,50
;   bridgingExtraInflation,0
;   bridgingExtrusionMultiplier,0.8
;   bridgingSpeedMultiplier,0.7
;   filamentDiameter,1.75
;   filamentPricePerKg,22
;   filamentDensity,1.25
;   useMinPrintHeight,0
;   minPrintHeight,0.05
;   useMaxPrintHeight,0
;   maxPrintHeight,0
;   useDiaphragm,0
;   diaphragmLayerInterval,20
;   robustSlicing,1
;   mergeAllIntoSolid,0
;   onlyRetractWhenCrossingOutline,0
;   retractBetweenLayers,0
;   useRetractionMinTravel,0
;   retractionMinTravel,3
;   retractWhileWiping,1
;   onlyWipeOutlines,1
;   avoidCrossingOutline,1
;   maxMovementDetourFactor,2
;   toolChangeRetractionDistance,12
;   toolChangeExtraRestartDistance,-0.5
;   toolChangeRetractionSpeed,600
;   allowThinWallGapFill,1
;   thinWallAllowedOverlapPercentage,10
;   horizontalSizeCompensation,0
G90
M82
M106 S0
M140 S60
M190 S60
M104 S205 T0
M109 S205 T0
G28 ; home all axes
G92 E0
G1 E-3.0000 F2000
G1 Z0.050 F1200
; layer 1, Z = 0.05
T0
; tool H0.200 W0.480
; skirt
G1 X-20.750 Y5.972 F9000
G1 E0.0000 F600
G92 E0
G1 X-20.765 Y5.928 E0.0021 F375
G1 X-20.947 Y5.249 E0.0329
G1 X-20.956 Y5.203 E0.0350
G1 X-21.589 Y0.398 E0.2477
G1 X-21.592 Y0.351 E0.2498
G1 X-21.592 Y-0.351 E0.2807
G1 X-21.589 Y-0.398 E0.2827
G1 X-20.956 Y-5.203 E0.4955
G1 X-20.947 Y-5.249 E0.4975
G1 X-20.765 Y-5.928 E0.5284
G1 X-20.750 Y-5.972 E0.5305
G1 X-18.895 Y-10.449 E0.7432
G1 X-18.875 Y-10.492 E0.7453
G1 X-18.523 Y-11.100 E0.7761
G1 X-18.497 Y-11.139 E0.7782
G1 X-15.547 Y-14.984 E0.9909
G1 X-15.516 Y-15.019 E0.9930
G1 X-15.019 Y-15.516 E1.0239
G1 X-14.984 Y-15.547 E1.0259
G1 X-11.139 Y-18.497 E1.2387
G1 X-11.100 Y-18.523 E1.2408
G1 X-10.492 Y-18.875 E1.2716
G1 X-10.449 Y-18.895 E1.2737
G1 X-5.972 Y-20.750 E1.4864
G1 X-5.928 Y-20.765 E1.4885
G1 X-5.249 Y-20.947 E1.5193
G1 X-5.203 Y-20.956 E1.5214
G1 X-0.398 Y-21.589 E1.7342
G1 X-0.351 Y-21.592 E1.7362
G1 X0.351 Y-21.592 E1.7671
G1 X0.398 Y-21.589 E1.7691
G1 X5.203 Y-20.956 E1.9819
G1 X5.249 Y-20.947 E1.9840
G1 X5.928 Y-20.765 E2.0148
G1 X5.972 Y-20.750 E2.0169
G1 X10.449 Y-18.895 E2.2296
G1 X10.492 Y-18.875 E2.2317
G1 X11.100 Y-18.523 E2.2625
G1 X11.139 Y-18.497 E2.2646
G1 X14.984 Y-15.547 E2.4774
G1 X15.019 Y-15.516 E2.4794
G1 X15.516 Y-15.019 E2.5103
G1 X15.547 Y-14.984 E2.5124
G1 X18.497 Y-11.139 E2.7251
G1 X18.523 Y-11.100 E2.7272
G1 X18.875 Y-10.492 E2.7580
G1 X18.895 Y-10.449 E2.7601
G1 X20.750 Y-5.972 E2.9728
G1 X20.765 Y-5.928 E2.9749
G1 X20.947 Y-5.249 E3.0058
G1 X20.956 Y-5.203 E3.0078
G1 X21.589 Y-0.398 E3.2206
G1 X21.592 Y-0.351 E3.2226
G1 X21.592 Y0.351 E3.2535
G1 X21.589 Y0.398 E3.2556
G1 X20.956 Y5.203 E3.4683
G1 X20.947 Y5.249 E3.4704
G1 X20.765 Y5.928 E3.5012
G1 X20.750 Y5.972 E3.5033
G1 X18.895 Y10.449 E3.7161
G1 X18.875 Y10.492 E3.7181
G1 X18.523 Y11.100 E3.7490
G1 X18.497 Y11.139 E3.7510
G1 X15.547 Y14.984 E3.9638
G1 X15.516 Y15.019 E3.9659
G1 X15.019 Y15.516 E3.9967
G1 X14.984 Y15.547 E3.9988
G1 X11.139 Y18.497 E4.2115
G1 X11.100 Y18.523 E4.2136
G1 X10.492 Y18.875 E4.2444
G1 X10.449 Y18.895 E4.2465
G1 X5.972 Y20.750 E4.4593
G1 X5.928 Y20.765 E4.4613
G1 X5.249 Y20.947 E4.4922
G1 X5.203 Y20.956 E4.4942
G1 X0.398 Y21.589 E4.7070
G1 X0.351 Y21.592 E4.7091
G1 X-0.351 Y21.592 E4.7399
G1 X-0.398 Y21.589 E4.7420
G1 X-5.203 Y20.956 E4.9547
G1 X-5.249 Y20.947 E4.9568
G1 X-5.928 Y20.765 E4.9877
G1 X-5.972 Y20.750 E4.9897
G1 X-10.449 Y18.895 E5.2025
G1 X-10.492 Y18.875 E5.2045
G1 X-11.100 Y18.523 E5.2354
G1 X-11.139 Y18.497 E5.2375
G1 X-14.984 Y15.547 E5.4502
G1 X-15.019 Y15.516 E5.4523
G1 X-15.516 Y15.019 E5.4831
G1 X-15.547 Y14.984 E5.4852
G1 X-18.497 Y11.139 E5.6980
G1 X-18.523 Y11.100 E5.7000
G1 X-18.875 Y10.492 E5.7309
G1 X-18.895 Y10.449 E5.7329
G1 X-20.367 Y6.896 E5.9018
G1 X-20.750 Y5.972 F375
G92 E0
G1 E-3.0000 F2000
G1 X-20.300 Y5.803 F9000
G1 E0.0000 F2000
G92 E0
G1 X-20.305 Y5.788 E0.0007 F375
G1 X-20.479 Y5.140 E0.0302
G1 X-20.482 Y5.125 E0.0308
G1 X-21.111 Y0.351 E0.2422
G1 X-21.112 Y0.336 E0.2429
G1 X-21.112 Y-0.336 E0.2724
G1 X-21.111 Y-0.351 E0.2731
G1 X-20.482 Y-5.125 E0.4844
G1 X-20.479 Y-5.140 E0.4851
G1 X-20.305 Y-5.788 E0.5146
G1 X-20.300 Y-5.803 E0.5153
G1 X-18.458 Y-10.251 E0.7267
G1 X-18.451 Y-10.265 E0.7273
G1 X-18.116 Y-10.846 E0.7568
G1 X-18.107 Y-10.860 E0.7575
G1 X-15.176 Y-14.679 E0.9689
G1 X-15.166 Y-14.691 E0.9696
G1 X-14.691 Y-15.166 E0.9990
G1 X-14.679 Y-15.176 E0.9997
G1 X-10.860 Y-18.107 E1.2111
G1 X-10.846 Y-18.115 E1.2118
G1 X-10.265 Y-18.451 E1.2412
G1 X-10.251 Y-18.458 E1.2419
G1 X-5.803 Y-20.300 E1.4533
G1 X-5.788 Y-20.305 E1.4540
G1 X-5.140 Y-20.479 E1.4835
G1 X-5.125 Y-20.482 E1.4842
G1 X-0.351 Y-21.111 E1.6955
G1 X-0.336 Y-21.112 E1.6962
G1 X0.336 Y-21.112 E1.7257
G1 X0.351 Y-21.111 E1.7264
G1 X5.125 Y-20.482 E1.9377
G1 X5.140 Y-20.479 E1.9384
G1 X5.788 Y-20.305 E1.9679
G1 X5.803 Y-20.300 E1.9686
G1 X10.251 Y-18.458 E2.1800
G1 X10.265 Y-18.451 E2.1807
G1 X10.846 Y-18.115 E2.2101
G1 X10.860 Y-18.107 E2.2108
G1 X14.679 Y-15.176 E2.4222
G1 X14.691 Y-15.166 E2.4229
G1 X15.166 Y-14.691 E2.4523
G1 X15.176 Y-14.679 E2.4530
G1 X18.107 Y-10.860 E2.6644
G1 X18.115 Y-10.846 E2.6651
G1 X18.451 Y-10.265 E2.6946
G1 X18.458 Y-10.251 E2.6952
G1 X20.300 Y-5.803 E2.9066
G1 X20.305 Y-5.788 E2.9073
G1 X20.479 Y-5.140 E2.9368
G1 X20.482 Y-5.125 E2.9375
G1 X21.111 Y-0.351 E3.1488
G1 X21.112 Y-0.336 E3.1495
G1 X21.112 Y0.336 E3.1790
G1 X21.111 Y0.351 E3.1797
G1 X20.482 Y5.125 E3.3910
G1 X20.479 Y5.140 E3.3917
G1 X20.305 Y5.788 E3.4212
G1 X20.300 Y5.803 E3.4219
G1 X18.458 Y10.251 E3.6333
G1 X18.451 Y10.265 E3.6340
G1 X18.115 Y10.846 E3.6634
G1 X18.107 Y10.860 E3.6641
G1 X15.176 Y14.679 E3.8755
G1 X15.165 Y14.691 E3.8762
G1 X14.691 Y15.165 E3.9056
G1 X14.679 Y15.176 E3.9063
G1 X10.860 Y18.107 E4.1177
G1 X10.846 Y18.115 E4.1184
G1 X10.265 Y18.451 E4.1479
G1 X10.251 Y18.458 E4.1485
G1 X5.803 Y20.300 E4.3599
G1 X5.788 Y20.305 E4.3606
G1 X5.140 Y20.479 E4.3901
G1 X5.125 Y20.482 E4.3908
G1 X0.351 Y21.111 E4.6021
G1 X0.336 Y21.112 E4.6028
G1 X-0.336 Y21.112 E4.6323
G1 X-0.351 Y21.111 E4.6330
G1 X-5.125 Y20.482 E4.8444
G1 X-5.140 Y20.479 E4.8450
G1 X-5.788 Y20.305 E4.8745
G1 X-5.803 Y20.300 E4.8752
G1 X-10.251 Y18.458 E5.0866
G1 X-10.265 Y18.451 E5.0873
G1 X-10.846 Y18.115 E5.1167
G1 X-10.860 Y18.107 E5.1174
G1 X-14.679 Y15.176 E5.3288
G1 X-14.691 Y15.166 E5.3295
G1 X-15.166 Y14.691 E5.3590
G1 X-15.176 Y14.679 E5.3596
G1 X-18.107 Y10.860 E5.5710
G1 X-18.116 Y10.846 E5.5717
G1 X-18.451 Y10.265 E5.6012
G1 X-18.458 Y10.251 E5.6019
G1 X-19.918 Y6.727 E5.7693
G1 X-20.300 Y5.803 F375
G92 E0
G1 E-3.0000 F2000
; inner perimeter
G1 X-14.162 Y3.795 F9000
G1 E0.0000 F2000
G92 E0
G1 X-14.661 Y0.000 E0.1680 F313
G1 X-14.162 Y-3.795 E0.3361
G1 X-12.697 Y-7.331 E0.5041
G1 X-10.367 Y-10.367 E0.6721
G1 X-7.331 Y-12.697 E0.8402
G1 X-3.795 Y-14.162 E1.0082
G1 X0.000 Y-14.661 E1.1762
G1 X3.795 Y-14.162 E1.3443
G1 X7.331 Y-12.697 E1.5123
G1 X10.367 Y-10.367 E1.6803
G1 X12.697 Y-7.331 E1.8484
G1 X14.162 Y-3.795 E2.0164
G1 X14.661 Y0.000 E2.1845
G1 X14.162 Y3.795 E2.3525
G1 X12.697 Y7.331 E2.5205
G1 X10.367 Y10.367 E2.6886
G1 X7.331 Y12.697 E2.8566
G1 X3.795 Y14.162 E3.0246
G1 X0.000 Y14.661 E3.1927
G1 X-3.795 Y14.162 E3.3607
G1 X-7.331 Y12.697 E3.5287
G1 X-10.367 Y10.367 E3.6968
G1 X-12.697 Y7.331 E3.8648
G1 X-13.779 Y4.719 E3.9889
G1 X-14.162 Y3.795 F313
G92 E0
G1 E-3.0000 F2000
; inner perimeter
G1 X-14.629 Y3.920 F9000
G1 E0.0000 F2000
G92 E0
G1 X-15.145 Y0.000 E0.1736 F250
G1 X-14.629 Y-3.920 E0.3472
G1 X-13.116 Y-7.573 E0.5208
G1 X-10.710 Y-10.709 E0.6943
G1 X-7.573 Y-13.116 E0.8679
G1 X-3.920 Y-14.629 E1.0415
G1 X0.000 Y-15.145 E1.2151
G1 X3.920 Y-14.629 E1.3887
G1 X7.573 Y-13.116 E1.5623
G1 X10.709 Y-10.709 E1.7358
G1 X13.116 Y-7.573 E1.9094
G1 X14.629 Y-3.920 E2.0830
G1 X15.145 Y0.000 E2.2566
G1 X14.629 Y3.920 E2.4302
G1 X13.116 Y7.573 E2.6038
G1 X10.709 Y10.709 E2.7773
G1 X7.573 Y13.116 E2.9509
G1 X3.920 Y14.629 E3.1245
G1 X0.000 Y15.145 E3.2981
G1 X-3.920 Y14.629 E3.4717
G1 X-7.573 Y13.116 E3.6453
G1 X-10.710 Y10.709 E3.8188
G1 X-13.116 Y7.573 E3.9924
G1 X-14.247 Y4.844 E4.1221
G1 X-14.629 Y3.920 F250
G92 E0
G1 E-3.0000 F2000
; outer perimeter
G1 X-15.097 Y4.045 F9000
G1 E0.0000 F2000
G92 E0
G1 X-15.630 Y0.000 E0.1791 F188
G1 X-15.097 Y-4.045 E0.3583
G1 X-13.536 Y-7.815 E0.5374
G1 X-11.052 Y-11.052 E0.7165
G1 X-7.815 Y-13.536 E0.8957
G1 X-4.045 Y-15.097 E1.0748
G1 X0.000 Y-15.630 E1.2539
G1 X4.045 Y-15.097 E1.4331
G1 X7.815 Y-13.536 E1.6122
G1 X11.052 Y-11.052 E1.7913
G1 X13.536 Y-7.815 E1.9705
G1 X15.097 Y-4.045 E2.1496
G1 X15.630 Y0.000 E2.3287
G1 X15.097 Y4.045 E2.5079
G1 X13.536 Y7.815 E2.6870
G1 X11.052 Y11.052 E2.8661
G1 X7.815 Y13.536 E3.0453
G1 X4.045 Y15.097 E3.2244
G1 X0.000 Y15.630 E3.4035
G1 X-4.045 Y15.097 E3.5827
G1 X-7.815 Y13.536 E3.7618
G1 X-11.052 Y11.052 E3.9409
G1 X-13.536 Y7.815 E4.1200
G1 X-14.714 Y4.969 E4.2553
G1 X-15.097 Y4.045 F188
G92 E0
G1 X-15.391 Y1.815 E-3.0000 F1500
G1 X-15.630 Y0.000 F1500
G1 X-15.510 Y-0.912 F1500
; inner perimeter
G1 X-13.433 Y3.599 F9000
G1 E0.0000 F2000
G92 E0
G1 X-12.044 Y6.954 E0.1594 F313
G1 X-9.834 Y9.834 E0.3188
G1 X-6.954 Y12.044 E0.4782
G1 X-3.599 Y13.433 E0.6376
G1 X0.000 Y13.907 E0.7969
G1 X3.599 Y13.433 E0.9563
G1 X6.954 Y12.044 E1.1157
G1 X9.834 Y9.834 E1.2751
G1 X12.044 Y6.954 E1.4345
G1 X13.433 Y3.599 E1.5939
G1 X13.907 Y0.000 E1.7533
G1 X13.433 Y-3.599 E1.9127
G1 X12.044 Y-6.954 E2.0721
G1 X9.834 Y-9.834 E2.2315
G1 X6.954 Y-12.044 E2.3908
G1 X3.599 Y-13.433 E2.5502
G1 X0.000 Y-13.907 E2.7096
G1 X-3.599 Y-13.433 E2.8690
G1 X-6.954 Y-12.044 E3.0284
G1 X-9.834 Y-9.834 E3.1878
G1 X-12.044 Y-6.954 E3.3472
G1 X-13.433 Y-3.599 E3.5066
G1 X-13.907 Y0.000 E3.6660
G1 X-13.564 Y2.608 E3.7815
G1 X-13.433 Y3.599 F313
G92 E0
G1 E-3.0000 F2000
; inner perimeter
G1 X-12.966 Y3.474 F9000
G1 E0.0000 F2000
G92 E0
G1 X-11.625 Y6.711 E0.1538 F250
G1 X-9.491 Y9.491 E0.3077
G1 X-6.711 Y11.625 E0.4615
G1 X-3.474 Y12.966 E0.6154
G1 X0.000 Y13.423 E0.7692
G1 X3.474 Y12.966 E0.9230
G1 X6.711 Y11.625 E1.0769
G1 X9.491 Y9.491 E1.2307
G1 X11.625 Y6.711 E1.3846
G1 X12.966 Y3.474 E1.5384
G1 X13.423 Y0.000 E1.6923
G1 X12.966 Y-3.474 E1.8461
G1 X11.625 Y-6.711 E1.9999
G1 X9.491 Y-9.491 E2.1538
G1 X6.711 Y-11.625 E2.3076
G1 X3.474 Y-12.966 E2.4615
G1 X0.000 Y-13.423 E2.6153
G1 X-3.474 Y-12.966 E2.7691
G1 X-6.711 Y-11.625 E2.9230
G1 X-9.491 Y-9.491 E3.0768
G1 X-11.625 Y-6.711 E3.2307
G1 X-12.966 Y-3.474 E3.3845
G1 X-13.423 Y0.000 E3.5383
G1 X-13.096 Y2.483 E3.6483
G1 X-12.966 Y3.474 F250
G92 E0
G1 E-3.0000 F2000
; outer perimeter
G1 X-12.498 Y3.349 F9000
G1 E0.0000 F2000
G92 E0
G1 X-11.205 Y6.469 E0.1483 F188
G1 X-9.149 Y9.149 E0.2966
G1 X-6.469 Y11.205 E0.4449
G1 X-3.349 Y12.498 E0.5932
G1 X0.000 Y12.939 E0.7415
G1 X3.349 Y12.498 E0.8898
G1 X6.469 Y11.205 E1.0380
G1 X9.149 Y9.149 E1.1863
G1 X11.205 Y6.469 E1.3346
G1 X12.498 Y3.349 E1.4829
G1 X12.939 Y0.000 E1.6312
G1 X12.498 Y-3.349 E1.7795
G1 X11.205 Y-6.469 E1.9278
G1 X9.149 Y-9.149 E2.0761
G1 X6.469 Y-11.205 E2.2244
G1 X3.349 Y-12.498 E2.3727
G1 X0.000 Y-12.939 E2.5210
G1 X-3.349 Y-12.498 E2.6693
G1 X-6.469 Y-11.205 E2.8176
G1 X-9.149 Y-9.149 E2.9658
G1 X-11.205 Y-6.469 E3.1141
G1 X-12.498 Y-3.349 E3.2624
G1 X-12.939 Y0.000 E3.4107
G1 X-12.628 Y2.357 E3.5151
G1 X-12.498 Y3.349 F188
G92 E0
G1 X-11.637 Y5.428 E-3.0000 F1500
G1 X-11.205 Y6.469 F1500
G1 X-10.218 Y7.756 F1500
; solid layer
G1 X-10.214 Y7.753 F9000
G1 X-11.201 Y6.467 F9000
G1 X-12.493 Y3.348 F9000
G1 X-12.934 Y0.000 F9000
G1 X-12.493 Y-3.348 F9000
G1 X-11.201 Y-6.467 F9000
G1 X-9.146 Y-9.146 F9000
G1 X-6.467 Y-11.201 F9000
G1 X-3.348 Y-12.493 F9000
G1 X0.000 Y-12.934 F9000
G1 X3.348 Y-12.493 F9000
G1 X6.467 Y-11.201 F9000
G1 X6.477 Y-11.193 F9000
G1 X7.421 Y-12.264 F9000
G1 E0.0000 F2000
G92 E0
G1 X8.352 Y-11.334 E0.0578 F300
G1 X7.099 Y-12.295 E0.1272
G1 X6.438 Y-12.569 E0.1586
G1 X6.120 Y-12.887 E0.1783
G1 X4.962 Y-13.367 E0.2333
G1 X5.279 Y-13.049 E0.2531
