; G-Code generated by Simplify3D(R) Version 3.1.0
; Dec 4, 2016 at 6:53:10 PM
; Settings Summary
;   processName,Process1
;   applyToModels,Seahawks
;   profileName,Rostock MAX v2 (modified)
;   profileVersion,2015-05-01 08:00:00
;   baseProfile,
;   printMaterial,PLA
;   printQuality,Medium
;   printExtruders,
;   extruderName,Primary Extruder
;   extruderToolheadNumber,0
;   extruderDiameter,0.4
;   extruderAutoWidth,1
;   extruderWidth,0.48
;   extrusionMultiplier,1.1
;   extruderUseRetract,1
;   extruderRetractionDistance,5
;   extruderExtraRestartDistance,0
;   extruderRetractionZLift,1
;   extruderRetractionSpeed,1600
;   extruderUseCoasting,1
;   extruderCoastingDistance,0.2
;   extruderUseWipe,1
;   extruderWipeDistance,5
;   primaryExtruder,0
;   layerHeight,0.2
;   topSolidLayers,3
;   bottomSolidLayers,3
;   perimeterOutlines,3
;   printPerimetersInsideOut,1
;   startPointOption,2
;   startPointOriginX,0
;   startPointOriginY,0
;   startPointOriginZ,300
;   sequentialIslands,0
;   spiralVaseMode,0
;   firstLayerHeightPercentage,25
;   firstLayerWidthPercentage,100
;   firstLayerUnderspeed,0.25
;   useRaft,0
;   raftExtruder,0
;   raftLayers,3
;   raftOffset,15
;   raftSeparationDistance,0.14
;   raftInfill,85
;   disableRaftBaseLayers,0
;   useSkirt,1
;   skirtExtruder,0
;   skirtLayers,1
;   skirtOutlines,2
;   skirtOffset,5
;   usePrimePillar,0
;   primePillarExtruder,999
;   primePillarWidth,12
;   primePillarLocation,7
;   primePillarSpeedMultiplier,1
;   useOozeShield,0
;   oozeShieldExtruder,999
;   oozeShieldOffset,2
;   oozeShieldOutlines,1
;   oozeShieldSidewallShape,1
;   oozeShieldSidewallAngle,30
;   oozeShieldSpeedMultiplier,1
;   infillExtruder,0
;   internalInfillPattern,Fast Honeycomb
;   externalInfillPattern,Rectilinear
;   infillPercentage,20
;   outlineOverlapPercentage,40
;   infillExtrusionWidthPercentage,100
;   minInfillLength,3
;   infillLayerInterval,1
;   infillAngles,0
;   overlapInfillAngles,0
;   generateSupport,0
;   supportExtruder,0
;   supportInfillPercentage,30
;   supportExtraInflation,0
;   denseSupportLayers,0
;   denseSupportInfillPercentage,70
;   supportLayerInterval,1
;   supportHorizontalPartOffset,0.3
;   supportUpperSeparationLayers,1
;   supportLowerSeparationLayers,1
;   supportType,1
;   supportGridSpacing,4
;   maxOverhangAngle,45
;   supportAngles,0
;   temperatureName,Primary Extruder,Heated Bed
;   temperatureNumber,0,1
;   temperatureSetpointCount,1,1
;   temperatureSetpointLayers,1,1
;   temperatureSetpointTemperatures,205,60
;   temperatureStabilizeAtStartup,1,1
;   temperatureHeatedBed,0,1
;   temperatureRelayBetweenLayers,0,0
;   temperatureRelayBetweenLoops,0,0
;   fanLayers,1,2
;   fanSpeeds,0,100
;   blipFanToFullPower,1
;   adjustSpeedForCooling,1
;   minSpeedLayerTime,15
;   minCoolingSpeedSlowdown,20
;   increaseFanForCooling,0
;   minFanLayerTime,60
;   maxCoolingFanSpeed,100
;   increaseFanForBridging,0
;   bridgingFanSpeed,100
;   use5D,1
;   relativeEdistances,0
;   allowEaxisZeroing,1
;   independentExtruderAxes,0
;   includeM10123,0
;   stickySupport,1
;   applyToolheadOffsets,0
;   gcodeXoffset,0
;   gcodeYoffset,0
;   gcodeZoffset,0
;   overrideMachineDefinition,1
;   machineTypeOverride,1
;   strokeXoverride,197
;   strokeYoverride,197
;   strokeZoverride,375
;   originOffsetXoverride,98.5
;   originOffsetYoverride,98.5
;   originOffsetZoverride,0
;   homeXdirOverride,0
;   homeYdirOverride,0
;   homeZdirOverride,1
;   flipXoverride,1
;   flipYoverride,-1
;   flipZoverride,1
;   toolheadOffsets,0,0|0,0|0,0|0,0|0,0|0,0
;   overrideFirmwareConfiguration,1
;   firmwareTypeOverride,RepRap (Marlin/Repetier/Sprinter)
;   GPXconfigOverride,r2
;   baudRateOverride,115200
;   overridePrinterModels,1
;   printerModelsOverride
;   startingGcode,G28 ; home all axes
;   layerChangeGcode,
;   retractionGcode,
;   toolChangeGcode,
;   endingGcode,M104 S0 ; turn off extruder,M140 S0 ; turn off bed,G28 ; home axes,M84 ; disable motors
;   exportFileFormat,gcode
;   celebration,0
;   celebrationSong,Random Song
;   postProcessing,
;   defaultSpeed,3000
;   outlineUnderspeed,0.5
;   solidInfillUnderspeed,0.8
;   supportUnderspeed,0.8
;   rapidXYspeed,9000
;   rapidZspeed,1200
;   minBridgingArea,50
;   bridgingExtraInflation,0
;   bridgingExtrusionMultiplier,0.8
;   bridgingSpeedMultiplier,0.7
;   filamentDiameter,1.75
;   filamentPricePerKg,22
;   filamentDensity,1.25
;   useMinPrintHeight,0
;   minPrintHeight,0.05
;   useMaxPrintHeight,0
;   maxPrintHeight,0
;   useDiaphragm,0
;   diaphragmLayerInterval,20
;   robustSlicing,1
;   mergeAllIntoSolid,0
;   onlyRetractWhenCrossingOutline,0
;   retractBetweenLayers,0
;   useRetractionMinTravel,0
;   retractionMinTravel,3
;   retractWhileWiping,1
;   onlyWipeOutlines,1
;   avoidCrossingOutline,1
;   maxMovementDetourFactor,2
;   toolChangeRetractionDistance,12
;   toolChangeExtraRestartDistance,-0.5
;   toolChangeRetractionSpeed,600
;   allowThinWallGapFill,1
;   thinWallAllowedOverlapPercentage,10
;   horizontalSizeCompensation,0
G90
M82
M106 S0
M140 S60
M190 S60
M104 S205 T0
M109 S205 T0
G28 ; home all axes
G92 E0
G1 E-5.0000 F1600
G1 Z1.050 F1200
; layer 1, Z = 0.05
T0
; tool H0.200 W0.480
; skirt
G1 X51.180 Y62.867 F9000
G1 Z0.050 F1200
G1 E0.0000 F480
G92 E0
G1 X51.173 Y62.867 E0.0003 F750
G1 X51.079 Y62.869 E0.0044
G1 X51.073 Y62.869 E0.0047
G1 X-51.542 Y62.861 E4.5098
G1 X-51.553 Y62.861 E4.5103
G1 X-51.716 Y62.856 E4.5175
G1 X-51.727 Y62.856 E4.5180
G1 X-53.672 Y62.737 E4.6035
G1 X-53.684 Y62.736 E4.6040
G1 X-53.871 Y62.718 E4.6123
G1 X-53.883 Y62.717 E4.6128
G1 X-55.815 Y62.463 E4.6983
G1 X-55.826 Y62.461 E4.6988
G1 X-55.987 Y62.435 E4.7060
G1 X-55.998 Y62.433 E4.7065
G1 X-57.441 Y62.153 E4.7710
G1 X-57.449 Y62.151 E4.7714
G1 X-57.563 Y62.126 E4.7765
G1 X-57.571 Y62.125 E4.7769
G1 X-58.535 Y61.893 E4.8204
G1 X-58.541 Y61.892 E4.8207
G1 X-58.632 Y61.868 E4.8248
G1 X-58.638 Y61.867 E4.8251
G1 X-59.594 Y61.602 E4.8686
G1 X-59.601 Y61.600 E4.8690
G1 X-59.713 Y61.566 E4.8741
G1 X-59.721 Y61.564 E4.8744
G1 X-61.119 Y61.110 E4.9390
G1 X-61.129 Y61.106 E4.9395
G1 X-61.284 Y61.051 E4.9467
G1 X-61.294 Y61.047 E4.9471
G1 X-63.096 Y60.337 E5.0322
G1 X-63.106 Y60.333 E5.0326
G1 X-63.256 Y60.269 E5.0398
G1 X-63.267 Y60.264 E5.0403
G1 X-64.599 Y59.643 E5.1049
G1 X-64.606 Y59.640 E5.1052
G1 X-64.711 Y59.588 E5.1103
G1 X-64.718 Y59.584 E5.1107
G1 X-65.619 Y59.116 E5.1553
G1 X-65.627 Y59.111 E5.1557
G1 X-65.750 Y59.043 E5.1618
G1 X-65.758 Y59.039 E5.1622
G1 X-67.406 Y58.068 E5.2462
G1 X-67.415 Y58.063 E5.2467
G1 X-67.534 Y57.989 E5.2528
G1 X-67.541 Y57.984 E5.2532
G1 X-68.388 Y57.423 E5.2978
G1 X-68.395 Y57.419 E5.2981
G1 X-68.491 Y57.352 E5.3033
G1 X-68.497 Y57.348 E5.3036
G1 X-69.687 Y56.484 E5.3682
G1 X-69.695 Y56.477 E5.3686
G1 X-69.825 Y56.377 E5.3758
G1 X-69.833 Y56.370 E5.3763
G1 X-71.328 Y55.139 E5.4613
G1 X-71.336 Y55.131 E5.4618
G1 X-71.460 Y55.024 E5.4690
G1 X-71.468 Y55.016 E5.4695
G1 X-72.552 Y54.006 E5.5346
G1 X-72.558 Y53.999 E5.5350
G1 X-72.659 Y53.901 E5.5411
G1 X-72.665 Y53.894 E5.5415
G1 X-73.678 Y52.845 E5.6056
G1 X-73.684 Y52.840 E5.6059
G1 X-73.763 Y52.754 E5.6110
G1 X-73.769 Y52.748 E5.6114
G1 X-74.426 Y52.005 E5.6549
G1 X-74.430 Y52.000 E5.6552
G1 X-74.491 Y51.929 E5.6593
G1 X-74.495 Y51.925 E5.6596
G1 X-75.126 Y51.159 E5.7031
G1 X-75.131 Y51.153 E5.7035
G1 X-75.203 Y51.061 E5.7086
G1 X-75.208 Y51.055 E5.7090
G1 X-76.086 Y49.891 E5.7730
G1 X-76.091 Y49.883 E5.7734
G1 X-76.173 Y49.769 E5.7796
G1 X-76.178 Y49.761 E5.7800
G1 X-77.001 Y48.542 E5.8445
G1 X-77.006 Y48.534 E5.8449
G1 X-77.081 Y48.416 E5.8511
G1 X-77.086 Y48.408 E5.8515
G1 X-77.844 Y47.148 E5.9161
G1 X-77.848 Y47.140 E5.9165
G1 X-77.917 Y47.018 E5.9226
G1 X-77.922 Y47.010 E5.9230
G1 X-78.612 Y45.712 E5.9876
G1 X-78.617 Y45.703 E5.9880
G1 X-78.679 Y45.578 E5.9942
G1 X-78.683 Y45.569 E5.9946
G1 X-79.300 Y44.247 E6.0586
G1 X-79.303 Y44.240 E6.0590
G1 X-79.350 Y44.133 E6.0641
G1 X-79.353 Y44.126 E6.0644
G1 X-79.733 Y43.210 E6.1080
G1 X-79.735 Y43.204 E6.1083
G1 X-79.770 Y43.117 E6.1124
G1 X-79.772 Y43.111 E6.1126
G1 X-80.124 Y42.171 E6.1567
G1 X-80.127 Y42.162 E6.1571
G1 X-80.172 Y42.030 E6.1633
G1 X-80.175 Y42.021 E6.1637
G1 X-80.755 Y40.185 E6.2482
G1 X-80.758 Y40.174 E6.2487
G1 X-80.802 Y40.017 E6.2559
G1 X-80.805 Y40.006 E6.2563
G1 X-81.167 Y38.557 E6.3219
G1 X-81.169 Y38.546 E6.3224
G1 X-81.204 Y38.386 E6.3296
G1 X-81.206 Y38.376 E6.3301
G1 X-81.559 Y36.471 E6.4151
G1 X-81.561 Y36.461 E6.4156
G1 X-81.586 Y36.299 E6.4228
G1 X-81.588 Y36.288 E6.4233
G1 X-81.767 Y34.829 E6.4878
G1 X-81.768 Y34.821 E6.4881
G1 X-81.780 Y34.705 E6.4933
G1 X-81.780 Y34.697 E6.4936
G1 X-81.859 Y33.696 E6.5377
G1 X-81.860 Y33.689 E6.5380
G1 X-81.866 Y33.572 E6.5432
G1 X-81.867 Y33.564 E6.5435
G1 X-81.917 Y32.129 E6.6065
G1 X-81.917 Y32.123 E6.6068
G1 X-81.919 Y32.029 E6.6109
G1 X-81.919 Y32.023 E6.6112
G1 X-81.911 Y-32.481 E9.4431
G1 X-81.911 Y-32.490 E9.4435
G1 X-81.908 Y-32.630 E9.4497
G1 X-81.907 Y-32.639 E9.4501
G1 X-81.831 Y-34.107 E9.5146
G1 X-81.830 Y-34.116 E9.5150
G1 X-81.819 Y-34.256 E9.5212
G1 X-81.818 Y-34.266 E9.5216
G1 X-81.665 Y-35.728 E9.5861
G1 X-81.664 Y-35.737 E9.5866
G1 X-81.645 Y-35.876 E9.5927
G1 X-81.644 Y-35.886 E9.5931
G1 X-81.414 Y-37.338 E9.6577
G1 X-81.413 Y-37.347 E9.6581
G1 X-81.387 Y-37.485 E9.6642
G1 X-81.385 Y-37.494 E9.6647
G1 X-81.080 Y-38.932 E9.7292
G1 X-81.078 Y-38.941 E9.7296
G1 X-81.045 Y-39.078 E9.7358
G1 X-81.043 Y-39.087 E9.7362
G1 X-80.662 Y-40.507 E9.8007
G1 X-80.660 Y-40.516 E9.8012
G1 X-80.620 Y-40.651 E9.8073
G1 X-80.617 Y-40.660 E9.8077
G1 X-80.163 Y-42.058 E9.8723
G1 X-80.160 Y-42.067 E9.8727
G1 X-80.113 Y-42.199 E9.8788
G1 X-80.110 Y-42.208 E9.8793
G1 X-79.579 Y-43.591 E9.9443
G1 X-79.575 Y-43.602 E9.9448
G1 X-79.512 Y-43.753 E9.9520
G1 X-79.508 Y-43.763 E9.9525
G1 X-78.705 Y-45.525 E10.0375
G1 X-78.700 Y-45.535 E10.0380
G1 X-78.628 Y-45.682 E10.0452
G1 X-78.623 Y-45.692 E10.0456
G1 X-77.922 Y-47.011 E10.1112
G1 X-77.916 Y-47.020 E10.1117
G1 X-77.835 Y-47.162 E10.1189
G1 X-77.830 Y-47.172 E10.1194
G1 X-76.812 Y-48.833 E10.2049
G1 X-76.805 Y-48.844 E10.2055
G1 X-76.702 Y-49.000 E10.2137
G1 X-76.695 Y-49.010 E10.2142
G1 X-75.564 Y-50.597 E10.2998
G1 X-75.557 Y-50.605 E10.3002
G1 X-75.458 Y-50.736 E10.3074
G1 X-75.451 Y-50.744 E10.3079
G1 X-74.526 Y-51.887 E10.3725
G1 X-74.521 Y-51.893 E10.3728
G1 X-74.446 Y-51.982 E10.3779
G1 X-74.441 Y-51.988 E10.3783
G1 X-73.768 Y-52.749 E10.4229
G1 X-73.762 Y-52.756 E10.4233
G1 X-73.666 Y-52.858 E10.4294
G1 X-73.659 Y-52.865 E10.4298
G1 X-72.319 Y-54.230 E10.5138
G1 X-72.312 Y-54.237 E10.5143
G1 X-72.211 Y-54.334 E10.5204
G1 X-72.204 Y-54.341 E10.5208
G1 X-71.456 Y-55.027 E10.5654
G1 X-71.450 Y-55.032 E10.5657
G1 X-71.362 Y-55.109 E10.5709
G1 X-71.356 Y-55.114 E10.5712
G1 X-70.248 Y-56.044 E10.6347
G1 X-70.242 Y-56.049 E10.6351
G1 X-70.151 Y-56.122 E10.6402
G1 X-70.145 Y-56.127 E10.6406
G1 X-69.339 Y-56.745 E10.6851
G1 X-69.332 Y-56.751 E10.6856
G1 X-69.218 Y-56.834 E10.6917
G1 X-69.210 Y-56.839 E10.6921
G1 X-67.615 Y-57.936 E10.7771
G1 X-67.604 Y-57.943 E10.7777
G1 X-67.446 Y-58.044 E10.7859
G1 X-67.436 Y-58.050 E10.7865
G1 X-65.767 Y-59.033 E10.8715
G1 X-65.759 Y-59.038 E10.8719
G1 X-65.636 Y-59.106 E10.8781
G1 X-65.628 Y-59.111 E10.8785
G1 X-64.728 Y-59.580 E10.9231
G1 X-64.721 Y-59.583 E10.9234
G1 X-64.616 Y-59.635 E10.9285
G1 X-64.609 Y-59.638 E10.9289
G1 X-63.297 Y-60.250 E10.9924
G1 X-63.290 Y-60.253 E10.9927
G1 X-63.183 Y-60.300 E10.9979
G1 X-63.176 Y-60.303 E10.9982
G1 X-62.260 Y-60.683 E11.0418
G1 X-62.254 Y-60.685 E11.0420
G1 X-62.167 Y-60.720 E11.0461
G1 X-62.161 Y-60.722 E11.0464
G1 X-61.232 Y-61.070 E11.0900
G1 X-61.225 Y-61.072 E11.0903
G1 X-61.114 Y-61.111 E11.0954
G1 X-61.107 Y-61.113 E11.0958
G1 X-59.731 Y-61.561 E11.1593
G1 X-59.724 Y-61.563 E11.1597
G1 X-59.612 Y-61.597 E11.1648
G1 X-59.604 Y-61.599 E11.1651
G1 X-58.626 Y-61.870 E11.2097
G1 X-58.617 Y-61.873 E11.2101
G1 X-58.481 Y-61.907 E11.2163
G1 X-58.471 Y-61.909 E11.2167
G1 X-56.604 Y-62.323 E11.3007
G1 X-56.594 Y-62.325 E11.3011
G1 X-56.457 Y-62.352 E11.3073
G1 X-56.447 Y-62.354 E11.3077
G1 X-55.435 Y-62.523 E11.3528
G1 X-55.425 Y-62.525 E11.3532
G1 X-55.286 Y-62.544 E11.3593
G1 X-55.277 Y-62.545 E11.3597
G1 X-53.353 Y-62.765 E11.4448
G1 X-53.340 Y-62.766 E11.4453
G1 X-53.154 Y-62.781 E11.4535
G1 X-53.141 Y-62.782 E11.4541
G1 X-51.218 Y-62.866 E11.5386
G1 X-51.210 Y-62.866 E11.5390
G1 X-51.092 Y-62.869 E11.5441
G1 X-51.084 Y-62.869 E11.5445
G1 X51.531 Y-62.861 E16.0496
G1 X51.540 Y-62.861 E16.0500
G1 X51.680 Y-62.858 E16.0562
G1 X51.689 Y-62.857 E16.0566
G1 X53.145 Y-62.781 E16.1206
G1 X53.153 Y-62.781 E16.1209
G1 X53.270 Y-62.772 E16.1261
G1 X53.278 Y-62.771 E16.1264
G1 X54.288 Y-62.674 E16.1710
G1 X54.297 Y-62.673 E16.1714
G1 X54.437 Y-62.656 E16.1776
G1 X54.446 Y-62.655 E16.1780
G1 X56.338 Y-62.372 E16.2620
G1 X56.348 Y-62.371 E16.2624
G1 X56.486 Y-62.347 E16.2686
G1 X56.495 Y-62.345 E16.2690
G1 X57.501 Y-62.140 E16.3141
G1 X57.511 Y-62.138 E16.3145
G1 X57.647 Y-62.107 E16.3206
G1 X57.657 Y-62.104 E16.3210
G1 X59.520 Y-61.623 E16.4055
G1 X59.531 Y-61.620 E16.4060
G1 X59.688 Y-61.574 E16.4132
G1 X59.699 Y-61.571 E16.4137
G1 X61.097 Y-61.117 E16.4782
G1 X61.104 Y-61.114 E16.4786
G1 X61.215 Y-61.076 E16.4837
G1 X61.222 Y-61.073 E16.4841
G1 X62.151 Y-60.726 E16.5276
G1 X62.157 Y-60.724 E16.5279
G1 X62.244 Y-60.689 E16.5320
G1 X62.250 Y-60.687 E16.5323
G1 X63.166 Y-60.308 E16.5758
G1 X63.173 Y-60.305 E16.5762
G1 X63.281 Y-60.257 E16.5813
G1 X63.288 Y-60.254 E16.5816
G1 X64.620 Y-59.633 E16.6462
G1 X64.630 Y-59.628 E16.6467
G1 X64.776 Y-59.555 E16.6539
G1 X64.786 Y-59.550 E16.6543
G1 X66.488 Y-58.626 E16.7394
G1 X66.498 Y-58.620 E16.7398
G1 X66.639 Y-58.538 E16.7470
G1 X66.649 Y-58.532 E16.7475
G1 X67.895 Y-57.753 E16.8121
G1 X67.902 Y-57.749 E16.8124
G1 X68.000 Y-57.685 E16.8175
G1 X68.006 Y-57.681 E16.8179
G1 X68.824 Y-57.119 E16.8614
G1 X68.829 Y-57.116 E16.8617
G1 X68.905 Y-57.061 E16.8658
G1 X68.910 Y-57.058 E16.8661
G1 X69.717 Y-56.461 E16.9101
G1 X69.725 Y-56.455 E16.9106
G1 X69.835 Y-56.369 E16.9167
G1 X69.843 Y-56.363 E16.9171
G1 X71.328 Y-55.139 E17.0016
G1 X71.336 Y-55.131 E17.0021
G1 X71.460 Y-55.024 E17.0093
G1 X71.468 Y-55.016 E17.0098
G1 X72.552 Y-54.006 E17.0749
G1 X72.558 Y-53.999 E17.0753
G1 X72.659 Y-53.901 E17.0814
G1 X72.665 Y-53.894 E17.0818
G1 X73.687 Y-52.837 E17.1464
G1 X73.693 Y-52.830 E17.1468
G1 X73.788 Y-52.727 E17.1530
G1 X73.794 Y-52.720 E17.1534
G1 X74.759 Y-51.610 E17.2179
G1 X74.765 Y-51.603 E17.2183
G1 X74.854 Y-51.495 E17.2245
G1 X74.860 Y-51.487 E17.2249
G1 X75.773 Y-50.320 E17.2900
G1 X75.779 Y-50.311 E17.2904
G1 X75.876 Y-50.179 E17.2976
G1 X75.882 Y-50.170 E17.2981
G1 X76.980 Y-48.574 E17.3831
G1 X76.986 Y-48.565 E17.3836
G1 X77.074 Y-48.427 E17.3908
G1 X77.080 Y-48.418 E17.3913
G1 X77.837 Y-47.158 E17.4558
G1 X77.841 Y-47.151 E17.4562
G1 X77.899 Y-47.050 E17.4613
G1 X77.903 Y-47.043 E17.4617
G1 X78.377 Y-46.171 E17.5052
G1 X78.380 Y-46.166 E17.5055
G1 X78.423 Y-46.083 E17.5096
G1 X78.426 Y-46.077 E17.5099
G1 X78.868 Y-45.190 E17.5534
G1 X78.872 Y-45.183 E17.5538
G1 X78.922 Y-45.077 E17.5589
G1 X78.925 Y-45.070 E17.5592
G1 X79.523 Y-43.727 E17.6238
G1 X79.528 Y-43.717 E17.6243
G1 X79.590 Y-43.565 E17.6314
G1 X79.594 Y-43.555 E17.6319
G1 X80.272 Y-41.741 E17.7170
G1 X80.276 Y-41.731 E17.7174
G1 X80.328 Y-41.576 E17.7246
G1 X80.332 Y-41.565 E17.7251
G1 X80.762 Y-40.159 E17.7897
G1 X80.764 Y-40.152 E17.7900
G1 X80.796 Y-40.039 E17.7951
G1 X80.798 Y-40.032 E17.7955
G1 X81.046 Y-39.072 E17.8390
G1 X81.048 Y-39.065 E17.8393
G1 X81.070 Y-38.975 E17.8434
G1 X81.071 Y-38.968 E17.8437
G1 X81.286 Y-38.000 E17.8872
G1 X81.288 Y-37.992 E17.8876
G1 X81.311 Y-37.878 E17.8927
G1 X81.312 Y-37.870 E17.8931
G1 X81.565 Y-36.434 E17.9571
G1 X81.567 Y-36.424 E17.9575
G1 X81.588 Y-36.286 E17.9637
G1 X81.589 Y-36.276 E17.9641
G1 X81.767 Y-34.829 E18.0281
G1 X81.768 Y-34.821 E18.0284
G1 X81.780 Y-34.705 E18.0336
G1 X81.780 Y-34.697 E18.0339
G1 X81.859 Y-33.696 E18.0780
G1 X81.860 Y-33.689 E18.0783
G1 X81.866 Y-33.572 E18.0835
G1 X81.867 Y-33.564 E18.0838
