; G-Code generated by Simplify3D(R) Version 3.1.0
; Dec 4, 2016 at 6:54:23 PM
; Settings Summary
;   processName,Process1
;   applyToModels,Sounders
;   profileName,Rostock MAX v2 (modified)
;   profileVersion,2015-05-01 08:00:00
;   baseProfile,
;   printMaterial,PLA
;   printQuality,Medium
;   printExtruders,
;   extruderName,Primary Extruder
;   extruderToolheadNumber,0
;   extruderDiameter,0.4
;   extruderAutoWidth,1
;   extruderWidth,0.48
;   extrusionMultiplier,1.1
;   extruderUseRetract,1
;   extruderRetractionDistance,5
;   extruderExtraRestartDistance,0
;   extruderRetractionZLift,1
;   extruderRetractionSpeed,1600
;   extruderUseCoasting,1
;   extruderCoastingDistance,0.2
;   extruderUseWipe,1
;   extruderWipeDistance,5
;   primaryExtruder,0
;   layerHeight,0.2
;   topSolidLayers,3
;   bottomSolidLayers,3
;   perimeterOutlines,3
;   printPerimetersInsideOut,1
;   startPointOption,2
;   startPointOriginX,0
;   startPointOriginY,0
;   startPointOriginZ,300
;   sequentialIslands,0
;   spiralVaseMode,0
;   firstLayerHeightPercentage,25
;   firstLayerWidthPercentage,100
;   firstLayerUnderspeed,0.25
;   useRaft,0
;   raftExtruder,0
;   raftLayers,3
;   raftOffset,15
;   raftSeparationDistance,0.14
;   raftInfill,85
;   disableRaftBaseLayers,0
;   useSkirt,1
;   skirtExtruder,0
;   skirtLayers,1
;   skirtOutlines,2
;   skirtOffset,5
;   usePrimePillar,0
;   primePillarExtruder,999
;   primePillarWidth,12
;   primePillarLocation,7
;   primePillarSpeedMultiplier,1
;   useOozeShield,0
;   oozeShieldExtruder,999
;   oozeShieldOffset,2
;   oozeShieldOutlines,1
;   oozeShieldSidewallShape,1
;   oozeShieldSidewallAngle,30
;   oozeShieldSpeedMultiplier,1
;   infillExtruder,0
;   internalInfillPattern,Fast Honeycomb
;   externalInfillPattern,Rectilinear
;   infillPercentage,20
;   outlineOverlapPercentage,40
;   infillExtrusionWidthPercentage,100
;   minInfillLength,3
;   infillLayerInterval,1
;   infillAngles,0
;   overlapInfillAngles,0
;   generateSupport,0
;   supportExtruder,0
;   supportInfillPercentage,30
;   supportExtraInflation,0
;   denseSupportLayers,0
;   denseSupportInfillPercentage,70
;   supportLayerInterval,1
;   supportHorizontalPartOffset,0.3
;   supportUpperSeparationLayers,1
;   supportLowerSeparationLayers,1
;   supportType,1
;   supportGridSpacing,4
;   maxOverhangAngle,45
;   supportAngles,0
;   temperatureName,Primary Extruder,Heated Bed
;   temperatureNumber,0,1
;   temperatureSetpointCount,1,1
;   temperatureSetpointLayers,1,1
;   temperatureSetpointTemperatures,205,60
;   temperatureStabilizeAtStartup,1,1
;   temperatureHeatedBed,0,1
;   temperatureRelayBetweenLayers,0,0
;   temperatureRelayBetweenLoops,0,0
;   fanLayers,1,2
;   fanSpeeds,0,100
;   blipFanToFullPower,1
;   adjustSpeedForCooling,1
;   minSpeedLayerTime,15
;   minCoolingSpeedSlowdown,20
;   increaseFanForCooling,0
;   minFanLayerTime,60
;   maxCoolingFanSpeed,100
;   increaseFanForBridging,0
;   bridgingFanSpeed,100
;   use5D,1
;   relativeEdistances,0
;   allowEaxisZeroing,1
;   independentExtruderAxes,0
;   includeM10123,0
;   stickySupport,1
;   applyToolheadOffsets,0
;   gcodeXoffset,0
;   gcodeYoffset,0
;   gcodeZoffset,0
;   overrideMachineDefinition,1
;   machineTypeOverride,1
;   strokeXoverride,197
;   strokeYoverride,197
;   strokeZoverride,375
;   originOffsetXoverride,98.5
;   originOffsetYoverride,98.5
;   originOffsetZoverride,0
;   homeXdirOverride,0
;   homeYdirOverride,0
;   homeZdirOverride,1
;   flipXoverride,1
;   flipYoverride,-1
;   flipZoverride,1
;   toolheadOffsets,0,0|0,0|0,0|0,0|0,0|0,0
;   overrideFirmwareConfiguration,1
;   firmwareTypeOverride,RepRap (Marlin/Repetier/Sprinter)
;   GPXconfigOverride,r2
;   baudRateOverride,115200
;   overridePrinterModels,1
;   printerModelsOverride
;   startingGcode,G28 ; home all axes
;   layerChangeGcode,
;   retractionGcode,
;   toolChangeGcode,
;   endingGcode,M104 S0 ; turn off extruder,M140 S0 ; turn off bed,G28 ; home axes,M84 ; disable motors
;   exportFileFormat,gcode
;   celebration,0
;   celebrationSong,Random Song
;   postProcessing,
;   defaultSpeed,3000
;   outlineUnderspeed,0.5
;   solidInfillUnderspeed,0.8
;   supportUnderspeed,0.8
;   rapidXYspeed,9000
;   rapidZspeed,1200
;   minBridgingArea,50
;   bridgingExtraInflation,0
;   bridgingExtrusionMultiplier,0.8
;   bridgingSpeedMultiplier,0.7
;   filamentDiameter,1.75
;   filamentPricePerKg,22
;   filamentDensity,1.25
;   useMinPrintHeight,0
;   minPrintHeight,0.05
;   useMaxPrintHeight,0
;   maxPrintHeight,0
;   useDiaphragm,0
;   diaphragmLayerInterval,20
;   robustSlicing,1
;   mergeAllIntoSolid,0
;   onlyRetractWhenCrossingOutline,0
;   retractBetweenLayers,0
;   useRetractionMinTravel,0
;   retractionMinTravel,3
;   retractWhileWiping,1
;   onlyWipeOutlines,1
;   avoidCrossingOutline,1
;   maxMovementDetourFactor,2
;   toolChangeRetractionDistance,12
;   toolChangeExtraRestartDistance,-0.5
;   toolChangeRetractionSpeed,600
;   allowThinWallGapFill,1
;   thinWallAllowedOverlapPercentage,10
;   horizontalSizeCompensation,0
G90
M82
M106 S0
M140 S60
M190 S60
M104 S205 T0
M109 S205 T0
G28 ; home all axes
G92 E0
G1 E-5.0000 F1600
G1 Z1.050 F1200
; layer 1, Z = 0.05
T0
; tool H0.200 W0.480
; skirt
G1 X63.786 Y-56.518 F9000
G1 Z0.050 F1200
G1 E0.0000 F480
G92 E0
G1 X63.903 Y-56.516 E0.0051 F750
G1 X63.911 Y-56.515 E0.0055
G1 X64.721 Y-56.480 E0.0411
G1 X64.733 Y-56.479 E0.0416
G1 X64.908 Y-56.466 E0.0493
G1 X64.919 Y-56.465 E0.0498
G1 X66.085 Y-56.337 E0.1013
G1 X66.097 Y-56.336 E0.1018
G1 X66.270 Y-56.311 E0.1095
G1 X66.282 Y-56.309 E0.1100
G1 X67.109 Y-56.163 E0.1469
G1 X67.121 Y-56.161 E0.1474
G1 X67.293 Y-56.125 E0.1551
G1 X67.304 Y-56.122 E0.1557
G1 X68.443 Y-55.844 E0.2071
G1 X68.455 Y-55.841 E0.2077
G1 X68.623 Y-55.794 E0.2154
G1 X68.635 Y-55.790 E0.2159
G1 X69.436 Y-55.538 E0.2528
G1 X69.447 Y-55.534 E0.2533
G1 X69.613 Y-55.476 E0.2610
G1 X69.624 Y-55.472 E0.2615
G1 X70.734 Y-55.040 E0.3138
G1 X70.747 Y-55.035 E0.3144
G1 X70.939 Y-54.951 E0.3236
G1 X70.952 Y-54.945 E0.3242
G1 X72.024 Y-54.428 E0.3765
G1 X72.035 Y-54.423 E0.3770
G1 X72.190 Y-54.342 E0.3847
G1 X72.201 Y-54.336 E0.3852
G1 X72.932 Y-53.922 E0.4221
G1 X72.942 Y-53.916 E0.4226
G1 X73.092 Y-53.825 E0.4303
G1 X73.102 Y-53.819 E0.4309
G1 X74.112 Y-53.157 E0.4839
G1 X74.126 Y-53.147 E0.4846
G1 X74.325 Y-53.003 E0.4954
G1 X74.338 Y-52.993 E0.4961
G1 X75.571 Y-52.013 E0.5653
G1 X75.583 Y-52.003 E0.5660
G1 X75.768 Y-51.841 E0.5768
G1 X75.780 Y-51.830 E0.5775
G1 X76.666 Y-50.983 E0.6313
G1 X76.676 Y-50.973 E0.6319
G1 X76.822 Y-50.821 E0.6411
G1 X76.832 Y-50.811 E0.6418
G1 X77.648 Y-49.897 E0.6956
G1 X77.658 Y-49.884 E0.6963
G1 X77.813 Y-49.694 E0.7071
G1 X77.823 Y-49.681 E0.7078
G1 X78.771 Y-48.401 E0.7777
G1 X78.782 Y-48.385 E0.7785
G1 X78.936 Y-48.151 E0.7909
G1 X78.946 Y-48.135 E0.7917
G1 X79.755 Y-46.763 E0.8616
G1 X79.763 Y-46.749 E0.8623
G1 X79.878 Y-46.532 E0.8731
G1 X79.885 Y-46.517 E0.8738
G1 X80.408 Y-45.409 E0.9276
G1 X80.414 Y-45.396 E0.9282
G1 X80.496 Y-45.202 E0.9375
G1 X80.501 Y-45.189 E0.9381
G1 X80.923 Y-44.076 E0.9904
G1 X80.927 Y-44.065 E0.9909
G1 X80.984 Y-43.899 E0.9986
G1 X80.987 Y-43.888 E0.9991
G1 X81.233 Y-43.084 E1.0360
G1 X81.237 Y-43.073 E1.0365
G1 X81.282 Y-42.904 E1.0442
G1 X81.285 Y-42.892 E1.0447
G1 X81.562 Y-41.717 E1.0977
G1 X81.566 Y-41.701 E1.0985
G1 X81.611 Y-41.459 E1.1093
G1 X81.614 Y-41.443 E1.1100
G1 X81.830 Y-39.901 E1.1784
G1 X81.832 Y-39.887 E1.1790
G1 X81.853 Y-39.677 E1.1882
G1 X81.854 Y-39.663 E1.1888
G1 X81.907 Y-38.813 E1.2262
G1 X81.907 Y-38.802 E1.2267
G1 X81.912 Y-38.638 E1.2339
G1 X81.912 Y-38.627 E1.2344
G1 X81.918 Y38.378 E4.6152
G1 X81.918 Y38.386 E4.6155
G1 X81.915 Y38.503 E4.6207
G1 X81.915 Y38.511 E4.6210
G1 X81.880 Y39.321 E4.6566
G1 X81.879 Y39.333 E4.6571
G1 X81.866 Y39.508 E4.6648
G1 X81.865 Y39.519 E4.6654
G1 X81.737 Y40.685 E4.7168
G1 X81.736 Y40.697 E4.7174
G1 X81.711 Y40.870 E4.7251
G1 X81.709 Y40.882 E4.7256
G1 X81.563 Y41.710 E4.7625
G1 X81.561 Y41.721 E4.7630
G1 X81.525 Y41.893 E4.7707
G1 X81.522 Y41.904 E4.7712
G1 X81.244 Y43.043 E4.8227
G1 X81.241 Y43.055 E4.8232
G1 X81.194 Y43.223 E4.8309
G1 X81.190 Y43.235 E4.8314
G1 X80.938 Y44.036 E4.8683
G1 X80.934 Y44.047 E4.8688
G1 X80.876 Y44.213 E4.8765
G1 X80.872 Y44.224 E4.8771
G1 X80.447 Y45.317 E4.9285
G1 X80.442 Y45.328 E4.9291
G1 X80.373 Y45.489 E4.9367
G1 X80.369 Y45.500 E4.9373
G1 X80.014 Y46.262 E4.9742
G1 X80.008 Y46.272 E4.9747
G1 X79.929 Y46.429 E4.9824
G1 X79.924 Y46.439 E4.9829
G1 X79.351 Y47.483 E5.0352
G1 X79.344 Y47.495 E5.0358
G1 X79.236 Y47.675 E5.0450
G1 X79.228 Y47.687 E5.0456
G1 X78.576 Y48.683 E5.0979
G1 X78.569 Y48.692 E5.0984
G1 X78.468 Y48.836 E5.1061
G1 X78.462 Y48.845 E5.1066
G1 X77.966 Y49.503 E5.1427
G1 X77.961 Y49.510 E5.1432
G1 X77.873 Y49.620 E5.1493
G1 X77.867 Y49.627 E5.1497
G1 X77.338 Y50.258 E5.1859
G1 X77.331 Y50.267 E5.1864
G1 X77.214 Y50.397 E5.1941
G1 X77.206 Y50.406 E5.1946
G1 X76.395 Y51.253 E5.2461
G1 X76.387 Y51.261 E5.2466
G1 X76.261 Y51.384 E5.2543
G1 X76.253 Y51.392 E5.2548
G1 X75.633 Y51.960 E5.2917
G1 X75.624 Y51.968 E5.2922
G1 X75.491 Y52.082 E5.2999
G1 X75.482 Y52.089 E5.3004
G1 X74.568 Y52.824 E5.3519
G1 X74.558 Y52.831 E5.3524
G1 X74.418 Y52.936 E5.3601
G1 X74.409 Y52.943 E5.3607
G1 X73.706 Y53.435 E5.3983
G1 X73.694 Y53.443 E5.3989
G1 X73.517 Y53.557 E5.4082
G1 X73.505 Y53.564 E5.4088
G1 X72.163 Y54.355 E5.4772
G1 X72.149 Y54.363 E5.4779
G1 X71.932 Y54.478 E5.4887
G1 X71.917 Y54.485 E5.4894
G1 X70.809 Y55.008 E5.5432
G1 X70.796 Y55.014 E5.5438
G1 X70.602 Y55.096 E5.5531
G1 X70.589 Y55.101 E5.5537
G1 X69.476 Y55.523 E5.6059
G1 X69.465 Y55.527 E5.6065
G1 X69.299 Y55.584 E5.6142
G1 X69.288 Y55.587 E5.6147
G1 X68.468 Y55.838 E5.6523
G1 X68.454 Y55.842 E5.6530
G1 X68.250 Y55.896 E5.6622
G1 X68.237 Y55.899 E5.6628
G1 X66.733 Y56.233 E5.7304
G1 X66.720 Y56.235 E5.7310
G1 X66.512 Y56.273 E5.7403
G1 X66.498 Y56.275 E5.7409
G1 X65.649 Y56.395 E5.7786
G1 X65.637 Y56.396 E5.7791
G1 X65.463 Y56.415 E5.7868
G1 X65.451 Y56.416 E5.7873
G1 X64.270 Y56.504 E5.8393
G1 X64.257 Y56.505 E5.8399
G1 X64.058 Y56.512 E5.8486
G1 X64.044 Y56.512 E5.8492
G1 X-63.796 Y56.518 E11.4618
G1 X-63.806 Y56.518 E11.4623
G1 X-63.958 Y56.514 E11.4689
G1 X-63.968 Y56.513 E11.4694
G1 X-65.127 Y56.448 E11.5204
G1 X-65.139 Y56.447 E11.5209
G1 X-65.314 Y56.431 E11.5286
G1 X-65.325 Y56.430 E11.5291
G1 X-66.159 Y56.327 E11.5660
G1 X-66.171 Y56.326 E11.5665
G1 X-66.344 Y56.299 E11.5742
G1 X-66.356 Y56.297 E11.5747
G1 X-67.508 Y56.078 E11.6262
G1 X-67.519 Y56.076 E11.6267
G1 X-67.691 Y56.038 E11.6344
G1 X-67.702 Y56.035 E11.6349
G1 X-68.516 Y55.824 E11.6718
G1 X-68.527 Y55.821 E11.6724
G1 X-68.695 Y55.772 E11.6801
G1 X-68.707 Y55.768 E11.6806
G1 X-69.820 Y55.401 E11.7321
G1 X-69.831 Y55.397 E11.7326
G1 X-69.996 Y55.337 E11.7403
G1 X-70.007 Y55.333 E11.7408
G1 X-70.786 Y55.018 E11.7777
G1 X-70.797 Y55.013 E11.7782
G1 X-70.957 Y54.943 E11.7859
G1 X-70.968 Y54.938 E11.7864
G1 X-72.056 Y54.413 E11.8394
G1 X-72.071 Y54.406 E11.8402
G1 X-72.287 Y54.289 E11.8509
G1 X-72.301 Y54.281 E11.8517
G1 X-73.636 Y53.479 E11.9200
G1 X-73.648 Y53.471 E11.9207
G1 X-73.824 Y53.356 E11.9299
G1 X-73.836 Y53.348 E11.9305
G1 X-74.534 Y52.850 E11.9682
G1 X-74.544 Y52.843 E11.9687
G1 X-74.683 Y52.736 E11.9764
G1 X-74.692 Y52.729 E11.9769
G1 X-75.628 Y51.965 E12.0300
G1 X-75.640 Y51.954 E12.0307
G1 X-75.823 Y51.790 E12.0415
G1 X-75.835 Y51.779 E12.0422
G1 X-76.959 Y50.675 E12.1113
G1 X-76.970 Y50.663 E12.1121
G1 X-77.137 Y50.483 E12.1228
G1 X-77.148 Y50.471 E12.1236
G1 X-77.929 Y49.549 E12.1766
G1 X-77.936 Y49.540 E12.1771
G1 X-78.045 Y49.403 E12.1848
G1 X-78.052 Y49.394 E12.1853
G1 X-78.542 Y48.732 E12.2214
G1 X-78.547 Y48.725 E12.2219
G1 X-78.628 Y48.610 E12.2280
G1 X-78.633 Y48.602 E12.2284
G1 X-79.097 Y47.901 E12.2653
G1 X-79.105 Y47.889 E12.2659
G1 X-79.214 Y47.709 E12.2752
G1 X-79.221 Y47.697 E12.2758
G1 X-79.968 Y46.350 E12.3434
G1 X-79.974 Y46.338 E12.3440
G1 X-80.069 Y46.150 E12.3533
G1 X-80.075 Y46.137 E12.3539
G1 X-80.431 Y45.356 E12.3916
G1 X-80.436 Y45.346 E12.3921
G1 X-80.503 Y45.184 E12.3998
G1 X-80.507 Y45.173 E12.4003
G1 X-80.929 Y44.060 E12.4525
G1 X-80.934 Y44.047 E12.4532
G1 X-81.001 Y43.847 E12.4624
G1 X-81.005 Y43.833 E12.4630
G1 X-81.338 Y42.691 E12.5153
G1 X-81.341 Y42.679 E12.5158
G1 X-81.385 Y42.510 E12.5235
G1 X-81.388 Y42.498 E12.5240
G1 X-81.570 Y41.678 E12.5609
G1 X-81.572 Y41.666 E12.5614
G1 X-81.604 Y41.494 E12.5691
G1 X-81.606 Y41.482 E12.5696
G1 X-81.790 Y40.289 E12.6227
G1 X-81.792 Y40.272 E12.6234
G1 X-81.819 Y40.028 E12.6342
G1 X-81.820 Y40.012 E12.6349
G1 X-81.914 Y38.480 E12.7023
G1 X-81.914 Y38.469 E12.7027
G1 X-81.919 Y38.305 E12.7099
G1 X-81.919 Y38.294 E12.7104
G1 X-81.918 Y-38.414 E16.0782
G1 X-81.918 Y-38.426 E16.0787
G1 X-81.911 Y-38.613 E16.0869
G1 X-81.911 Y-38.625 E16.0875
G1 X-81.804 Y-40.150 E16.1545
G1 X-81.803 Y-40.164 E16.1552
G1 X-81.780 Y-40.373 E16.1644
G1 X-81.778 Y-40.387 E16.1650
G1 X-81.652 Y-41.235 E16.2027
G1 X-81.650 Y-41.247 E16.2032
G1 X-81.618 Y-41.420 E16.2109
G1 X-81.616 Y-41.431 E16.2114
G1 X-81.360 Y-42.612 E16.2645
G1 X-81.356 Y-42.628 E16.2652
G1 X-81.293 Y-42.865 E16.2760
G1 X-81.288 Y-42.881 E16.2767
G1 X-80.820 Y-44.366 E16.3451
G1 X-80.816 Y-44.379 E16.3457
G1 X-80.744 Y-44.578 E16.3549
G1 X-80.739 Y-44.591 E16.3555
G1 X-80.423 Y-45.375 E16.3927
G1 X-80.419 Y-45.385 E16.3931
G1 X-80.358 Y-45.524 E16.3998
G1 X-80.353 Y-45.533 E16.4003
G1 X-79.950 Y-46.388 E16.4418
G1 X-79.945 Y-46.400 E16.4423
G1 X-79.859 Y-46.566 E16.4505
G1 X-79.853 Y-46.577 E16.4511
G1 X-79.277 Y-47.605 E16.5028
G1 X-79.271 Y-47.616 E16.5033
G1 X-79.181 Y-47.766 E16.5110
G1 X-79.175 Y-47.776 E16.5116
G1 X-78.727 Y-48.466 E16.5477
G1 X-78.721 Y-48.474 E16.5481
G1 X-78.642 Y-48.589 E16.5543
G1 X-78.636 Y-48.597 E16.5547
G1 X-78.153 Y-49.263 E16.5908
G1 X-78.146 Y-49.272 E16.5913
G1 X-78.038 Y-49.411 E16.5990
G1 X-78.031 Y-49.420 E16.5995
G1 X-77.270 Y-50.335 E16.6518
G1 X-77.261 Y-50.346 E16.6524
G1 X-77.120 Y-50.502 E16.6616
G1 X-77.110 Y-50.512 E16.6623
G1 X-76.280 Y-51.365 E16.7145
G1 X-76.271 Y-51.373 E16.7150
G1 X-76.145 Y-51.495 E16.7227
G1 X-76.136 Y-51.503 E16.7232
G1 X-75.525 Y-52.053 E16.7594
G1 X-75.518 Y-52.060 E16.7598
G1 X-75.411 Y-52.151 E16.7659
G1 X-75.404 Y-52.157 E16.7664
G1 X-74.764 Y-52.675 E16.8025
G1 X-74.755 Y-52.682 E16.8030
G1 X-74.615 Y-52.788 E16.8107
G1 X-74.606 Y-52.795 E16.8112
G1 X-73.634 Y-53.482 E16.8635
G1 X-73.622 Y-53.490 E16.8641
G1 X-73.446 Y-53.605 E16.8733
G1 X-73.434 Y-53.612 E16.8740
G1 X-72.411 Y-54.221 E16.9262
G1 X-72.401 Y-54.227 E16.9267
G1 X-72.247 Y-54.311 E16.9344
G1 X-72.237 Y-54.317 E16.9349
G1 X-71.504 Y-54.690 E16.9711
G1 X-71.495 Y-54.695 E16.9715
G1 X-71.368 Y-54.755 E16.9776
G1 X-71.360 Y-54.759 E16.9781
G1 X-70.608 Y-55.094 E17.0142
G1 X-70.598 Y-55.098 E17.0147
G1 X-70.435 Y-55.164 E17.0224
G1 X-70.424 Y-55.169 E17.0229
G1 X-69.308 Y-55.581 E17.0752
G1 X-69.294 Y-55.585 E17.0758
G1 X-69.094 Y-55.650 E17.0850
G1 X-69.080 Y-55.655 E17.0857
G1 X-67.924 Y-55.981 E17.1384
G1 X-67.911 Y-55.984 E17.1390
G1 X-67.718 Y-56.031 E17.1477
G1 X-67.705 Y-56.034 E17.1483
G1 X-66.658 Y-56.247 E17.1952
G1 X-66.648 Y-56.249 E17.1957
G1 X-66.486 Y-56.277 E17.2029
G1 X-66.475 Y-56.278 E17.2033
G1 X-65.649 Y-56.395 E17.2400
G1 X-65.637 Y-56.396 E17.2405
G1 X-65.463 Y-56.415 E17.2482
G1 X-65.451 Y-56.416 E17.2487
G1 X-64.270 Y-56.504 E17.3007
G1 X-64.256 Y-56.505 E17.3013
G1 X-64.058 Y-56.512 E17.3100
G1 X-64.044 Y-56.512 E17.3106
G1 X63.586 Y-56.518 E22.9140
G1 X63.778 Y-56.518 F750
G1 X63.786 Y-56.518 F750
G92 E0
G1 E-5.0000 F1600
G1 Z1.050 F1200
G1 X63.778 Y-56.038 F9000
G1 Z0.050 F1200
G1 E0.0000 F1600
G92 E0
G1 X63.890 Y-56.036 E0.0049 F750
G1 X63.892 Y-56.036 E0.0050
G1 X64.696 Y-56.001 E0.0403
G1 X64.700 Y-56.000 E0.0405
G1 X64.867 Y-55.988 E0.0479
G1 X64.871 Y-55.987 E0.0480
G1 X66.029 Y-55.861 E0.0992
G1 X66.033 Y-55.860 E0.0993
G1 X66.199 Y-55.836 E0.1067
G1 X66.202 Y-55.836 E0.1069
G1 X67.022 Y-55.691 E0.1434
G1 X67.026 Y-55.691 E0.1436
G1 X67.190 Y-55.656 E0.1510
G1 X67.194 Y-55.655 E0.1511
G1 X68.326 Y-55.378 E0.2023
