; G-Code generated by Simplify3D(R) Version 3.1.0
; Dec 4, 2016 at 6:55:15 PM
; Settings Summary
;   processName,Process1
;   applyToModels,Washington
;   profileName,Rostock MAX v2 (modified)
;   profileVersion,2015-05-01 08:00:00
;   baseProfile,
;   printMaterial,PLA
;   printQuality,Medium
;   printExtruders,
;   extruderName,Primary Extruder
;   extruderToolheadNumber,0
;   extruderDiameter,0.4
;   extruderAutoWidth,1
;   extruderWidth,0.48
;   extrusionMultiplier,1.1
;   extruderUseRetract,1
;   extruderRetractionDistance,5
;   extruderExtraRestartDistance,0
;   extruderRetractionZLift,1
;   extruderRetractionSpeed,1600
;   extruderUseCoasting,1
;   extruderCoastingDistance,0.2
;   extruderUseWipe,1
;   extruderWipeDistance,5
;   primaryExtruder,0
;   layerHeight,0.2
;   topSolidLayers,3
;   bottomSolidLayers,3
;   perimeterOutlines,3
;   printPerimetersInsideOut,1
;   startPointOption,2
;   startPointOriginX,0
;   startPointOriginY,0
;   startPointOriginZ,300
;   sequentialIslands,0
;   spiralVaseMode,0
;   firstLayerHeightPercentage,25
;   firstLayerWidthPercentage,100
;   firstLayerUnderspeed,0.25
;   useRaft,0
;   raftExtruder,0
;   raftLayers,3
;   raftOffset,15
;   raftSeparationDistance,0.14
;   raftInfill,85
;   disableRaftBaseLayers,0
;   useSkirt,1
;   skirtExtruder,0
;   skirtLayers,1
;   skirtOutlines,2
;   skirtOffset,5
;   usePrimePillar,0
;   primePillarExtruder,999
;   primePillarWidth,12
;   primePillarLocation,7
;   primePillarSpeedMultiplier,1
;   useOozeShield,0
;   oozeShieldExtruder,999
;   oozeShieldOffset,2
;   oozeShieldOutlines,1
;   oozeShieldSidewallShape,1
;   oozeShieldSidewallAngle,30
;   oozeShieldSpeedMultiplier,1
;   infillExtruder,0
;   internalInfillPattern,Fast Honeycomb
;   externalInfillPattern,Rectilinear
;   infillPercentage,20
;   outlineOverlapPercentage,40
;   infillExtrusionWidthPercentage,100
;   minInfillLength,3
;   infillLayerInterval,1
;   infillAngles,0
;   overlapInfillAngles,0
;   generateSupport,0
;   supportExtruder,0
;   supportInfillPercentage,30
;   supportExtraInflation,0
;   denseSupportLayers,0
;   denseSupportInfillPercentage,70
;   supportLayerInterval,1
;   supportHorizontalPartOffset,0.3
;   supportUpperSeparationLayers,1
;   supportLowerSeparationLayers,1
;   supportType,1
;   supportGridSpacing,4
;   maxOverhangAngle,45
;   supportAngles,0
;   temperatureName,Primary Extruder,Heated Bed
;   temperatureNumber,0,1
;   temperatureSetpointCount,1,1
;   temperatureSetpointLayers,1,1
;   temperatureSetpointTemperatures,205,60
;   temperatureStabilizeAtStartup,1,1
;   temperatureHeatedBed,0,1
;   temperatureRelayBetweenLayers,0,0
;   temperatureRelayBetweenLoops,0,0
;   fanLayers,1,2
;   fanSpeeds,0,100
;   blipFanToFullPower,1
;   adjustSpeedForCooling,1
;   minSpeedLayerTime,15
;   minCoolingSpeedSlowdown,20
;   increaseFanForCooling,0
;   minFanLayerTime,60
;   maxCoolingFanSpeed,100
;   increaseFanForBridging,0
;   bridgingFanSpeed,100
;   use5D,1
;   relativeEdistances,0
;   allowEaxisZeroing,1
;   independentExtruderAxes,0
;   includeM10123,0
;   stickySupport,1
;   applyToolheadOffsets,0
;   gcodeXoffset,0
;   gcodeYoffset,0
;   gcodeZoffset,0
;   overrideMachineDefinition,1
;   machineTypeOverride,1
;   strokeXoverride,197
;   strokeYoverride,197
;   strokeZoverride,375
;   originOffsetXoverride,98.5
;   originOffsetYoverride,98.5
;   originOffsetZoverride,0
;   homeXdirOverride,0
;   homeYdirOverride,0
;   homeZdirOverride,1
;   flipXoverride,1
;   flipYoverride,-1
;   flipZoverride,1
;   toolheadOffsets,0,0|0,0|0,0|0,0|0,0|0,0
;   overrideFirmwareConfiguration,1
;   firmwareTypeOverride,RepRap (Marlin/Repetier/Sprinter)
;   GPXconfigOverride,r2
;   baudRateOverride,115200
;   overridePrinterModels,1
;   printerModelsOverride
;   startingGcode,G28 ; home all axes
;   layerChangeGcode,
;   retractionGcode,
;   toolChangeGcode,
;   endingGcode,M104 S0 ; turn off extruder,M140 S0 ; turn off bed,G28 ; home axes,M84 ; disable motors
;   exportFileFormat,gcode
;   celebration,0
;   celebrationSong,Random Song
;   postProcessing,
;   defaultSpeed,3000
;   outlineUnderspeed,0.5
;   solidInfillUnderspeed,0.8
;   supportUnderspeed,0.8
;   rapidXYspeed,9000
;   rapidZspeed,1200
;   minBridgingArea,50
;   bridgingExtraInflation,0
;   bridgingExtrusionMultiplier,0.8
;   bridgingSpeedMultiplier,0.7
;   filamentDiameter,1.75
;   filamentPricePerKg,22
;   filamentDensity,1.25
;   useMinPrintHeight,0
;   minPrintHeight,0.05
;   useMaxPrintHeight,0
;   maxPrintHeight,0
;   useDiaphragm,0
;   diaphragmLayerInterval,20
;   robustSlicing,1
;   mergeAllIntoSolid,0
;   onlyRetractWhenCrossingOutline,0
;   retractBetweenLayers,0
;   useRetractionMinTravel,0
;   retractionMinTravel,3
;   retractWhileWiping,1
;   onlyWipeOutlines,1
;   avoidCrossingOutline,1
;   maxMovementDetourFactor,2
;   toolChangeRetractionDistance,12
;   toolChangeExtraRestartDistance,-0.5
;   toolChangeRetractionSpeed,600
;   allowThinWallGapFill,1
;   thinWallAllowedOverlapPercentage,10
;   horizontalSizeCompensation,0
G90
M82
M106 S0
M140 S60
M190 S60
M104 S205 T0
M109 S205 T0
G28 ; home all axes
G92 E0
G1 E-5.0000 F1600
G1 Z1.050 F1200
; layer 1, Z = 0.05
T0
; tool H0.200 W0.480
; skirt
G1 X63.806 Y-62.868 F9000
G1 Z0.050 F1200
G1 E0.0000 F480
G92 E0
G1 X63.958 Y-62.864 E0.0067 F750
G1 X63.969 Y-62.863 E0.0071
G1 X65.145 Y-62.796 E0.0589
G1 X65.159 Y-62.795 E0.0595
G1 X65.369 Y-62.775 E0.0687
G1 X65.383 Y-62.774 E0.0693
G1 X66.562 Y-62.613 E0.1216
G1 X66.574 Y-62.611 E0.1221
G1 X66.747 Y-62.582 E0.1298
G1 X66.758 Y-62.580 E0.1303
G1 X67.582 Y-62.412 E0.1672
G1 X67.593 Y-62.410 E0.1677
G1 X67.764 Y-62.369 E0.1754
G1 X67.775 Y-62.366 E0.1760
G1 X68.907 Y-62.058 E0.2274
G1 X68.918 Y-62.055 E0.2280
G1 X69.086 Y-62.003 E0.2357
G1 X69.097 Y-62.000 E0.2362
G1 X69.891 Y-61.726 E0.2731
G1 X69.902 Y-61.722 E0.2736
G1 X70.066 Y-61.660 E0.2813
G1 X70.077 Y-61.655 E0.2818
G1 X71.175 Y-61.195 E0.3341
G1 X71.188 Y-61.189 E0.3347
G1 X71.379 Y-61.100 E0.3439
G1 X71.391 Y-61.094 E0.3445
G1 X72.465 Y-60.541 E0.3976
G1 X72.478 Y-60.535 E0.3982
G1 X72.661 Y-60.431 E0.4074
G1 X72.673 Y-60.424 E0.4080
G1 X73.685 Y-59.797 E0.4603
G1 X73.695 Y-59.791 E0.4608
G1 X73.841 Y-59.694 E0.4685
G1 X73.851 Y-59.687 E0.4690
G1 X74.535 Y-59.199 E0.5059
G1 X74.544 Y-59.192 E0.5064
G1 X74.684 Y-59.086 E0.5141
G1 X74.693 Y-59.079 E0.5147
G1 X75.601 Y-58.337 E0.5661
G1 X75.610 Y-58.329 E0.5667
G1 X75.742 Y-58.214 E0.5744
G1 X75.751 Y-58.206 E0.5749
G1 X76.353 Y-57.645 E0.6110
G1 X76.360 Y-57.638 E0.6114
G1 X76.460 Y-57.540 E0.6176
G1 X76.466 Y-57.533 E0.6180
G1 X77.050 Y-56.929 E0.6549
G1 X77.060 Y-56.918 E0.6555
G1 X77.200 Y-56.761 E0.6647
G1 X77.209 Y-56.751 E0.6654
G1 X78.200 Y-55.549 E0.7337
G1 X78.210 Y-55.536 E0.7345
G1 X78.358 Y-55.340 E0.7453
G1 X78.367 Y-55.326 E0.7460
G1 X79.067 Y-54.299 E0.8005
G1 X79.076 Y-54.285 E0.8013
G1 X79.204 Y-54.076 E0.8120
G1 X79.213 Y-54.062 E0.8128
G1 X79.976 Y-52.684 E0.8819
G1 X79.984 Y-52.670 E0.8826
G1 X80.093 Y-52.450 E0.8934
G1 X80.100 Y-52.435 E0.8941
G1 X80.601 Y-51.297 E0.9487
G1 X80.607 Y-51.282 E0.9494
G1 X80.696 Y-51.053 E0.9602
G1 X80.701 Y-51.037 E0.9609
G1 X81.201 Y-49.544 E1.0301
G1 X81.206 Y-49.528 E1.0308
G1 X81.273 Y-49.292 E1.0416
G1 X81.277 Y-49.276 E1.0423
G1 X81.562 Y-48.066 E1.0969
G1 X81.566 Y-48.050 E1.0976
G1 X81.611 Y-47.809 E1.1084
G1 X81.614 Y-47.792 E1.1091
G1 X81.831 Y-46.250 E1.1775
G1 X81.832 Y-46.236 E1.1781
G1 X81.853 Y-46.027 E1.1874
G1 X81.854 Y-46.013 E1.1880
G1 X81.907 Y-45.162 E1.2254
G1 X81.907 Y-45.151 E1.2259
G1 X81.912 Y-44.987 E1.2331
G1 X81.912 Y-44.977 E1.2335
G1 X81.918 Y44.729 E5.1719
G1 X81.918 Y44.737 E5.1722
G1 X81.915 Y44.853 E5.1774
G1 X81.915 Y44.861 E5.1777
G1 X81.880 Y45.672 E5.2133
G1 X81.879 Y45.683 E5.2138
G1 X81.866 Y45.858 E5.2215
G1 X81.865 Y45.870 E5.2221
G1 X81.735 Y47.053 E5.2743
G1 X81.733 Y47.067 E5.2749
G1 X81.702 Y47.275 E5.2842
G1 X81.700 Y47.289 E5.2848
G1 X81.475 Y48.476 E5.3378
G1 X81.472 Y48.490 E5.3384
G1 X81.424 Y48.695 E5.3477
G1 X81.421 Y48.708 E5.3483
G1 X81.104 Y49.874 E5.4013
G1 X81.100 Y49.887 E5.4019
G1 X81.036 Y50.088 E5.4112
G1 X81.032 Y50.101 E5.4118
G1 X80.624 Y51.238 E5.4648
G1 X80.619 Y51.251 E5.4654
G1 X80.540 Y51.446 E5.4747
G1 X80.534 Y51.459 E5.4753
G1 X80.038 Y52.561 E5.5283
G1 X80.032 Y52.573 E5.5290
G1 X79.938 Y52.762 E5.5382
G1 X79.932 Y52.774 E5.5388
G1 X79.343 Y53.849 E5.5926
G1 X79.334 Y53.863 E5.5933
G1 X79.206 Y54.073 E5.6041
G1 X79.198 Y54.086 E5.6048
G1 X78.307 Y55.407 E5.6748
G1 X78.296 Y55.422 E5.6756
G1 X78.127 Y55.646 E5.6879
G1 X78.116 Y55.661 E5.6887
G1 X77.092 Y56.881 E5.7587
G1 X77.081 Y56.893 E5.7594
G1 X76.915 Y57.074 E5.7702
G1 X76.903 Y57.086 E5.7709
G1 X76.046 Y57.936 E5.8239
G1 X76.037 Y57.945 E5.8244
G1 X75.909 Y58.064 E5.8321
G1 X75.900 Y58.072 E5.8326
G1 X75.253 Y58.635 E5.8703
G1 X75.242 Y58.644 E5.8709
G1 X75.078 Y58.776 E5.8802
G1 X75.066 Y58.784 E5.8808
G1 X73.814 Y59.711 E5.9492
G1 X73.801 Y59.720 E5.9499
G1 X73.597 Y59.857 E5.9607
G1 X73.583 Y59.866 E5.9614
G1 X72.521 Y60.511 E6.0160
G1 X72.506 Y60.519 E6.0167
G1 X72.291 Y60.637 E6.0275
G1 X72.276 Y60.644 E6.0282
G1 X70.861 Y61.335 E6.0973
G1 X70.846 Y61.342 E6.0981
G1 X70.620 Y61.439 E6.1088
G1 X70.605 Y61.445 E6.1096
G1 X69.443 Y61.886 E6.1641
G1 X69.427 Y61.891 E6.1649
G1 X69.194 Y61.968 E6.1756
G1 X69.178 Y61.972 E6.1764
G1 X67.677 Y62.389 E6.2447
G1 X67.664 Y62.392 E6.2454
G1 X67.459 Y62.440 E6.2546
G1 X67.445 Y62.443 E6.2552
G1 X66.603 Y62.607 E6.2929
G1 X66.592 Y62.609 E6.2934
G1 X66.418 Y62.637 E6.3011
G1 X66.406 Y62.639 E6.3016
G1 X65.243 Y62.787 E6.3531
G1 X65.231 Y62.788 E6.3536
G1 X65.057 Y62.805 E6.3613
G1 X65.045 Y62.806 E6.3618
G1 X64.212 Y62.857 E6.3985
G1 X64.201 Y62.857 E6.3990
G1 X64.037 Y62.862 E6.4062
G1 X64.026 Y62.862 E6.4066
G1 X-63.796 Y62.868 E12.0185
G1 X-63.806 Y62.868 E12.0189
G1 X-63.958 Y62.864 E12.0256
G1 X-63.968 Y62.863 E12.0260
G1 X-65.145 Y62.797 E12.0778
G1 X-65.159 Y62.795 E12.0784
G1 X-65.369 Y62.775 E12.0877
G1 X-65.383 Y62.774 E12.0883
G1 X-66.562 Y62.613 E12.1405
G1 X-66.574 Y62.611 E12.1410
G1 X-66.747 Y62.582 E12.1487
G1 X-66.758 Y62.580 E12.1493
G1 X-67.582 Y62.413 E12.1861
G1 X-67.593 Y62.410 E12.1867
G1 X-67.764 Y62.369 E12.1944
G1 X-67.775 Y62.367 E12.1949
G1 X-68.924 Y62.054 E12.2471
G1 X-68.937 Y62.050 E12.2478
G1 X-69.138 Y61.986 E12.2570
G1 X-69.151 Y61.982 E12.2576
G1 X-70.272 Y61.580 E12.3099
G1 X-70.283 Y61.576 E12.3104
G1 X-70.446 Y61.511 E12.3181
G1 X-70.457 Y61.506 E12.3186
G1 X-71.227 Y61.171 E12.3555
G1 X-71.238 Y61.166 E12.3560
G1 X-71.396 Y61.091 E12.3637
G1 X-71.407 Y61.086 E12.3642
G1 X-72.465 Y60.541 E12.4165
G1 X-72.478 Y60.534 E12.4171
G1 X-72.661 Y60.431 E12.4264
G1 X-72.673 Y60.424 E12.4270
G1 X-73.685 Y59.797 E12.4792
G1 X-73.695 Y59.791 E12.4797
G1 X-73.841 Y59.694 E12.4874
G1 X-73.851 Y59.687 E12.4880
G1 X-74.535 Y59.199 E12.5249
G1 X-74.544 Y59.192 E12.5254
G1 X-74.684 Y59.086 E12.5331
G1 X-74.693 Y59.079 E12.5336
G1 X-75.601 Y58.337 E12.5851
G1 X-75.610 Y58.329 E12.5856
G1 X-75.742 Y58.214 E12.5933
G1 X-75.751 Y58.206 E12.5938
G1 X-76.379 Y57.621 E12.6315
G1 X-76.389 Y57.611 E12.6321
G1 X-76.537 Y57.462 E12.6413
G1 X-76.547 Y57.451 E12.6420
G1 X-77.599 Y56.303 E12.7103
G1 X-77.610 Y56.291 E12.7111
G1 X-77.767 Y56.102 E12.7218
G1 X-77.777 Y56.089 E12.7226
G1 X-78.509 Y55.128 E12.7756
G1 X-78.516 Y55.119 E12.7761
G1 X-78.617 Y54.976 E12.7838
G1 X-78.624 Y54.966 E12.7843
G1 X-79.097 Y54.251 E12.8220
G1 X-79.105 Y54.239 E12.8226
G1 X-79.214 Y54.059 E12.8319
G1 X-79.221 Y54.046 E12.8325
G1 X-79.976 Y52.684 E12.9008
G1 X-79.984 Y52.670 E12.9016
G1 X-80.093 Y52.450 E12.9124
G1 X-80.100 Y52.435 E12.9131
G1 X-80.601 Y51.297 E12.9676
G1 X-80.607 Y51.282 E12.9684
G1 X-80.696 Y51.053 E12.9791
G1 X-80.701 Y51.037 E12.9799
G1 X-81.196 Y49.561 E13.0482
G1 X-81.200 Y49.547 E13.0489
G1 X-81.259 Y49.345 E13.0581
G1 X-81.262 Y49.331 E13.0587
G1 X-81.474 Y48.482 E13.0972
G1 X-81.477 Y48.468 E13.0978
G1 X-81.520 Y48.262 E13.1070
G1 X-81.523 Y48.248 E13.1076
G1 X-81.780 Y46.712 E13.1760
G1 X-81.782 Y46.696 E13.1767
G1 X-81.812 Y46.452 E13.1875
G1 X-81.813 Y46.436 E13.1883
G1 X-81.904 Y45.219 E13.2418
G1 X-81.905 Y45.206 E13.2424
G1 X-81.912 Y45.007 E13.2511
G1 X-81.912 Y44.994 E13.2517
G1 X-81.920 Y-44.641 E17.1870
G1 X-81.919 Y-44.652 E17.1875
G1 X-81.914 Y-44.816 E17.1947
G1 X-81.914 Y-44.827 E17.1951
G1 X-81.821 Y-46.340 E17.2617
G1 X-81.820 Y-46.354 E17.2623
G1 X-81.799 Y-46.564 E17.2716
G1 X-81.798 Y-46.578 E17.2722
G1 X-81.678 Y-47.428 E17.3099
G1 X-81.676 Y-47.439 E17.3104
G1 X-81.646 Y-47.612 E17.3181
G1 X-81.644 Y-47.624 E17.3186
G1 X-81.398 Y-48.806 E17.3716
G1 X-81.394 Y-48.822 E17.3723
G1 X-81.334 Y-49.060 E17.3831
G1 X-81.329 Y-49.076 E17.3839
G1 X-80.864 Y-50.599 E17.4538
G1 X-80.858 Y-50.617 E17.4546
G1 X-80.762 Y-50.881 E17.4669
G1 X-80.755 Y-50.898 E17.4678
G1 X-80.130 Y-52.370 E17.5380
G1 X-80.123 Y-52.386 E17.5387
G1 X-80.011 Y-52.618 E17.5500
G1 X-80.003 Y-52.633 E17.5508
G1 X-79.369 Y-53.801 E17.6091
G1 X-79.363 Y-53.812 E17.6097
G1 X-79.268 Y-53.974 E17.6179
G1 X-79.261 Y-53.984 E17.6185
G1 X-78.807 Y-54.698 E17.6556
G1 X-78.800 Y-54.708 E17.6561
G1 X-78.701 Y-54.853 E17.6638
G1 X-78.694 Y-54.862 E17.6643
G1 X-77.991 Y-55.822 E17.7166
G1 X-77.982 Y-55.833 E17.7172
G1 X-77.851 Y-55.998 E17.7264
G1 X-77.842 Y-56.009 E17.7271
G1 X-77.065 Y-56.910 E17.7793
G1 X-77.057 Y-56.919 E17.7798
G1 X-76.939 Y-57.048 E17.7875
G1 X-76.930 Y-57.057 E17.7881
G1 X-76.342 Y-57.656 E17.8250
G1 X-76.333 Y-57.665 E17.8255
G1 X-76.206 Y-57.786 E17.8332
G1 X-76.198 Y-57.794 E17.8337
G1 X-75.310 Y-58.586 E17.8859
G1 X-75.299 Y-58.595 E17.8866
G1 X-75.136 Y-58.729 E17.8958
G1 X-75.125 Y-58.738 E17.8964
G1 X-74.178 Y-59.459 E17.9487
G1 X-74.169 Y-59.466 E17.9492
G1 X-74.026 Y-59.567 E17.9569
G1 X-74.016 Y-59.574 E17.9574
G1 X-73.315 Y-60.038 E17.9943
G1 X-73.305 Y-60.044 E17.9948
G1 X-73.156 Y-60.136 E18.0025
G1 X-73.146 Y-60.142 E18.0030
G1 X-72.097 Y-60.741 E18.0561
G1 X-72.083 Y-60.749 E18.0568
G1 X-71.864 Y-60.861 E18.0676
G1 X-71.849 Y-60.868 E18.0683
G1 X-70.416 Y-61.522 E18.1374
G1 X-70.401 Y-61.528 E18.1382
G1 X-70.173 Y-61.620 E18.1489
G1 X-70.158 Y-61.625 E18.1497
G1 X-69.018 Y-62.024 E18.2027
G1 X-69.006 Y-62.027 E18.2032
G1 X-68.839 Y-62.080 E18.2109
G1 X-68.828 Y-62.083 E18.2114
G1 X-68.018 Y-62.308 E18.2483
G1 X-68.006 Y-62.311 E18.2488
G1 X-67.836 Y-62.352 E18.2565
G1 X-67.825 Y-62.355 E18.2571
G1 X-66.659 Y-62.597 E18.3093
G1 X-66.645 Y-62.600 E18.3099
G1 X-66.438 Y-62.635 E18.3192
G1 X-66.424 Y-62.637 E18.3198
G1 X-65.243 Y-62.787 E18.3721
G1 X-65.231 Y-62.788 E18.3726
G1 X-65.057 Y-62.805 E18.3803
G1 X-65.045 Y-62.806 E18.3808
G1 X-64.212 Y-62.857 E18.4174
G1 X-64.201 Y-62.857 E18.4179
G1 X-64.037 Y-62.862 E18.4251
G1 X-64.026 Y-62.862 E18.4256
G1 X63.607 Y-62.868 E24.0291
G1 X63.796 Y-62.868 F750
G1 X63.806 Y-62.868 F750
G92 E0
G1 E-5.0000 F1600
G1 Z1.050 F1200
G1 X63.796 Y-62.388 F9000
G1 Z0.050 F1200
G1 E0.0000 F1600
G92 E0
G1 X63.941 Y-62.384 E0.0064 F750
G1 X63.945 Y-62.384 E0.0065
G1 X65.113 Y-62.318 E0.0579
G1 X65.118 Y-62.317 E0.0581
G1 X65.318 Y-62.298 E0.0669
G1 X65.323 Y-62.297 E0.0671
G1 X66.493 Y-62.138 E0.1190
G1 X66.497 Y-62.138 E0.1192
G1 X66.663 Y-62.110 E0.1265
G1 X66.667 Y-62.109 E0.1267
G1 X67.482 Y-61.943 E0.1633
G1 X67.486 Y-61.942 E0.1634
G1 X67.649 Y-61.903 E0.1708
G1 X67.653 Y-61.902 E0.1710
G1 X68.777 Y-61.596 E0.2221
G1 X68.780 Y-61.595 E0.2223
G1 X68.941 Y-61.546 E0.2296
G1 X68.944 Y-61.544 E0.2298
G1 X69.731 Y-61.273 E0.2664
G1 X69.735 Y-61.272 E0.2665
G1 X69.892 Y-61.212 E0.2739
G1 X69.895 Y-61.211 E0.2741
G1 X70.985 Y-60.754 E0.3259
G1 X70.989 Y-60.752 E0.3261
G1 X71.172 Y-60.667 E0.3350
G1 X71.176 Y-60.665 E0.3352
G1 X72.241 Y-60.117 E0.3878
G1 X72.245 Y-60.114 E0.3880
G1 X72.420 Y-60.015 E0.3968
G1 X72.424 Y-60.013 E0.3970
G1 X73.429 Y-59.391 E0.4489
G1 X73.432 Y-59.389 E0.4491
G1 X73.572 Y-59.296 E0.4564
G1 X73.575 Y-59.294 E0.4566
G1 X74.253 Y-58.811 E0.4931
G1 X74.256 Y-58.808 E0.4933
G1 X74.389 Y-58.707 E0.5007
G1 X74.392 Y-58.704 E0.5008
G1 X75.294 Y-57.968 E0.5520
