; G-Code generated by Simplify3D(R) Version 3.1.0
; Oct 11, 2016 at 6:58:50 PM
; Settings Summary
;   processName,Process1
;   applyToModels,core
;   profileName,Rostock MAX v2 (modified)
;   profileVersion,2015-05-01 08:00:00
;   baseProfile,
;   printMaterial,PLA
;   printQuality,Medium
;   printExtruders,
;   extruderName,Primary Extruder
;   extruderToolheadNumber,0
;   extruderDiameter,0.4
;   extruderAutoWidth,1
;   extruderWidth,0.48
;   extrusionMultiplier,1
;   extruderUseRetract,1
;   extruderRetractionDistance,2
;   extruderExtraRestartDistance,0
;   extruderRetractionZLift,0
;   extruderRetractionSpeed,1800
;   extruderUseCoasting,1
;   extruderCoastingDistance,1
;   extruderUseWipe,1
;   extruderWipeDistance,5
;   primaryExtruder,0
;   layerHeight,0.3
;   topSolidLayers,3
;   bottomSolidLayers,3
;   perimeterOutlines,3
;   printPerimetersInsideOut,1
;   startPointOption,2
;   startPointOriginX,0
;   startPointOriginY,0
;   startPointOriginZ,300
;   sequentialIslands,0
;   spiralVaseMode,0
;   firstLayerHeightPercentage,25
;   firstLayerWidthPercentage,100
;   firstLayerUnderspeed,0.4
;   useRaft,0
;   raftExtruder,0
;   raftLayers,3
;   raftOffset,15
;   raftSeparationDistance,0.14
;   raftInfill,85
;   disableRaftBaseLayers,0
;   useSkirt,1
;   skirtExtruder,0
;   skirtLayers,1
;   skirtOutlines,2
;   skirtOffset,5
;   usePrimePillar,0
;   primePillarExtruder,999
;   primePillarWidth,12
;   primePillarLocation,7
;   primePillarSpeedMultiplier,1
;   useOozeShield,0
;   oozeShieldExtruder,999
;   oozeShieldOffset,2
;   oozeShieldOutlines,1
;   oozeShieldSidewallShape,1
;   oozeShieldSidewallAngle,30
;   oozeShieldSpeedMultiplier,1
;   infillExtruder,0
;   internalInfillPattern,Rectilinear
;   externalInfillPattern,Rectilinear
;   infillPercentage,20
;   outlineOverlapPercentage,40
;   infillExtrusionWidthPercentage,100
;   minInfillLength,3
;   infillLayerInterval,1
;   infillAngles,45,-45
;   overlapInfillAngles,0
;   generateSupport,1
;   supportExtruder,0
;   supportInfillPercentage,30
;   supportExtraInflation,0
;   denseSupportLayers,0
;   denseSupportInfillPercentage,70
;   supportLayerInterval,1
;   supportHorizontalPartOffset,0.3
;   supportUpperSeparationLayers,1
;   supportLowerSeparationLayers,1
;   supportType,1
;   supportGridSpacing,4
;   maxOverhangAngle,89
;   supportAngles,0
;   temperatureName,Primary Extruder,Heated Bed
;   temperatureNumber,0,1
;   temperatureSetpointCount,1,1
;   temperatureSetpointLayers,1,1
;   temperatureSetpointTemperatures,195,60
;   temperatureStabilizeAtStartup,1,0
;   temperatureHeatedBed,0,1
;   temperatureRelayBetweenLayers,0,0
;   temperatureRelayBetweenLoops,0,0
;   fanLayers,1,2
;   fanSpeeds,0,100
;   blipFanToFullPower,1
;   adjustSpeedForCooling,1
;   minSpeedLayerTime,15
;   minCoolingSpeedSlowdown,20
;   increaseFanForCooling,0
;   minFanLayerTime,60
;   maxCoolingFanSpeed,100
;   increaseFanForBridging,0
;   bridgingFanSpeed,100
;   use5D,1
;   relativeEdistances,0
;   allowEaxisZeroing,1
;   independentExtruderAxes,0
;   includeM10123,0
;   stickySupport,1
;   applyToolheadOffsets,0
;   gcodeXoffset,0
;   gcodeYoffset,0
;   gcodeZoffset,0
;   overrideMachineDefinition,1
;   machineTypeOverride,1
;   strokeXoverride,197
;   strokeYoverride,197
;   strokeZoverride,375
;   originOffsetXoverride,98.5
;   originOffsetYoverride,98.5
;   originOffsetZoverride,0
;   homeXdirOverride,0
;   homeYdirOverride,0
;   homeZdirOverride,1
;   flipXoverride,1
;   flipYoverride,-1
;   flipZoverride,1
;   toolheadOffsets,0,0|0,0|0,0|0,0|0,0|0,0
;   overrideFirmwareConfiguration,1
;   firmwareTypeOverride,RepRap (Marlin/Repetier/Sprinter)
;   GPXconfigOverride,r2
;   baudRateOverride,115200
;   overridePrinterModels,1
;   printerModelsOverride
;   startingGcode,G28 ; home all axes
;   layerChangeGcode,
;   retractionGcode,
;   toolChangeGcode,
;   endingGcode,M104 S0 ; turn off extruder,M140 S0 ; turn off bed,G28 ; home axes,M84 ; disable motors
;   exportFileFormat,gcode
;   celebration,0
;   celebrationSong,Random Song
;   postProcessing,
;   defaultSpeed,1500
;   outlineUnderspeed,0.5
;   solidInfillUnderspeed,0.8
;   supportUnderspeed,0.8
;   rapidXYspeed,9000
;   rapidZspeed,1200
;   minBridgingArea,50
;   bridgingExtraInflation,0
;   bridgingExtrusionMultiplier,0.8
;   bridgingSpeedMultiplier,0.7
;   filamentDiameter,1.75
;   filamentPricePerKg,22
;   filamentDensity,1.25
;   useMinPrintHeight,0
;   minPrintHeight,0.05
;   useMaxPrintHeight,0
;   maxPrintHeight,0
;   useDiaphragm,0
;   diaphragmLayerInterval,20
;   robustSlicing,1
;   mergeAllIntoSolid,1
;   onlyRetractWhenCrossingOutline,0
;   retractBetweenLayers,0
;   useRetractionMinTravel,0
;   retractionMinTravel,3
;   retractWhileWiping,1
;   onlyWipeOutlines,1
;   avoidCrossingOutline,1
;   maxMovementDetourFactor,1.5
;   toolChangeRetractionDistance,12
;   toolChangeExtraRestartDistance,-0.5
;   toolChangeRetractionSpeed,600
;   allowThinWallGapFill,1
;   thinWallAllowedOverlapPercentage,10
;   horizontalSizeCompensation,0
G90
M82
M106 S0
M140 S60
M104 S195 T0
M109 S195 T0
G28 ; home all axes
G92 E0
G1 E-2.0000 F1800
G1 Z0.075 F1200
; layer 1, Z = 0.075
T0
; tool H0.300 W0.480
; skirt
G1 X4.850 Y-3.642 F9000
G1 E0.0000 F540
G92 E0
G1 X1.706 Y-6.847 E0.2688 F600
G1 X1.599 Y-7.117 E0.2861
G1 X1.710 Y-12.832 E0.6284
G1 X1.822 Y-13.092 E0.6453
G1 X4.941 Y-16.151 E0.9068
G1 X5.203 Y-16.257 E0.9237
G1 X18.867 Y-16.257 E1.7418
G1 X18.883 Y-16.257 E1.7427
G1 X19.116 Y-16.247 E1.7567
G1 X19.132 Y-16.246 E1.7577
G1 X20.356 Y-16.139 E1.8312
G1 X20.388 Y-16.135 E1.8331
G1 X20.848 Y-16.053 E1.8611
G1 X20.879 Y-16.047 E1.8630
G1 X22.179 Y-15.698 E1.9436
G1 X22.209 Y-15.689 E1.9455
G1 X22.649 Y-15.529 E1.9735
G1 X22.678 Y-15.517 E1.9754
G1 X23.898 Y-14.948 E2.0560
G1 X23.926 Y-14.933 E2.0579
G1 X24.331 Y-14.699 E2.0859
G1 X24.358 Y-14.682 E2.0878
G1 X25.461 Y-13.910 E2.1684
G1 X25.486 Y-13.891 E2.1703
G1 X25.844 Y-13.590 E2.1983
G1 X25.867 Y-13.569 E2.2002
G1 X26.819 Y-12.617 E2.2807
G1 X26.840 Y-12.594 E2.2826
G1 X27.141 Y-12.236 E2.3106
G1 X27.160 Y-12.211 E2.3125
G1 X27.932 Y-11.108 E2.3931
G1 X27.949 Y-11.081 E2.3950
G1 X28.183 Y-10.676 E2.4230
G1 X28.198 Y-10.648 E2.4249
G1 X28.767 Y-9.428 E2.5055
G1 X28.779 Y-9.399 E2.5074
G1 X28.939 Y-8.959 E2.5354
G1 X28.948 Y-8.929 E2.5373
G1 X29.297 Y-7.629 E2.6179
G1 X29.303 Y-7.598 E2.6197
G1 X29.385 Y-7.138 E2.6478
G1 X29.389 Y-7.106 E2.6496
G1 X29.496 Y-5.882 E2.7232
G1 X29.497 Y-5.866 E2.7242
G1 X29.507 Y-5.633 E2.7382
G1 X29.508 Y-5.617 E2.7391
G1 X29.508 Y7.117 E3.5015
G1 X29.507 Y7.133 E3.5024
G1 X29.497 Y7.366 E3.5164
G1 X29.496 Y7.382 E3.5173
G1 X29.389 Y8.606 E3.5909
G1 X29.385 Y8.638 E3.5928
G1 X29.303 Y9.098 E3.6208
G1 X29.297 Y9.129 E3.6227
G1 X28.948 Y10.429 E3.7033
G1 X28.939 Y10.459 E3.7052
G1 X28.779 Y10.899 E3.7332
G1 X28.767 Y10.928 E3.7351
G1 X28.198 Y12.148 E3.8157
G1 X28.183 Y12.176 E3.8176
G1 X27.949 Y12.581 E3.8456
G1 X27.932 Y12.608 E3.8475
G1 X27.160 Y13.711 E3.9280
G1 X27.141 Y13.736 E3.9299
G1 X26.840 Y14.094 E3.9579
G1 X26.819 Y14.117 E3.9598
G1 X25.867 Y15.069 E4.0404
G1 X25.844 Y15.090 E4.0423
G1 X25.485 Y15.391 E4.0703
G1 X25.461 Y15.410 E4.0722
G1 X24.358 Y16.182 E4.1528
G1 X24.331 Y16.199 E4.1547
G1 X23.926 Y16.433 E4.1827
G1 X23.898 Y16.448 E4.1846
G1 X22.678 Y17.017 E4.2652
G1 X22.649 Y17.029 E4.2670
G1 X22.209 Y17.189 E4.2951
G1 X22.179 Y17.198 E4.2969
G1 X20.879 Y17.547 E4.3775
G1 X20.848 Y17.553 E4.3794
G1 X20.388 Y17.635 E4.4074
G1 X20.356 Y17.639 E4.4093
G1 X19.132 Y17.746 E4.4829
G1 X19.116 Y17.747 E4.4838
G1 X18.883 Y17.757 E4.4978
G1 X18.867 Y17.758 E4.4988
G1 X-18.867 Y17.758 E6.7578
G1 X-18.883 Y17.757 E6.7588
G1 X-19.116 Y17.747 E6.7728
G1 X-19.132 Y17.746 E6.7737
G1 X-20.356 Y17.639 E6.8473
G1 X-20.388 Y17.635 E6.8492
G1 X-20.848 Y17.553 E6.8772
G1 X-20.879 Y17.547 E6.8791
G1 X-22.179 Y17.198 E6.9597
G1 X-22.209 Y17.189 E6.9616
G1 X-22.649 Y17.029 E6.9896
G1 X-22.678 Y17.017 E6.9915
G1 X-23.898 Y16.448 E7.0721
G1 X-23.926 Y16.433 E7.0739
G1 X-24.331 Y16.199 E7.1020
G1 X-24.358 Y16.182 E7.1038
G1 X-25.461 Y15.410 E7.1844
G1 X-25.485 Y15.391 E7.1863
G1 X-25.844 Y15.090 E7.2143
G1 X-25.867 Y15.069 E7.2162
G1 X-26.819 Y14.117 E7.2968
G1 X-26.840 Y14.094 E7.2987
G1 X-27.141 Y13.736 E7.3267
G1 X-27.160 Y13.711 E7.3286
G1 X-27.932 Y12.608 E7.4092
G1 X-27.949 Y12.581 E7.4111
G1 X-28.183 Y12.176 E7.4391
G1 X-28.198 Y12.148 E7.4410
G1 X-28.767 Y10.928 E7.5215
G1 X-28.779 Y10.899 E7.5234
G1 X-28.939 Y10.459 E7.5514
G1 X-28.948 Y10.429 E7.5533
G1 X-29.297 Y9.129 E7.6339
G1 X-29.303 Y9.098 E7.6358
G1 X-29.385 Y8.638 E7.6638
G1 X-29.389 Y8.606 E7.6657
G1 X-29.496 Y7.382 E7.7393
G1 X-29.497 Y7.366 E7.7402
G1 X-29.507 Y7.133 E7.7542
G1 X-29.508 Y7.117 E7.7552
G1 X-29.508 Y-5.617 E8.5175
G1 X-29.507 Y-5.633 E8.5185
G1 X-29.497 Y-5.866 E8.5325
G1 X-29.496 Y-5.882 E8.5334
G1 X-29.389 Y-7.106 E8.6070
G1 X-29.385 Y-7.138 E8.6089
G1 X-29.303 Y-7.598 E8.6369
G1 X-29.297 Y-7.629 E8.6388
G1 X-28.948 Y-8.929 E8.7194
G1 X-28.939 Y-8.959 E8.7212
G1 X-28.779 Y-9.399 E8.7493
G1 X-28.767 Y-9.428 E8.7511
G1 X-28.198 Y-10.648 E8.8317
G1 X-28.183 Y-10.676 E8.8336
G1 X-27.949 Y-11.081 E8.8616
G1 X-27.932 Y-11.108 E8.8635
G1 X-27.160 Y-12.211 E8.9441
G1 X-27.141 Y-12.236 E8.9460
G1 X-26.840 Y-12.594 E8.9740
G1 X-26.819 Y-12.617 E8.9759
G1 X-25.867 Y-13.569 E9.0565
G1 X-25.844 Y-13.590 E9.0584
G1 X-25.486 Y-13.891 E9.0864
G1 X-25.461 Y-13.910 E9.0883
G1 X-24.358 Y-14.682 E9.1689
G1 X-24.331 Y-14.699 E9.1707
G1 X-23.926 Y-14.933 E9.1988
G1 X-23.898 Y-14.948 E9.2006
G1 X-22.678 Y-15.517 E9.2812
G1 X-22.649 Y-15.529 E9.2831
G1 X-22.209 Y-15.689 E9.3111
G1 X-22.179 Y-15.698 E9.3130
G1 X-20.879 Y-16.047 E9.3936
G1 X-20.848 Y-16.053 E9.3955
G1 X-20.388 Y-16.135 E9.4235
G1 X-20.356 Y-16.139 E9.4254
G1 X-19.132 Y-16.246 E9.4990
G1 X-19.116 Y-16.247 E9.4999
G1 X-18.883 Y-16.257 E9.5139
G1 X-18.867 Y-16.257 E9.5148
G1 X-5.182 Y-16.257 E10.3341
G1 X-4.919 Y-16.149 E10.3512
G1 X-1.794 Y-13.056 E10.6144
G1 X-1.683 Y-12.794 E10.6314
G1 X-1.656 Y-10.127 E10.7912
G1 X-1.656 Y-10.116 E10.7918
G1 X-1.659 Y-9.959 E10.8012
G1 X-1.659 Y-9.948 E10.8018
G1 X-1.810 Y-6.836 E10.9884
G1 X-1.926 Y-6.584 E11.0050
G1 X-5.023 Y-3.633 E11.2611
G1 X-5.281 Y-3.530 E11.2777
G1 X-16.780 Y-3.530 E11.9661
G1 X-16.780 Y5.030 E12.4786
G1 X16.780 Y5.030 E14.4878
G1 X16.780 Y-3.530 E15.0003
G1 X5.827 Y-3.530 E15.6560
G1 X5.117 Y-3.530 F600
G1 X4.850 Y-3.642 F600
G92 E0
G1 E-2.0000 F1800
G1 X5.125 Y-4.047 F9000
G1 E0.0000 F1800
G92 E0
G1 X2.117 Y-7.114 E0.2572 F600
G1 X2.081 Y-7.204 E0.2630
G1 X2.188 Y-12.729 E0.5938
G1 X2.226 Y-12.815 E0.5994
G1 X5.210 Y-15.742 E0.8496
G1 X5.297 Y-15.777 E0.8553
G1 X18.862 Y-15.777 E1.6674
G1 X18.867 Y-15.777 E1.6677
G1 X19.090 Y-15.768 E1.6811
G1 X19.095 Y-15.767 E1.6814
G1 X20.304 Y-15.662 E1.7540
G1 X20.315 Y-15.660 E1.7546
G1 X20.755 Y-15.583 E1.7814
G1 X20.765 Y-15.580 E1.7820
G1 X22.045 Y-15.237 E1.8614
G1 X22.055 Y-15.234 E1.8620
G1 X22.475 Y-15.081 E1.8888
G1 X22.485 Y-15.077 E1.8894
G1 X23.686 Y-14.517 E1.9687
G1 X23.695 Y-14.512 E1.9694
G1 X24.082 Y-14.289 E1.9961
G1 X24.091 Y-14.283 E1.9968
G1 X25.177 Y-13.523 E2.0761
G1 X25.185 Y-13.517 E2.0767
G1 X25.527 Y-13.229 E2.1035
G1 X25.535 Y-13.222 E2.1041
G1 X26.472 Y-12.285 E2.1834
G1 X26.479 Y-12.277 E2.1841
G1 X26.767 Y-11.935 E2.2108
G1 X26.773 Y-11.927 E2.2115
G1 X27.533 Y-10.841 E2.2908
G1 X27.539 Y-10.832 E2.2914
G1 X27.762 Y-10.445 E2.3182
G1 X27.767 Y-10.436 E2.3188
G1 X28.327 Y-9.235 E2.3982
G1 X28.331 Y-9.225 E2.3988
G1 X28.484 Y-8.805 E2.4256
G1 X28.487 Y-8.795 E2.4262
G1 X28.830 Y-7.515 E2.5055
G1 X28.833 Y-7.505 E2.5061
G1 X28.910 Y-7.065 E2.5329
G1 X28.912 Y-7.054 E2.5335
G1 X29.017 Y-5.845 E2.6062
G1 X29.018 Y-5.840 E2.6065
G1 X29.027 Y-5.617 E2.6199
G1 X29.027 Y-5.612 E2.6202
G1 X29.027 Y7.112 E3.3819
G1 X29.027 Y7.117 E3.3822
G1 X29.018 Y7.340 E3.3956
G1 X29.017 Y7.345 E3.3959
G1 X28.912 Y8.554 E3.4686
G1 X28.910 Y8.565 E3.4692
G1 X28.833 Y9.005 E3.4959
G1 X28.830 Y9.015 E3.4966
G1 X28.487 Y10.295 E3.5759
G1 X28.484 Y10.305 E3.5765
G1 X28.331 Y10.725 E3.6033
G1 X28.327 Y10.735 E3.6039
G1 X27.767 Y11.936 E3.6833
G1 X27.762 Y11.945 E3.6839
G1 X27.539 Y12.332 E3.7107
G1 X27.533 Y12.341 E3.7113
G1 X26.773 Y13.427 E3.7906
G1 X26.767 Y13.435 E3.7913
G1 X26.479 Y13.777 E3.8180
G1 X26.472 Y13.785 E3.8186
G1 X25.535 Y14.722 E3.8980
G1 X25.527 Y14.729 E3.8986
G1 X25.185 Y15.017 E3.9254
G1 X25.177 Y15.023 E3.9260
G1 X24.091 Y15.783 E4.0053
G1 X24.082 Y15.789 E4.0060
G1 X23.695 Y16.012 E4.0327
G1 X23.686 Y16.017 E4.0334
G1 X22.485 Y16.577 E4.1127
G1 X22.475 Y16.581 E4.1133
G1 X22.055 Y16.734 E4.1401
G1 X22.045 Y16.737 E4.1407
G1 X20.765 Y17.080 E4.2200
G1 X20.755 Y17.083 E4.2207
G1 X20.315 Y17.160 E4.2474
G1 X20.304 Y17.162 E4.2481
G1 X19.095 Y17.267 E4.3207
G1 X19.090 Y17.268 E4.3210
G1 X18.867 Y17.277 E4.3344
G1 X18.862 Y17.277 E4.3347
G1 X-18.862 Y17.277 E6.5931
G1 X-18.867 Y17.277 E6.5935
G1 X-19.090 Y17.268 E6.6068
G1 X-19.095 Y17.267 E6.6072
G1 X-20.304 Y17.162 E6.6798
G1 X-20.315 Y17.160 E6.6804
G1 X-20.755 Y17.083 E6.7072
G1 X-20.765 Y17.080 E6.7078
G1 X-22.045 Y16.737 E6.7872
G1 X-22.055 Y16.734 E6.7878
G1 X-22.475 Y16.581 E6.8145
G1 X-22.485 Y16.577 E6.8152
G1 X-23.686 Y16.017 E6.8945
G1 X-23.695 Y16.012 E6.8951
G1 X-24.082 Y15.789 E6.9219
G1 X-24.091 Y15.783 E6.9225
G1 X-25.177 Y15.023 E7.0019
G1 X-25.185 Y15.017 E7.0025
G1 X-25.527 Y14.729 E7.0293
G1 X-25.535 Y14.722 E7.0299
G1 X-26.472 Y13.785 E7.1092
G1 X-26.479 Y13.777 E7.1098
G1 X-26.767 Y13.435 E7.1366
G1 X-26.773 Y13.427 E7.1372
G1 X-27.533 Y12.341 E7.2166
G1 X-27.539 Y12.332 E7.2172
G1 X-27.762 Y11.945 E7.2440
G1 X-27.767 Y11.936 E7.2446
G1 X-28.327 Y10.735 E7.3239
G1 X-28.331 Y10.725 E7.3246
G1 X-28.484 Y10.305 E7.3513
G1 X-28.487 Y10.295 E7.3520
G1 X-28.830 Y9.015 E7.4313
G1 X-28.833 Y9.005 E7.4319
G1 X-28.910 Y8.565 E7.4587
G1 X-28.912 Y8.554 E7.4593
G1 X-29.017 Y7.345 E7.5319
G1 X-29.018 Y7.340 E7.5323
G1 X-29.027 Y7.117 E7.5456
G1 X-29.027 Y7.112 E7.5460
G1 X-29.027 Y-5.612 E8.3077
G1 X-29.027 Y-5.617 E8.3080
G1 X-29.018 Y-5.840 E8.3214
G1 X-29.017 Y-5.845 E8.3217
G1 X-28.912 Y-7.054 E8.3943
G1 X-28.910 Y-7.065 E8.3950
G1 X-28.833 Y-7.505 E8.4217
G1 X-28.830 Y-7.515 E8.4223
G1 X-28.487 Y-8.795 E8.5017
G1 X-28.484 Y-8.805 E8.5023
G1 X-28.331 Y-9.225 E8.5291
G1 X-28.327 Y-9.235 E8.5297
G1 X-27.767 Y-10.436 E8.6090
G1 X-27.762 Y-10.445 E8.6097
G1 X-27.539 Y-10.832 E8.6364
G1 X-27.533 Y-10.841 E8.6371
G1 X-26.773 Y-11.927 E8.7164
G1 X-26.767 Y-11.935 E8.7170
G1 X-26.479 Y-12.277 E8.7438
G1 X-26.472 Y-12.285 E8.7444
G1 X-25.535 Y-13.222 E8.8238
G1 X-25.527 Y-13.229 E8.8244
G1 X-25.185 Y-13.517 E8.8511
G1 X-25.177 Y-13.523 E8.8518
G1 X-24.091 Y-14.283 E8.9311
G1 X-24.082 Y-14.289 E8.9317
G1 X-23.695 Y-14.512 E8.9585
G1 X-23.686 Y-14.517 E8.9591
G1 X-22.485 Y-15.077 E9.0385
G1 X-22.475 Y-15.081 E9.0391
G1 X-22.055 Y-15.234 E9.0659
G1 X-22.045 Y-15.237 E9.0665
G1 X-20.765 Y-15.580 E9.1458
G1 X-20.755 Y-15.583 E9.1464
G1 X-20.315 Y-15.660 E9.1732
G1 X-20.304 Y-15.662 E9.1738
G1 X-19.095 Y-15.767 E9.2465
G1 X-19.090 Y-15.768 E9.2468
G1 X-18.867 Y-15.777 E9.2602
G1 X-18.862 Y-15.777 E9.2605
G1 X-5.277 Y-15.777 E10.0738
G1 X-5.189 Y-15.741 E10.0795
G1 X-2.199 Y-12.782 E10.3313
G1 X-2.162 Y-12.695 E10.3370
G1 X-2.136 Y-10.125 E10.4908
G1 X-2.136 Y-10.122 E10.4911
G1 X-2.139 Y-9.971 E10.5001
G1 X-2.139 Y-9.968 E10.5003
G1 X-2.285 Y-6.952 E10.6810
G1 X-2.324 Y-6.868 E10.6866
G1 X-5.287 Y-4.044 E10.9316
G1 X-5.373 Y-4.010 E10.9372
G1 X-17.260 Y-4.010 E11.6488
G1 X-17.260 Y5.510 E12.2188
G1 X17.260 Y5.510 E14.2854
G1 X17.260 Y-4.010 E14.8553
G1 X6.117 Y-4.010 E15.5225
G1 X5.214 Y-4.010 F600
G1 X5.125 Y-4.047 F600
G92 E0
G1 E-2.0000 F1800
; inner perimeter
; inner perimeter
; outer perimeter
G1 X7.607 Y-9.490 F9000
G1 E0.0000 F1800
G92 E0
G1 X7.622 Y-10.297 E0.0484 F300
G1 X18.739 Y-10.297 E0.7139
G1 X19.583 Y-10.224 E0.7646
G1 X20.390 Y-10.007 E0.8147
G1 X21.148 Y-9.654 E0.8647
G1 X21.833 Y-9.174 E0.9148
G1 X22.424 Y-8.583 E0.9648
G1 X22.904 Y-7.898 E1.0149
G1 X23.257 Y-7.141 E1.0649
G1 X23.474 Y-6.333 E1.1150
