; G-Code generated by Simplify3D(R) Version 3.1.0
; Oct 11, 2016 at 1:26:12 AM
; Settings Summary
;   processName,Process1
;   applyToModels,shellPlate,shellPlate(2),core
;   profileName,Rostock MAX v2 (modified)
;   profileVersion,2015-05-01 08:00:00
;   baseProfile,
;   printMaterial,PLA
;   printQuality,Medium
;   printExtruders,
;   extruderName,Primary Extruder
;   extruderToolheadNumber,0
;   extruderDiameter,0.4
;   extruderAutoWidth,1
;   extruderWidth,0.48
;   extrusionMultiplier,1
;   extruderUseRetract,1
;   extruderRetractionDistance,2
;   extruderExtraRestartDistance,0
;   extruderRetractionZLift,0
;   extruderRetractionSpeed,1800
;   extruderUseCoasting,1
;   extruderCoastingDistance,1
;   extruderUseWipe,1
;   extruderWipeDistance,5
;   primaryExtruder,0
;   layerHeight,0.3
;   topSolidLayers,3
;   bottomSolidLayers,3
;   perimeterOutlines,3
;   printPerimetersInsideOut,1
;   startPointOption,2
;   startPointOriginX,0
;   startPointOriginY,0
;   startPointOriginZ,300
;   sequentialIslands,0
;   spiralVaseMode,0
;   firstLayerHeightPercentage,25
;   firstLayerWidthPercentage,100
;   firstLayerUnderspeed,0.4
;   useRaft,0
;   raftExtruder,0
;   raftLayers,3
;   raftOffset,15
;   raftSeparationDistance,0.14
;   raftInfill,85
;   disableRaftBaseLayers,0
;   useSkirt,1
;   skirtExtruder,0
;   skirtLayers,1
;   skirtOutlines,2
;   skirtOffset,5
;   usePrimePillar,0
;   primePillarExtruder,999
;   primePillarWidth,12
;   primePillarLocation,7
;   primePillarSpeedMultiplier,1
;   useOozeShield,0
;   oozeShieldExtruder,999
;   oozeShieldOffset,2
;   oozeShieldOutlines,1
;   oozeShieldSidewallShape,1
;   oozeShieldSidewallAngle,30
;   oozeShieldSpeedMultiplier,1
;   infillExtruder,0
;   internalInfillPattern,Rectilinear
;   externalInfillPattern,Rectilinear
;   infillPercentage,20
;   outlineOverlapPercentage,40
;   infillExtrusionWidthPercentage,100
;   minInfillLength,3
;   infillLayerInterval,1
;   infillAngles,45,-45
;   overlapInfillAngles,0
;   generateSupport,1
;   supportExtruder,0
;   supportInfillPercentage,30
;   supportExtraInflation,0
;   denseSupportLayers,0
;   denseSupportInfillPercentage,70
;   supportLayerInterval,1
;   supportHorizontalPartOffset,0.3
;   supportUpperSeparationLayers,1
;   supportLowerSeparationLayers,1
;   supportType,1
;   supportGridSpacing,4
;   maxOverhangAngle,89
;   supportAngles,0
;   temperatureName,Primary Extruder,Heated Bed
;   temperatureNumber,0,1
;   temperatureSetpointCount,1,1
;   temperatureSetpointLayers,1,1
;   temperatureSetpointTemperatures,195,60
;   temperatureStabilizeAtStartup,1,0
;   temperatureHeatedBed,0,1
;   temperatureRelayBetweenLayers,0,0
;   temperatureRelayBetweenLoops,0,0
;   fanLayers,1,2
;   fanSpeeds,0,100
;   blipFanToFullPower,1
;   adjustSpeedForCooling,1
;   minSpeedLayerTime,15
;   minCoolingSpeedSlowdown,20
;   increaseFanForCooling,0
;   minFanLayerTime,60
;   maxCoolingFanSpeed,100
;   increaseFanForBridging,0
;   bridgingFanSpeed,100
;   use5D,1
;   relativeEdistances,0
;   allowEaxisZeroing,1
;   independentExtruderAxes,0
;   includeM10123,0
;   stickySupport,1
;   applyToolheadOffsets,0
;   gcodeXoffset,0
;   gcodeYoffset,0
;   gcodeZoffset,0
;   overrideMachineDefinition,1
;   machineTypeOverride,1
;   strokeXoverride,197
;   strokeYoverride,197
;   strokeZoverride,375
;   originOffsetXoverride,98.5
;   originOffsetYoverride,98.5
;   originOffsetZoverride,0
;   homeXdirOverride,0
;   homeYdirOverride,0
;   homeZdirOverride,1
;   flipXoverride,1
;   flipYoverride,-1
;   flipZoverride,1
;   toolheadOffsets,0,0|0,0|0,0|0,0|0,0|0,0
;   overrideFirmwareConfiguration,1
;   firmwareTypeOverride,RepRap (Marlin/Repetier/Sprinter)
;   GPXconfigOverride,r2
;   baudRateOverride,115200
;   overridePrinterModels,1
;   printerModelsOverride
;   startingGcode,G28 ; home all axes
;   layerChangeGcode,
;   retractionGcode,
;   toolChangeGcode,
;   endingGcode,M104 S0 ; turn off extruder,M140 S0 ; turn off bed,G28 ; home axes,M84 ; disable motors
;   exportFileFormat,gcode
;   celebration,0
;   celebrationSong,Random Song
;   postProcessing,
;   defaultSpeed,1500
;   outlineUnderspeed,0.5
;   solidInfillUnderspeed,0.8
;   supportUnderspeed,0.8
;   rapidXYspeed,9000
;   rapidZspeed,1200
;   minBridgingArea,50
;   bridgingExtraInflation,0
;   bridgingExtrusionMultiplier,0.8
;   bridgingSpeedMultiplier,0.7
;   filamentDiameter,1.75
;   filamentPricePerKg,22
;   filamentDensity,1.25
;   useMinPrintHeight,0
;   minPrintHeight,0.05
;   useMaxPrintHeight,0
;   maxPrintHeight,0
;   useDiaphragm,0
;   diaphragmLayerInterval,20
;   robustSlicing,1
;   mergeAllIntoSolid,1
;   onlyRetractWhenCrossingOutline,0
;   retractBetweenLayers,0
;   useRetractionMinTravel,0
;   retractionMinTravel,3
;   retractWhileWiping,1
;   onlyWipeOutlines,1
;   avoidCrossingOutline,1
;   maxMovementDetourFactor,1.5
;   toolChangeRetractionDistance,12
;   toolChangeExtraRestartDistance,-0.5
;   toolChangeRetractionSpeed,600
;   allowThinWallGapFill,0
;   thinWallAllowedOverlapPercentage,10
;   horizontalSizeCompensation,0
G90
M82
M106 S0
M140 S60
M104 S195 T0
M109 S195 T0
G28 ; home all axes
G92 E0
G1 E-2.0000 F1800
G1 Z0.075 F1200
; layer 1, Z = 0.075
T0
; tool H0.300 W0.480
; skirt
G1 X10.157 Y-10.649 F9000
G1 E0.0000 F540
G92 E0
G1 X35.273 Y-11.065 E1.5038 F600
G1 X35.542 Y-10.957 E1.5212
G1 X38.736 Y-7.816 E1.7894
G1 X38.848 Y-7.549 E1.8067
G1 X38.848 Y11.357 E2.9386
G1 X38.739 Y11.622 E2.9558
G1 X35.607 Y14.754 E3.2209
G1 X35.342 Y14.863 E3.2380
G1 X25.098 Y14.863 E3.8514
G1 X25.085 Y14.863 E3.8521
G1 X-50.224 Y14.514 E8.3608
G1 X-50.474 Y14.415 E8.3769
G1 X-53.524 Y11.608 E8.6250
G1 X-53.643 Y11.367 E8.6411
G1 X-53.871 Y8.757 E8.7980
G1 X-53.872 Y8.741 E8.7989
G1 X-53.882 Y8.508 E8.8129
G1 X-53.883 Y8.492 E8.8138
G1 X-53.883 Y-4.617 E9.5987
G1 X-53.882 Y-4.633 E9.5996
G1 X-53.872 Y-4.866 E9.6136
G1 X-53.871 Y-4.882 E9.6145
G1 X-53.642 Y-7.499 E9.7718
G1 X-53.523 Y-7.741 E9.7880
G1 X-50.456 Y-10.551 E10.0370
G1 X-50.204 Y-10.649 E10.0531
G1 X9.158 Y-10.649 E13.6071
G1 X10.157 Y-10.649 F600
G92 E0
G1 E-2.0000 F1800
G1 X-10.157 Y-20.851 F9000
G1 E0.0000 F1800
G92 E0
G1 X-35.273 Y-20.435 E1.5038 F600
G1 X-35.542 Y-20.543 E1.5212
G1 X-38.736 Y-23.684 E1.7894
G1 X-38.848 Y-23.951 E1.8067
G1 X-38.848 Y-42.857 E2.9386
G1 X-38.739 Y-43.122 E2.9558
G1 X-35.607 Y-46.254 E3.2209
G1 X-35.342 Y-46.363 E3.2380
G1 X-25.102 Y-46.363 E3.8511
G1 X-25.089 Y-46.363 E3.8519
G1 X50.224 Y-46.014 E8.3608
G1 X50.474 Y-45.915 E8.3769
G1 X53.524 Y-43.108 E8.6250
G1 X53.643 Y-42.867 E8.6411
G1 X53.871 Y-40.257 E8.7980
G1 X53.872 Y-40.241 E8.7989
G1 X53.882 Y-40.008 E8.8129
G1 X53.883 Y-39.992 E8.8138
G1 X53.883 Y-26.883 E9.5987
G1 X53.882 Y-26.867 E9.5996
G1 X53.872 Y-26.634 E9.6136
G1 X53.871 Y-26.618 E9.6145
G1 X53.642 Y-24.001 E9.7718
G1 X53.523 Y-23.759 E9.7880
G1 X50.456 Y-20.949 E10.0370
G1 X50.204 Y-20.851 E10.0531
G1 X-9.158 Y-20.851 E13.6071
G1 X-10.157 Y-20.851 F600
G92 E0
G1 E-2.0000 F1800
G1 X-5.508 Y19.117 F9000
G1 E0.0000 F1800
G92 E0
G1 X-5.492 Y19.118 E0.0009 F600
G1 X-5.259 Y19.128 E0.0149
G1 X-5.243 Y19.129 E0.0159
G1 X-4.019 Y19.236 E0.0895
G1 X-3.987 Y19.240 E0.0913
G1 X-3.527 Y19.322 E0.1194
G1 X-3.496 Y19.328 E0.1212
G1 X-2.196 Y19.677 E0.2018
G1 X-2.166 Y19.686 E0.2037
G1 X-1.726 Y19.846 E0.2317
G1 X-1.697 Y19.858 E0.2336
G1 X-0.477 Y20.427 E0.3142
G1 X-0.449 Y20.442 E0.3161
G1 X-0.044 Y20.676 E0.3441
G1 X-0.017 Y20.693 E0.3460
G1 X1.086 Y21.465 E0.4266
G1 X1.111 Y21.484 E0.4285
G1 X1.469 Y21.785 E0.4565
G1 X1.492 Y21.806 E0.4584
G1 X2.444 Y22.758 E0.5390
G1 X2.465 Y22.781 E0.5408
G1 X2.766 Y23.139 E0.5689
G1 X2.785 Y23.164 E0.5707
G1 X3.557 Y24.267 E0.6513
G1 X3.574 Y24.294 E0.6532
G1 X3.808 Y24.699 E0.6812
G1 X3.823 Y24.727 E0.6831
G1 X4.392 Y25.947 E0.7637
G1 X4.404 Y25.976 E0.7656
G1 X4.564 Y26.416 E0.7936
G1 X4.573 Y26.446 E0.7955
G1 X4.922 Y27.746 E0.8761
G1 X4.928 Y27.777 E0.8780
G1 X5.010 Y28.237 E0.9060
G1 X5.014 Y28.269 E0.9079
G1 X5.121 Y29.493 E0.9814
G1 X5.122 Y29.509 E0.9824
G1 X5.132 Y29.742 E0.9964
G1 X5.133 Y29.758 E0.9973
G1 X5.133 Y42.492 E1.7597
G1 X5.132 Y42.508 E1.7606
G1 X5.122 Y42.741 E1.7746
G1 X5.121 Y42.757 E1.7756
G1 X5.014 Y43.981 E1.8492
G1 X5.010 Y44.013 E1.8510
G1 X4.928 Y44.473 E1.8790
G1 X4.922 Y44.504 E1.8809
G1 X4.573 Y45.804 E1.9615
G1 X4.564 Y45.834 E1.9634
G1 X4.404 Y46.274 E1.9914
G1 X4.392 Y46.303 E1.9933
G1 X3.823 Y47.523 E2.0739
G1 X3.808 Y47.551 E2.0758
G1 X3.574 Y47.956 E2.1038
G1 X3.557 Y47.983 E2.1057
G1 X2.785 Y49.086 E2.1863
G1 X2.766 Y49.111 E2.1881
G1 X2.465 Y49.469 E2.2162
G1 X2.444 Y49.492 E2.2180
G1 X1.492 Y50.444 E2.2986
G1 X1.469 Y50.465 E2.3005
G1 X1.111 Y50.766 E2.3285
G1 X1.086 Y50.785 E2.3304
G1 X-0.017 Y51.557 E2.4110
G1 X-0.044 Y51.574 E2.4129
G1 X-0.449 Y51.808 E2.4409
G1 X-0.477 Y51.823 E2.4428
G1 X-1.697 Y52.392 E2.5234
G1 X-1.726 Y52.404 E2.5253
G1 X-2.166 Y52.564 E2.5533
G1 X-2.196 Y52.573 E2.5552
G1 X-3.496 Y52.922 E2.6358
G1 X-3.526 Y52.928 E2.6376
G1 X-3.987 Y53.010 E2.6657
G1 X-4.019 Y53.014 E2.6675
G1 X-5.243 Y53.121 E2.7411
G1 X-5.259 Y53.122 E2.7421
G1 X-5.492 Y53.132 E2.7561
G1 X-5.508 Y53.133 E2.7570
G1 X-43.242 Y53.133 E5.0161
G1 X-43.258 Y53.132 E5.0170
G1 X-43.491 Y53.122 E5.0310
G1 X-43.507 Y53.121 E5.0320
G1 X-44.731 Y53.014 E5.1055
G1 X-44.763 Y53.010 E5.1074
G1 X-45.223 Y52.928 E5.1354
G1 X-45.254 Y52.922 E5.1373
G1 X-46.554 Y52.573 E5.2179
G1 X-46.584 Y52.564 E5.2198
G1 X-47.024 Y52.404 E5.2478
G1 X-47.053 Y52.392 E5.2497
G1 X-48.273 Y51.823 E5.3303
G1 X-48.301 Y51.808 E5.3322
G1 X-48.706 Y51.574 E5.3602
G1 X-48.733 Y51.557 E5.3621
G1 X-49.836 Y50.785 E5.4426
G1 X-49.860 Y50.766 E5.4445
G1 X-50.219 Y50.465 E5.4726
G1 X-50.242 Y50.444 E5.4744
G1 X-51.194 Y49.492 E5.5550
G1 X-51.215 Y49.469 E5.5569
G1 X-51.516 Y49.111 E5.5849
G1 X-51.535 Y49.086 E5.5868
G1 X-52.307 Y47.983 E5.6674
G1 X-52.324 Y47.956 E5.6693
G1 X-52.558 Y47.551 E5.6973
G1 X-52.573 Y47.523 E5.6992
G1 X-53.142 Y46.303 E5.7798
G1 X-53.154 Y46.274 E5.7816
G1 X-53.314 Y45.834 E5.8097
G1 X-53.323 Y45.804 E5.8115
G1 X-53.672 Y44.504 E5.8921
G1 X-53.678 Y44.473 E5.8940
G1 X-53.760 Y44.013 E5.9220
G1 X-53.764 Y43.981 E5.9239
G1 X-53.871 Y42.757 E5.9975
G1 X-53.872 Y42.741 E5.9984
G1 X-53.882 Y42.508 E6.0124
G1 X-53.883 Y42.492 E6.0134
G1 X-53.883 Y29.758 E6.7757
G1 X-53.882 Y29.742 E6.7767
G1 X-53.872 Y29.509 E6.7907
G1 X-53.871 Y29.493 E6.7916
G1 X-53.764 Y28.269 E6.8652
G1 X-53.760 Y28.237 E6.8671
G1 X-53.678 Y27.776 E6.8951
G1 X-53.672 Y27.746 E6.8970
G1 X-53.323 Y26.446 E6.9776
G1 X-53.314 Y26.416 E6.9795
G1 X-53.154 Y25.976 E7.0075
G1 X-53.142 Y25.947 E7.0094
G1 X-52.573 Y24.727 E7.0900
G1 X-52.558 Y24.699 E7.0918
G1 X-52.324 Y24.294 E7.1199
G1 X-52.307 Y24.267 E7.1217
G1 X-51.535 Y23.164 E7.2023
G1 X-51.516 Y23.139 E7.2042
G1 X-51.215 Y22.781 E7.2322
G1 X-51.194 Y22.758 E7.2341
G1 X-50.242 Y21.806 E7.3147
G1 X-50.219 Y21.785 E7.3166
G1 X-49.861 Y21.484 E7.3446
G1 X-49.836 Y21.465 E7.3465
G1 X-48.733 Y20.693 E7.4271
G1 X-48.706 Y20.676 E7.4290
G1 X-48.301 Y20.442 E7.4570
G1 X-48.273 Y20.427 E7.4589
G1 X-47.053 Y19.858 E7.5394
G1 X-47.024 Y19.846 E7.5413
G1 X-46.584 Y19.686 E7.5694
G1 X-46.554 Y19.677 E7.5712
G1 X-45.254 Y19.328 E7.6518
G1 X-45.223 Y19.322 E7.6537
G1 X-44.763 Y19.240 E7.6817
G1 X-44.731 Y19.236 E7.6836
G1 X-43.507 Y19.129 E7.7572
G1 X-43.491 Y19.128 E7.7581
G1 X-43.258 Y19.118 E7.7721
G1 X-43.242 Y19.117 E7.7731
G1 X-29.557 Y19.117 E8.5924
G1 X-29.294 Y19.226 E8.6094
G1 X-26.169 Y22.319 E8.8726
G1 X-26.058 Y22.581 E8.8896
G1 X-26.031 Y25.248 E9.0494
G1 X-26.031 Y25.259 E9.0500
G1 X-26.034 Y25.416 E9.0594
G1 X-26.034 Y25.427 E9.0601
G1 X-26.185 Y28.539 E9.2466
G1 X-26.301 Y28.791 E9.2632
G1 X-29.398 Y31.742 E9.5193
G1 X-29.656 Y31.845 E9.5359
G1 X-41.155 Y31.845 E10.2244
G1 X-41.155 Y40.405 E10.7368
G1 X-7.595 Y40.405 E12.7460
G1 X-7.595 Y31.845 E13.2585
G1 X-19.258 Y31.845 E13.9567
G1 X-19.525 Y31.733 E13.9741
G1 X-22.669 Y28.528 E14.2428
G1 X-22.776 Y28.258 E14.2602
G1 X-22.665 Y22.543 E14.6024
G1 X-22.553 Y22.283 E14.6194
G1 X-19.434 Y19.224 E14.8809
G1 X-19.172 Y19.117 E14.8978
G1 X-6.508 Y19.117 E15.6560
G1 X-5.508 Y19.117 F600
G92 E0
G1 E-2.0000 F1800
G1 X-5.513 Y19.597 F9000
G1 E0.0000 F1800
G92 E0
G1 X-5.508 Y19.598 E0.0003 F600
G1 X-5.285 Y19.607 E0.0137
G1 X-5.280 Y19.608 E0.0140
G1 X-4.071 Y19.713 E0.0866
G1 X-4.060 Y19.715 E0.0873
G1 X-3.620 Y19.792 E0.1140
G1 X-3.610 Y19.795 E0.1147
G1 X-2.330 Y20.138 E0.1940
G1 X-2.320 Y20.141 E0.1946
G1 X-1.900 Y20.294 E0.2214
G1 X-1.890 Y20.298 E0.2220
G1 X-0.689 Y20.858 E0.3014
G1 X-0.680 Y20.863 E0.3020
G1 X-0.293 Y21.086 E0.3288
G1 X-0.284 Y21.092 E0.3294
G1 X0.802 Y21.852 E0.4087
G1 X0.810 Y21.858 E0.4093
G1 X1.153 Y22.146 E0.4361
G1 X1.160 Y22.153 E0.4367
G1 X2.097 Y23.090 E0.5161
G1 X2.104 Y23.097 E0.5167
G1 X2.392 Y23.440 E0.5435
G1 X2.398 Y23.448 E0.5441
G1 X3.158 Y24.534 E0.6234
G1 X3.164 Y24.543 E0.6241
G1 X3.387 Y24.930 E0.6508
G1 X3.392 Y24.939 E0.6514
G1 X3.952 Y26.140 E0.7308
G1 X3.956 Y26.150 E0.7314
G1 X4.109 Y26.570 E0.7582
G1 X4.112 Y26.580 E0.7588
G1 X4.455 Y27.860 E0.8381
G1 X4.458 Y27.870 E0.8388
G1 X4.535 Y28.310 E0.8655
G1 X4.537 Y28.321 E0.8662
G1 X4.642 Y29.530 E0.9388
G1 X4.643 Y29.535 E0.9391
G1 X4.652 Y29.758 E0.9525
G1 X4.653 Y29.763 E0.9528
G1 X4.653 Y42.487 E1.7145
G1 X4.652 Y42.492 E1.7149
G1 X4.643 Y42.715 E1.7282
G1 X4.642 Y42.720 E1.7285
G1 X4.537 Y43.929 E1.8012
G1 X4.535 Y43.940 E1.8018
G1 X4.458 Y44.380 E1.8286
G1 X4.455 Y44.390 E1.8292
G1 X4.112 Y45.670 E1.9085
G1 X4.109 Y45.680 E1.9092
G1 X3.956 Y46.100 E1.9359
G1 X3.952 Y46.110 E1.9366
G1 X3.392 Y47.311 E2.0159
G1 X3.387 Y47.320 E2.0165
G1 X3.164 Y47.707 E2.0433
G1 X3.158 Y47.716 E2.0439
G1 X2.398 Y48.802 E2.1233
G1 X2.392 Y48.810 E2.1239
G1 X2.104 Y49.152 E2.1506
G1 X2.097 Y49.160 E2.1513
G1 X1.160 Y50.097 E2.2306
G1 X1.153 Y50.104 E2.2312
G1 X0.810 Y50.392 E2.2580
G1 X0.802 Y50.398 E2.2586
G1 X-0.284 Y51.158 E2.3380
G1 X-0.293 Y51.164 E2.3386
G1 X-0.680 Y51.387 E2.3654
G1 X-0.689 Y51.392 E2.3660
G1 X-1.890 Y51.952 E2.4453
G1 X-1.900 Y51.956 E2.4459
G1 X-2.320 Y52.109 E2.4727
G1 X-2.330 Y52.112 E2.4733
G1 X-3.610 Y52.455 E2.5527
G1 X-3.620 Y52.458 E2.5533
G1 X-4.060 Y52.535 E2.5801
G1 X-4.071 Y52.537 E2.5807
G1 X-5.280 Y52.642 E2.6533
G1 X-5.285 Y52.643 E2.6536
G1 X-5.508 Y52.652 E2.6670
G1 X-5.513 Y52.653 E2.6673
G1 X-43.237 Y52.653 E4.9258
G1 X-43.242 Y52.652 E4.9261
G1 X-43.465 Y52.643 E4.9395
G1 X-43.470 Y52.642 E4.9398
G1 X-44.679 Y52.537 E5.0124
G1 X-44.690 Y52.535 E5.0130
G1 X-45.130 Y52.458 E5.0398
G1 X-45.140 Y52.455 E5.0404
G1 X-46.420 Y52.112 E5.1198
G1 X-46.430 Y52.109 E5.1204
G1 X-46.850 Y51.956 E5.1472
G1 X-46.860 Y51.952 E5.1478
G1 X-48.061 Y51.392 E5.2271
G1 X-48.070 Y51.387 E5.2278
G1 X-48.457 Y51.164 E5.2545
G1 X-48.466 Y51.158 E5.2552
G1 X-49.552 Y50.398 E5.3345
G1 X-49.560 Y50.392 E5.3351
G1 X-49.903 Y50.104 E5.3619
G1 X-49.910 Y50.097 E5.3625
G1 X-50.847 Y49.160 E5.4418
G1 X-50.854 Y49.152 E5.4425
G1 X-51.142 Y48.810 E5.4692
G1 X-51.148 Y48.802 E5.4699
G1 X-51.908 Y47.716 E5.5492
G1 X-51.914 Y47.707 E5.5498
G1 X-52.137 Y47.320 E5.5766
G1 X-52.142 Y47.311 E5.5772
G1 X-52.702 Y46.110 E5.6566
G1 X-52.706 Y46.100 E5.6572
G1 X-52.859 Y45.680 E5.6839
G1 X-52.862 Y45.670 E5.6846
G1 X-53.205 Y44.390 E5.7639
G1 X-53.208 Y44.380 E5.7645
G1 X-53.285 Y43.940 E5.7913
G1 X-53.287 Y43.929 E5.7919
G1 X-53.392 Y42.720 E5.8646
G1 X-53.393 Y42.715 E5.8649
G1 X-53.402 Y42.492 E5.8783
G1 X-53.403 Y42.487 E5.8786
G1 X-53.403 Y29.763 E6.6403
G1 X-53.402 Y29.758 E6.6406
G1 X-53.393 Y29.535 E6.6540
G1 X-53.392 Y29.530 E6.6543
G1 X-53.287 Y28.321 E6.7270
G1 X-53.285 Y28.310 E6.7276
G1 X-53.208 Y27.870 E6.7543
G1 X-53.205 Y27.860 E6.7550
G1 X-52.862 Y26.580 E6.8343
G1 X-52.859 Y26.570 E6.8349
G1 X-52.706 Y26.150 E6.8617
G1 X-52.702 Y26.140 E6.8623
G1 X-52.142 Y24.939 E6.9417
G1 X-52.137 Y24.930 E6.9423
G1 X-51.914 Y24.543 E6.9691
G1 X-51.908 Y24.534 E6.9697
G1 X-51.148 Y23.448 E7.0490
G1 X-51.142 Y23.440 E7.0496
G1 X-50.854 Y23.098 E7.0764
G1 X-50.847 Y23.090 E7.0770
G1 X-49.910 Y22.153 E7.1564
G1 X-49.903 Y22.146 E7.1570
G1 X-49.560 Y21.858 E7.1838
