; G-Code generated by Simplify3D(R) Version 3.1.0
; Sep 20, 2016 at 10:38:10 PM
; Settings Summary
;   processName,Process1
;   applyToModels,DrawerSmallDivider
;   profileName,Rostock MAX v2 (modified)
;   profileVersion,2015-05-01 08:00:00
;   baseProfile,
;   printMaterial,PLA
;   printQuality,Medium
;   printExtruders,
;   extruderName,Primary Extruder
;   extruderToolheadNumber,0
;   extruderDiameter,0.4
;   extruderAutoWidth,1
;   extruderWidth,0.48
;   extrusionMultiplier,1.1
;   extruderUseRetract,1
;   extruderRetractionDistance,5
;   extruderExtraRestartDistance,0
;   extruderRetractionZLift,0
;   extruderRetractionSpeed,1800
;   extruderUseCoasting,1
;   extruderCoastingDistance,1
;   extruderUseWipe,0
;   extruderWipeDistance,5
;   primaryExtruder,0
;   layerHeight,0.2
;   topSolidLayers,3
;   bottomSolidLayers,3
;   perimeterOutlines,3
;   printPerimetersInsideOut,1
;   startPointOption,2
;   startPointOriginX,0
;   startPointOriginY,0
;   startPointOriginZ,300
;   sequentialIslands,0
;   spiralVaseMode,0
;   firstLayerHeightPercentage,25
;   firstLayerWidthPercentage,100
;   firstLayerUnderspeed,0.25
;   useRaft,0
;   raftExtruder,0
;   raftLayers,3
;   raftOffset,15
;   raftSeparationDistance,0.14
;   raftInfill,85
;   disableRaftBaseLayers,0
;   useSkirt,1
;   skirtExtruder,0
;   skirtLayers,1
;   skirtOutlines,2
;   skirtOffset,5
;   usePrimePillar,0
;   primePillarExtruder,999
;   primePillarWidth,12
;   primePillarLocation,7
;   primePillarSpeedMultiplier,1
;   useOozeShield,0
;   oozeShieldExtruder,999
;   oozeShieldOffset,2
;   oozeShieldOutlines,1
;   oozeShieldSidewallShape,1
;   oozeShieldSidewallAngle,30
;   oozeShieldSpeedMultiplier,1
;   infillExtruder,0
;   internalInfillPattern,Fast Honeycomb
;   externalInfillPattern,Rectilinear
;   infillPercentage,25
;   outlineOverlapPercentage,40
;   infillExtrusionWidthPercentage,100
;   minInfillLength,3
;   infillLayerInterval,1
;   infillAngles,0
;   overlapInfillAngles,0
;   generateSupport,1
;   supportExtruder,0
;   supportInfillPercentage,30
;   supportExtraInflation,0
;   denseSupportLayers,0
;   denseSupportInfillPercentage,70
;   supportLayerInterval,1
;   supportHorizontalPartOffset,0.3
;   supportUpperSeparationLayers,1
;   supportLowerSeparationLayers,1
;   supportType,1
;   supportGridSpacing,4
;   maxOverhangAngle,45
;   supportAngles,0
;   temperatureName,Primary Extruder,Heated Bed
;   temperatureNumber,0,1
;   temperatureSetpointCount,1,1
;   temperatureSetpointLayers,1,1
;   temperatureSetpointTemperatures,205,60
;   temperatureStabilizeAtStartup,1,1
;   temperatureHeatedBed,0,1
;   temperatureRelayBetweenLayers,0,0
;   temperatureRelayBetweenLoops,0,0
;   fanLayers,1,2
;   fanSpeeds,0,100
;   blipFanToFullPower,1
;   adjustSpeedForCooling,1
;   minSpeedLayerTime,15
;   minCoolingSpeedSlowdown,20
;   increaseFanForCooling,0
;   minFanLayerTime,60
;   maxCoolingFanSpeed,100
;   increaseFanForBridging,0
;   bridgingFanSpeed,100
;   use5D,1
;   relativeEdistances,0
;   allowEaxisZeroing,1
;   independentExtruderAxes,0
;   includeM10123,0
;   stickySupport,1
;   applyToolheadOffsets,0
;   gcodeXoffset,0
;   gcodeYoffset,0
;   gcodeZoffset,0
;   overrideMachineDefinition,1
;   machineTypeOverride,1
;   strokeXoverride,197
;   strokeYoverride,197
;   strokeZoverride,375
;   originOffsetXoverride,98.5
;   originOffsetYoverride,98.5
;   originOffsetZoverride,0
;   homeXdirOverride,0
;   homeYdirOverride,0
;   homeZdirOverride,1
;   flipXoverride,1
;   flipYoverride,-1
;   flipZoverride,1
;   toolheadOffsets,0,0|0,0|0,0|0,0|0,0|0,0
;   overrideFirmwareConfiguration,1
;   firmwareTypeOverride,RepRap (Marlin/Repetier/Sprinter)
;   GPXconfigOverride,r2
;   baudRateOverride,115200
;   overridePrinterModels,1
;   printerModelsOverride
;   startingGcode,G28 ; home all axes
;   layerChangeGcode,
;   retractionGcode,
;   toolChangeGcode,
;   endingGcode,M104 S0 ; turn off extruder,M140 S0 ; turn off bed,G28 ; home axes,M84 ; disable motors
;   exportFileFormat,gcode
;   celebration,0
;   celebrationSong,Random Song
;   postProcessing,
;   defaultSpeed,3000
;   outlineUnderspeed,0.5
;   solidInfillUnderspeed,0.8
;   supportUnderspeed,0.8
;   rapidXYspeed,9000
;   rapidZspeed,1200
;   minBridgingArea,50
;   bridgingExtraInflation,0
;   bridgingExtrusionMultiplier,0.8
;   bridgingSpeedMultiplier,0.7
;   filamentDiameter,1.75
;   filamentPricePerKg,22
;   filamentDensity,1.25
;   useMinPrintHeight,0
;   minPrintHeight,0.05
;   useMaxPrintHeight,0
;   maxPrintHeight,0
;   useDiaphragm,0
;   diaphragmLayerInterval,20
;   robustSlicing,1
;   mergeAllIntoSolid,0
;   onlyRetractWhenCrossingOutline,0
;   retractBetweenLayers,0
;   useRetractionMinTravel,0
;   retractionMinTravel,3
;   retractWhileWiping,1
;   onlyWipeOutlines,1
;   avoidCrossingOutline,1
;   maxMovementDetourFactor,2
;   toolChangeRetractionDistance,12
;   toolChangeExtraRestartDistance,-0.5
;   toolChangeRetractionSpeed,600
;   allowThinWallGapFill,1
;   thinWallAllowedOverlapPercentage,10
;   horizontalSizeCompensation,0
G90
M82
M106 S0
M140 S60
M190 S60
M104 S205 T0
M109 S205 T0
G28 ; home all axes
G92 E0
G1 E-5.0000 F1800
G1 Z0.050 F1200
; layer 1, Z = 0.05
T0
; tool H0.200 W0.480
; skirt
G1 X24.478 Y-36.714 F9000
G1 E0.0000 F540
G92 E0
G1 X24.478 Y42.714 E3.4872 F750
G1 X24.368 Y42.979 E3.4997
G1 X21.237 Y46.110 E3.6942
G1 X20.972 Y46.220 E3.7068
G1 X-20.972 Y46.220 E5.5483
G1 X-21.237 Y46.110 E5.5608
G1 X-24.368 Y42.979 E5.7553
G1 X-24.478 Y42.714 E5.7678
G1 X-24.478 Y-36.714 E9.2550
G1 X-24.368 Y-36.979 E9.2676
G1 X-21.237 Y-40.110 E9.4620
G1 X-20.972 Y-40.220 E9.4746
G1 X20.972 Y-40.220 E11.3161
G1 X21.237 Y-40.110 E11.3287
G1 X23.864 Y-37.483 E11.4918
G1 X24.368 Y-36.979 F750
G1 X24.478 Y-36.714 F750
G92 E0
G1 E-5.0000 F1800
G1 X23.998 Y-36.619 F9000
G1 E0.0000 F1800
G92 E0
G1 X23.998 Y42.619 E3.4788 F750
G1 X23.962 Y42.707 E3.4830
G1 X20.965 Y45.703 E3.6690
G1 X20.877 Y45.740 E3.6732
G1 X-20.877 Y45.740 E5.5064
G1 X-20.965 Y45.703 E5.5105
G1 X-23.962 Y42.707 E5.6966
G1 X-23.998 Y42.619 E5.7008
G1 X-23.998 Y-36.619 E9.1796
G1 X-23.962 Y-36.707 E9.1838
G1 X-20.965 Y-39.703 E9.3698
G1 X-20.877 Y-39.740 E9.3740
G1 X20.877 Y-39.740 E11.2071
G1 X20.965 Y-39.703 E11.2113
G1 X23.322 Y-37.346 E11.3577
G1 X23.962 Y-36.707 F750
G1 X23.998 Y-36.619 F750
G92 E0
G1 E-5.0000 F1800
; inner perimeter
G1 X17.558 Y-33.300 F9000
G1 E0.0000 F1800
G92 E0
G1 X17.558 Y39.300 E3.1874 F625
G1 X-17.558 Y39.300 E4.7291
G1 X-17.558 Y-33.300 E7.9165
G1 X16.558 Y-33.300 E9.4143
G1 X17.558 Y-33.300 F625
G92 E0
G1 E-5.0000 F1800
; inner perimeter
G1 X18.038 Y-33.780 F9000
G1 E0.0000 F1800
G92 E0
G1 X18.038 Y39.780 E3.2295 F500
G1 X-18.038 Y39.780 E4.8134
G1 X-18.038 Y-33.780 E8.0429
G1 X17.038 Y-33.780 E9.5829
G1 X18.038 Y-33.780 F500
G92 E0
G1 E-5.0000 F1800
; outer perimeter
G1 X18.518 Y-34.260 F9000
G1 E0.0000 F1800
G92 E0
G1 X18.518 Y40.260 E3.2717 F375
G1 X-18.518 Y40.260 E4.8977
G1 X-18.518 Y-34.260 E8.1694
G1 X17.518 Y-34.260 E9.7515
G1 X18.518 Y-34.260 F375
G92 E0
G1 E-5.0000 F1800
; solid layer
G1 X17.221 Y-33.012 F9000
G1 E0.0000 F1800
G92 E0
G1 X17.270 Y-32.963 E0.0030 F600
G1 X17.270 Y-32.284 E0.0328
G1 X16.542 Y-33.012 E0.0780
G1 X15.863 Y-33.012 E0.1078
G1 X17.270 Y-31.605 E0.1952
G1 X17.270 Y-30.926 E0.2250
G1 X15.185 Y-33.012 E0.3545
G1 X14.506 Y-33.012 E0.3843
G1 X17.270 Y-30.248 E0.5559
G1 X17.270 Y-29.569 E0.5857
G1 X13.827 Y-33.012 E0.7995
G1 X13.148 Y-33.012 E0.8293
G1 X17.270 Y-28.890 E1.0852
G1 X17.270 Y-28.211 E1.1150
G1 X12.469 Y-33.012 E1.4131
G1 X11.790 Y-33.012 E1.4429
G1 X17.270 Y-27.532 E1.7831
G1 X17.270 Y-26.853 E1.8129
G1 X11.112 Y-33.012 E2.1953
G1 X10.433 Y-33.012 E2.2251
G1 X17.270 Y-26.175 E2.6496
G1 X17.270 Y-25.496 E2.6794
G1 X9.754 Y-33.012 E3.1461
G1 X9.075 Y-33.012 E3.1759
G1 X17.270 Y-24.817 E3.6847
G1 X17.270 Y-24.138 E3.7145
G1 X8.396 Y-33.012 E4.2654
G1 X7.718 Y-33.012 E4.2953
G1 X17.270 Y-23.459 E4.8884
G1 X17.270 Y-22.780 E4.9182
G1 X7.039 Y-33.012 E5.5534
G1 X6.360 Y-33.012 E5.5832
G1 X17.270 Y-22.102 E6.2606
G1 X17.270 Y-21.423 E6.2904
G1 X5.681 Y-33.012 E7.0100
G1 X5.002 Y-33.012 E7.0398
G1 X17.270 Y-20.744 E7.8015
G1 X17.270 Y-20.065 E7.8313
G1 X4.323 Y-33.012 E8.6351
G1 X3.645 Y-33.012 E8.6649
G1 X17.270 Y-19.386 E9.5109
G1 X17.270 Y-18.708 E9.5407
G1 X2.966 Y-33.012 E10.4289
G1 X2.287 Y-33.012 E10.4587
G1 X17.270 Y-18.029 E11.3889
G1 X17.270 Y-17.350 E11.4187
G1 X1.608 Y-33.012 E12.3912
G1 X0.929 Y-33.012 E12.4210
G1 X17.270 Y-16.671 E13.4356
G1 X17.270 Y-15.992 E13.4654
G1 X0.250 Y-33.012 E14.5221
G1 X-0.428 Y-33.012 E14.5519
G1 X17.270 Y-15.313 E15.6508
G1 X17.270 Y-14.635 E15.6806
G1 X-1.107 Y-33.012 E16.8216
G1 X-1.786 Y-33.012 E16.8514
G1 X17.270 Y-13.956 E18.0346
G1 X17.270 Y-13.277 E18.0644
G1 X-2.465 Y-33.012 E19.2897
G1 X-3.144 Y-33.012 E19.3195
G1 X17.270 Y-12.598 E20.5870
G1 X17.270 Y-11.919 E20.6168
G1 X-3.823 Y-33.012 E21.9264
G1 X-4.501 Y-33.012 E21.9562
G1 X17.270 Y-11.240 E23.3079
G1 X17.270 Y-10.562 E23.3377
G1 X-5.180 Y-33.012 E24.7317
G1 X-5.859 Y-33.012 E24.7615
G1 X17.270 Y-9.883 E26.1975
G1 X17.270 Y-9.204 E26.2273
G1 X-6.538 Y-33.012 E27.7055
G1 X-7.217 Y-33.012 E27.7353
G1 X17.270 Y-8.525 E29.2557
G1 X17.270 Y-7.846 E29.2855
G1 X-7.895 Y-33.012 E30.8480
G1 X-8.574 Y-33.012 E30.8778
G1 X17.270 Y-7.168 E32.4824
G1 X17.270 Y-6.489 E32.5122
G1 X-9.253 Y-33.012 E34.1590
G1 X-9.932 Y-33.012 E34.1888
G1 X17.270 Y-5.810 E35.8778
G1 X17.270 Y-5.131 E35.9076
G1 X-10.611 Y-33.012 E37.6387
G1 X-11.290 Y-33.012 E37.6685
G1 X17.270 Y-4.452 E39.4417
G1 X17.270 Y-3.773 E39.4715
G1 X-11.968 Y-33.012 E41.2869
G1 X-12.647 Y-33.012 E41.3167
G1 X17.270 Y-3.095 E43.1742
G1 X17.270 Y-2.416 E43.2040
G1 X-13.326 Y-33.012 E45.1037
G1 X-14.005 Y-33.012 E45.1335
G1 X17.270 Y-1.737 E47.0753
G1 X17.270 Y-1.058 E47.1051
G1 X-14.684 Y-33.012 E49.0891
G1 X-15.363 Y-33.012 E49.1189
G1 X17.270 Y-0.379 E51.1450
G1 X17.270 Y0.299 E51.1748
G1 X-16.041 Y-33.012 E53.2431
G1 X-16.720 Y-33.012 E53.2729
G1 X17.270 Y0.978 E55.3833
G1 X17.270 Y1.657 E55.4131
G1 X-17.270 Y-32.883 E57.5577
G1 X-17.270 Y-32.204 E57.5875
G1 X17.270 Y2.336 E59.7320
G1 X17.270 Y3.015 E59.7618
G1 X-17.270 Y-31.525 E61.9064
G1 X-17.270 Y-30.847 E61.9362
G1 X17.270 Y3.694 E64.0807
G1 X17.270 Y4.372 E64.1105
G1 X-17.270 Y-30.168 E66.2551
G1 X-17.270 Y-29.489 E66.2849
G1 X17.270 Y5.051 E68.4295
G1 X17.270 Y5.730 E68.4593
G1 X-17.270 Y-28.810 E70.6038
G1 X-17.270 Y-28.131 E70.6336
G1 X17.270 Y6.409 E72.7782
G1 X17.270 Y7.088 E72.8080
G1 X-17.270 Y-27.452 E74.9525
G1 X-17.270 Y-26.774 E74.9823
G1 X17.270 Y7.767 E77.1269
G1 X17.270 Y8.445 E77.1567
G1 X-17.270 Y-26.095 E79.3012
G1 X-17.270 Y-25.416 E79.3310
G1 X17.270 Y9.124 E81.4756
G1 X17.270 Y9.803 E81.5054
G1 X-17.270 Y-24.737 E83.6500
G1 X-17.270 Y-24.058 E83.6798
G1 X17.270 Y10.482 E85.8243
G1 X17.270 Y11.161 E85.8541
G1 X-17.270 Y-23.379 E87.9987
G1 X-17.270 Y-22.701 E88.0285
G1 X17.270 Y11.839 E90.1730
G1 X17.270 Y12.518 E90.2028
G1 X-17.270 Y-22.022 E92.3474
G1 X-17.270 Y-21.343 E92.3772
G1 X17.270 Y13.197 E94.5217
G1 X17.270 Y13.876 E94.5515
G1 X-17.270 Y-20.664 E96.6961
G1 X-17.270 Y-19.985 E96.7259
G1 X17.270 Y14.555 E98.8705
G1 X17.270 Y15.234 E98.9003
G1 X-17.270 Y-19.307 E101.0448
G1 X-17.270 Y-18.628 E101.0746
G1 X17.270 Y15.912 E103.2192
G1 X17.270 Y16.591 E103.2490
G1 X-17.270 Y-17.949 E105.3935
G1 X-17.270 Y-17.270 E105.4233
G1 X17.270 Y17.270 E107.5679
G1 X17.270 Y17.949 E107.5977
G1 X-17.270 Y-16.591 E109.7422
G1 X-17.270 Y-15.912 E109.7720
G1 X17.270 Y18.628 E111.9166
G1 X17.270 Y19.307 E111.9464
G1 X-17.270 Y-15.234 E114.0909
G1 X-17.270 Y-14.555 E114.1208
G1 X17.270 Y19.985 E116.2653
G1 X17.270 Y20.664 E116.2951
G1 X-17.270 Y-13.876 E118.4397
G1 X-17.270 Y-13.197 E118.4695
G1 X17.270 Y21.343 E120.6140
G1 X17.270 Y22.022 E120.6438
G1 X-17.270 Y-12.518 E122.7884
G1 X-17.270 Y-11.840 E122.8182
G1 X17.270 Y22.701 E124.9627
G1 X17.270 Y23.379 E124.9925
G1 X-17.270 Y-11.161 E127.1371
G1 X-17.270 Y-10.482 E127.1669
G1 X17.270 Y24.058 E129.3114
G1 X17.270 Y24.737 E129.3412
G1 X-17.270 Y-9.803 E131.4858
G1 X-17.270 Y-9.124 E131.5156
G1 X17.270 Y25.416 E133.6602
G1 X17.270 Y26.095 E133.6900
G1 X-17.270 Y-8.445 E135.8345
G1 X-17.270 Y-7.767 E135.8643
G1 X17.270 Y26.774 E138.0089
G1 X17.270 Y27.452 E138.0387
G1 X-17.270 Y-7.088 E140.1832
G1 X-17.270 Y-6.409 E140.2130
G1 X17.270 Y28.131 E142.3576
G1 X17.270 Y28.810 E142.3874
G1 X-17.270 Y-5.730 E144.5319
G1 X-17.270 Y-5.051 E144.5617
G1 X17.270 Y29.489 E146.7063
G1 X17.270 Y30.168 E146.7361
G1 X-17.270 Y-4.372 E148.8807
G1 X-17.270 Y-3.694 E148.9105
G1 X17.270 Y30.847 E151.0550
G1 X17.270 Y31.525 E151.0848
G1 X-17.270 Y-3.015 E153.2294
G1 X-17.270 Y-2.336 E153.2592
G1 X17.270 Y32.204 E155.4037
G1 X17.270 Y32.883 E155.4335
G1 X-17.270 Y-1.657 E157.5781
G1 X-17.270 Y-0.978 E157.6079
G1 X17.270 Y33.562 E159.7524
G1 X17.270 Y34.241 E159.7822
G1 X-17.270 Y-0.300 E161.9268
G1 X-17.270 Y0.379 E161.9566
G1 X17.270 Y34.919 E164.1012
G1 X17.270 Y35.598 E164.1310
G1 X-17.270 Y1.058 E166.2755
G1 X-17.270 Y1.737 E166.3053
G1 X17.270 Y36.277 E168.4499
G1 X17.270 Y36.956 E168.4797
G1 X-17.270 Y2.416 E170.6242
G1 X-17.270 Y3.095 E170.6540
G1 X17.270 Y37.635 E172.7986
G1 X17.270 Y38.314 E172.8284
G1 X-17.270 Y3.773 E174.9729
G1 X-17.270 Y4.452 E175.0027
G1 X17.270 Y38.992 E177.1473
G1 X17.270 Y39.012 E177.1482
G1 X16.611 Y39.012 E177.1771
G1 X-17.270 Y5.131 E179.2807
G1 X-17.270 Y5.810 E179.3105
G1 X15.932 Y39.012 E181.3720
G1 X15.253 Y39.012 E181.4018
G1 X-17.270 Y6.489 E183.4211
G1 X-17.270 Y7.168 E183.4509
G1 X14.574 Y39.012 E185.4281
G1 X13.896 Y39.012 E185.4579
G1 X-17.270 Y7.846 E187.3930
G1 X-17.270 Y8.525 E187.4228
G1 X13.217 Y39.012 E189.3157
G1 X12.538 Y39.012 E189.3455
G1 X-17.270 Y9.204 E191.1962
G1 X-17.270 Y9.883 E191.2260
G1 X11.859 Y39.012 E193.0346
G1 X11.180 Y39.012 E193.0644
G1 X-17.270 Y10.562 E194.8308
G1 X-17.270 Y11.240 E194.8606
G1 X10.501 Y39.012 E196.5849
G1 X9.823 Y39.012 E196.6148
G1 X-17.270 Y11.919 E198.2969
G1 X-17.270 Y12.598 E198.3267
G1 X9.144 Y39.012 E199.9667
G1 X8.465 Y39.012 E199.9965
G1 X-17.270 Y13.277 E201.5944
G1 X-17.270 Y13.956 E201.6242
G1 X7.786 Y39.012 E203.1799
G1 X7.107 Y39.012 E203.2097
G1 X-17.270 Y14.635 E204.7233
G1 X-17.270 Y15.313 E204.7531
G1 X6.429 Y39.012 E206.2245
G1 X5.750 Y39.012 E206.2543
G1 X-17.270 Y15.992 E207.6835
G1 X-17.270 Y16.671 E207.7133
G1 X5.071 Y39.012 E209.1005
G1 X4.392 Y39.012 E209.1303
G1 X-17.270 Y17.350 E210.4752
G1 X-17.270 Y18.029 E210.5050
G1 X3.713 Y39.012 E211.8079
G1 X3.034 Y39.012 E211.8377
G1 X-17.270 Y18.708 E213.0984
G1 X-17.270 Y19.386 E213.1282
G1 X2.356 Y39.012 E214.3467
G1 X1.677 Y39.012 E214.3765
G1 X-17.270 Y20.065 E215.5529
G1 X-17.270 Y20.744 E215.5827
G1 X0.998 Y39.012 E216.7169
G1 X0.319 Y39.012 E216.7467
G1 X-17.270 Y21.423 E217.8388
G1 X-17.270 Y22.102 E217.8686
G1 X-0.360 Y39.012 E218.9186
G1 X-1.039 Y39.012 E218.9484
G1 X-17.270 Y22.780 E219.9562
G1 X-17.270 Y23.459 E219.9860
G1 X-1.717 Y39.012 E220.9516
G1 X-2.396 Y39.012 E220.9814
G1 X-17.270 Y24.138 E221.9049
G1 X-17.270 Y24.817 E221.9347
G1 X-3.075 Y39.012 E222.8161
G1 X-3.754 Y39.012 E222.8459
G1 X-17.270 Y25.496 E223.6851
G1 X-17.270 Y26.175 E223.7149
G1 X-4.433 Y39.012 E224.5120
G1 X-5.111 Y39.012 E224.5418
G1 X-17.270 Y26.853 E225.2967
G1 X-17.270 Y27.532 E225.3265
G1 X-5.790 Y39.012 E226.0392
G1 X-6.469 Y39.012 E226.0690
G1 X-17.270 Y28.211 E226.7397
G1 X-17.270 Y28.890 E226.7695
G1 X-7.148 Y39.012 E227.3979
G1 X-7.827 Y39.012 E227.4277
G1 X-17.270 Y29.569 E228.0141
G1 X-17.270 Y30.247 E228.0439
G1 X-8.506 Y39.012 E228.5880
G1 X-9.184 Y39.012 E228.6178
G1 X-17.270 Y30.926 E229.1199
G1 X-17.270 Y31.605 E229.1497
G1 X-9.863 Y39.012 E229.6096
G1 X-10.542 Y39.012 E229.6394
G1 X-17.270 Y32.284 E230.0571
G1 X-17.270 Y32.963 E230.0869
G1 X-11.221 Y39.012 E230.4625
G1 X-11.900 Y39.012 E230.4923
G1 X-17.270 Y33.642 E230.8257
G1 X-17.270 Y34.320 E230.8555
G1 X-12.578 Y39.012 E231.1468
G1 X-13.257 Y39.012 E231.1766
G1 X-17.270 Y34.999 E231.4258
G1 X-17.270 Y35.678 E231.4556
G1 X-13.936 Y39.012 E231.6626
G1 X-14.615 Y39.012 E231.6924
