; G-Code generated by Simplify3D(R) Version 3.1.0
; Dec 4, 2016 at 3:03:00 AM
; Settings Summary
;   processName,Process1
;   applyToModels,Circle Gear2
;   profileName,Rostock MAX v2 (modified)
;   profileVersion,2015-05-01 08:00:00
;   baseProfile,
;   printMaterial,Iron PLA
;   printQuality,Medium
;   printExtruders,
;   extruderName,Primary Extruder
;   extruderToolheadNumber,0
;   extruderDiameter,0.6
;   extruderAutoWidth,1
;   extruderWidth,0.72
;   extrusionMultiplier,1.1
;   extruderUseRetract,1
;   extruderRetractionDistance,2
;   extruderExtraRestartDistance,-0.2
;   extruderRetractionZLift,0
;   extruderRetractionSpeed,1800
;   extruderUseCoasting,1
;   extruderCoastingDistance,1
;   extruderUseWipe,0
;   extruderWipeDistance,5
;   primaryExtruder,0
;   layerHeight,0.3
;   topSolidLayers,3
;   bottomSolidLayers,3
;   perimeterOutlines,3
;   printPerimetersInsideOut,1
;   startPointOption,2
;   startPointOriginX,0
;   startPointOriginY,0
;   startPointOriginZ,300
;   sequentialIslands,0
;   spiralVaseMode,0
;   firstLayerHeightPercentage,25
;   firstLayerWidthPercentage,100
;   firstLayerUnderspeed,0.4
;   useRaft,0
;   raftExtruder,0
;   raftLayers,3
;   raftOffset,15
;   raftSeparationDistance,0.14
;   raftInfill,85
;   disableRaftBaseLayers,0
;   useSkirt,1
;   skirtExtruder,0
;   skirtLayers,1
;   skirtOutlines,2
;   skirtOffset,5
;   usePrimePillar,0
;   primePillarExtruder,999
;   primePillarWidth,12
;   primePillarLocation,7
;   primePillarSpeedMultiplier,1
;   useOozeShield,0
;   oozeShieldExtruder,999
;   oozeShieldOffset,2
;   oozeShieldOutlines,1
;   oozeShieldSidewallShape,1
;   oozeShieldSidewallAngle,30
;   oozeShieldSpeedMultiplier,1
;   infillExtruder,0
;   internalInfillPattern,Rectilinear
;   externalInfillPattern,Rectilinear
;   infillPercentage,85
;   outlineOverlapPercentage,40
;   infillExtrusionWidthPercentage,100
;   minInfillLength,3
;   infillLayerInterval,1
;   infillAngles,45,-45
;   overlapInfillAngles,0
;   generateSupport,0
;   supportExtruder,0
;   supportInfillPercentage,30
;   supportExtraInflation,0
;   denseSupportLayers,0
;   denseSupportInfillPercentage,70
;   supportLayerInterval,1
;   supportHorizontalPartOffset,0.3
;   supportUpperSeparationLayers,1
;   supportLowerSeparationLayers,1
;   supportType,0
;   supportGridSpacing,4
;   maxOverhangAngle,70
;   supportAngles,0
;   temperatureName,Primary Extruder,Heated Bed
;   temperatureNumber,0,1
;   temperatureSetpointCount,1,1
;   temperatureSetpointLayers,1,1
;   temperatureSetpointTemperatures,210,60
;   temperatureStabilizeAtStartup,1,1
;   temperatureHeatedBed,0,1
;   temperatureRelayBetweenLayers,0,0
;   temperatureRelayBetweenLoops,0,0
;   fanLayers,1,2
;   fanSpeeds,0,100
;   blipFanToFullPower,1
;   adjustSpeedForCooling,1
;   minSpeedLayerTime,5
;   minCoolingSpeedSlowdown,80
;   increaseFanForCooling,0
;   minFanLayerTime,60
;   maxCoolingFanSpeed,100
;   increaseFanForBridging,0
;   bridgingFanSpeed,100
;   use5D,1
;   relativeEdistances,0
;   allowEaxisZeroing,1
;   independentExtruderAxes,0
;   includeM10123,0
;   stickySupport,1
;   applyToolheadOffsets,0
;   gcodeXoffset,0
;   gcodeYoffset,0
;   gcodeZoffset,0
;   overrideMachineDefinition,1
;   machineTypeOverride,1
;   strokeXoverride,197
;   strokeYoverride,197
;   strokeZoverride,375
;   originOffsetXoverride,98.5
;   originOffsetYoverride,98.5
;   originOffsetZoverride,0
;   homeXdirOverride,0
;   homeYdirOverride,0
;   homeZdirOverride,1
;   flipXoverride,1
;   flipYoverride,-1
;   flipZoverride,1
;   toolheadOffsets,0,0|0,0|0,0|0,0|0,0|0,0
;   overrideFirmwareConfiguration,1
;   firmwareTypeOverride,RepRap (Marlin/Repetier/Sprinter)
;   GPXconfigOverride,r2
;   baudRateOverride,115200
;   overridePrinterModels,1
;   printerModelsOverride
;   startingGcode,G28 ; home all axes
;   layerChangeGcode,
;   retractionGcode,
;   toolChangeGcode,
;   endingGcode,M104 S0 ; turn off extruder,M140 S0 ; turn off bed,G28 ; home axes,M84 ; disable motors
;   exportFileFormat,gcode
;   celebration,0
;   celebrationSong,Random Song
;   postProcessing,
;   defaultSpeed,1000
;   outlineUnderspeed,0.5
;   solidInfillUnderspeed,0.8
;   supportUnderspeed,0.8
;   rapidXYspeed,9000
;   rapidZspeed,1200
;   minBridgingArea,50
;   bridgingExtraInflation,0
;   bridgingExtrusionMultiplier,0.8
;   bridgingSpeedMultiplier,1.25
;   filamentDiameter,1.75
;   filamentPricePerKg,22
;   filamentDensity,1.25
;   useMinPrintHeight,0
;   minPrintHeight,0.05
;   useMaxPrintHeight,0
;   maxPrintHeight,0
;   useDiaphragm,0
;   diaphragmLayerInterval,20
;   robustSlicing,1
;   mergeAllIntoSolid,0
;   onlyRetractWhenCrossingOutline,0
;   retractBetweenLayers,0
;   useRetractionMinTravel,0
;   retractionMinTravel,3
;   retractWhileWiping,1
;   onlyWipeOutlines,1
;   avoidCrossingOutline,1
;   maxMovementDetourFactor,1.5
;   toolChangeRetractionDistance,12
;   toolChangeExtraRestartDistance,-0.5
;   toolChangeRetractionSpeed,600
;   allowThinWallGapFill,1
;   thinWallAllowedOverlapPercentage,10
;   horizontalSizeCompensation,0
G90
M82
M106 S0
M140 S60
M190 S60
M104 S210 T0
M109 S210 T0
G28 ; home all axes
G92 E0
G1 E-2.0000 F1800
G1 Z0.075 F1200
; layer 1, Z = 0.075
T0
; tool H0.300 W0.720
; skirt
G1 X23.342 Y-21.787 F9000
G1 E-0.2000 F540
G92 E0
G1 X24.531 Y-20.439 E0.1776 F800
G1 X24.542 Y-20.426 E0.1793
G1 X24.653 Y-20.292 E0.1965
G1 X24.664 Y-20.278 E0.1982
G1 X25.766 Y-18.858 E0.3758
G1 X25.776 Y-18.844 E0.3774
G1 X25.878 Y-18.704 E0.3946
G1 X25.888 Y-18.690 E0.3963
G1 X26.899 Y-17.203 E0.5739
G1 X26.909 Y-17.189 E0.5756
G1 X27.002 Y-17.042 E0.5928
G1 X27.011 Y-17.027 E0.5945
G1 X27.926 Y-15.480 E0.7721
G1 X27.935 Y-15.465 E0.7737
G1 X28.019 Y-15.313 E0.7909
G1 X28.026 Y-15.298 E0.7926
G1 X28.843 Y-13.696 E0.9702
G1 X28.851 Y-13.681 E0.9719
G1 X28.925 Y-13.523 E0.9891
G1 X28.932 Y-13.508 E0.9908
G1 X29.646 Y-11.858 E1.1684
G1 X29.653 Y-11.842 E1.1701
G1 X29.717 Y-11.680 E1.1872
G1 X29.723 Y-11.664 E1.1889
G1 X30.332 Y-9.973 E1.3665
G1 X30.338 Y-9.957 E1.3682
G1 X30.392 Y-9.791 E1.3854
G1 X30.397 Y-9.775 E1.3871
G1 X30.899 Y-8.049 E1.5647
G1 X30.903 Y-8.032 E1.5664
G1 X30.947 Y-7.863 E1.5836
G1 X30.950 Y-7.847 E1.5852
G1 X31.343 Y-6.092 E1.7628
G1 X31.346 Y-6.076 E1.7645
G1 X31.379 Y-5.905 E1.7817
G1 X31.382 Y-5.888 E1.7834
G1 X31.664 Y-4.113 E1.9610
G1 X31.666 Y-4.096 E1.9627
G1 X31.688 Y-3.923 E1.9799
G1 X31.690 Y-3.906 E1.9815
G1 X31.860 Y-2.116 E2.1592
G1 X31.861 Y-2.099 E2.1608
G1 X31.872 Y-1.925 E2.1780
G1 X31.873 Y-1.909 E2.1797
G1 X31.930 Y-0.111 E2.3573
G1 X31.930 Y-0.095 E2.3590
G1 X31.930 Y0.079 E2.3762
G1 X31.930 Y0.096 E2.3778
G1 X31.874 Y1.894 E2.5554
G1 X31.873 Y1.910 E2.5571
G1 X31.862 Y2.084 E2.5743
G1 X31.861 Y2.101 E2.5760
G1 X31.692 Y3.891 E2.7536
G1 X31.690 Y3.908 E2.7553
G1 X31.668 Y4.081 E2.7725
G1 X31.666 Y4.098 E2.7742
G1 X31.385 Y5.874 E2.9518
G1 X31.382 Y5.890 E2.9535
G1 X31.349 Y6.061 E2.9706
G1 X31.346 Y6.078 E2.9723
G1 X30.954 Y7.832 E3.1499
G1 X30.950 Y7.849 E3.1516
G1 X30.907 Y8.018 E3.1688
G1 X30.902 Y8.034 E3.1705
G1 X30.401 Y9.761 E3.3481
G1 X30.396 Y9.777 E3.3498
G1 X30.342 Y9.943 E3.3670
G1 X30.337 Y9.959 E3.3686
G1 X29.728 Y11.650 E3.5462
G1 X29.722 Y11.666 E3.5479
G1 X29.658 Y11.828 E3.5651
G1 X29.652 Y11.844 E3.5668
G1 X28.938 Y13.494 E3.7444
G1 X28.931 Y13.509 E3.7461
G1 X28.857 Y13.667 E3.7633
G1 X28.850 Y13.682 E3.7649
G1 X28.034 Y15.285 E3.9426
G1 X28.026 Y15.300 E3.9442
G1 X27.942 Y15.452 E3.9614
G1 X27.934 Y15.467 E3.9631
G1 X27.019 Y17.014 E4.1407
G1 X27.010 Y17.029 E4.1424
G1 X26.917 Y17.176 E4.1596
G1 X26.907 Y17.190 E4.1612
G1 X25.897 Y18.677 E4.3388
G1 X25.887 Y18.691 E4.3405
G1 X25.785 Y18.832 E4.3577
G1 X25.775 Y18.846 E4.3594
G1 X24.673 Y20.267 E4.5370
G1 X24.663 Y20.280 E4.5387
G1 X24.552 Y20.414 E4.5559
G1 X24.541 Y20.427 E4.5576
G1 X23.352 Y21.776 E4.7352
G1 X23.340 Y21.789 E4.7369
G1 X23.221 Y21.915 E4.7540
G1 X23.210 Y21.928 E4.7557
G1 X21.939 Y23.199 E4.9333
G1 X21.926 Y23.211 E4.9350
G1 X21.800 Y23.330 E4.9522
G1 X21.787 Y23.341 E4.9538
G1 X20.434 Y24.535 E5.1321
G1 X20.421 Y24.546 E5.1338
G1 X20.286 Y24.658 E5.1510
G1 X20.273 Y24.668 E5.1527
G1 X18.852 Y25.771 E5.3304
G1 X18.838 Y25.781 E5.3321
G1 X18.698 Y25.883 E5.3492
G1 X18.684 Y25.893 E5.3509
G1 X17.197 Y26.903 E5.5285
G1 X17.182 Y26.913 E5.5302
G1 X17.035 Y27.006 E5.5474
G1 X17.021 Y27.015 E5.5491
G1 X15.473 Y27.930 E5.7267
G1 X15.459 Y27.939 E5.7284
G1 X15.306 Y28.022 E5.7455
G1 X15.291 Y28.030 E5.7472
G1 X13.689 Y28.847 E5.9248
G1 X13.674 Y28.854 E5.9265
G1 X13.516 Y28.928 E5.9437
G1 X13.501 Y28.935 E5.9454
G1 X11.851 Y29.649 E6.1230
G1 X11.835 Y29.656 E6.1247
G1 X11.673 Y29.720 E6.1419
G1 X11.657 Y29.726 E6.1435
G1 X9.966 Y30.335 E6.3211
G1 X9.950 Y30.340 E6.3228
G1 X9.784 Y30.394 E6.3400
G1 X9.768 Y30.399 E6.3417
G1 X8.041 Y30.901 E6.5193
G1 X8.025 Y30.905 E6.5210
G1 X7.856 Y30.949 E6.5382
G1 X7.840 Y30.953 E6.5399
G1 X6.085 Y31.345 E6.7175
G1 X6.068 Y31.348 E6.7191
G1 X5.898 Y31.381 E6.7363
G1 X5.881 Y31.384 E6.7380
G1 X4.105 Y31.665 E6.9156
G1 X4.088 Y31.667 E6.9173
G1 X3.916 Y31.689 E6.9345
G1 X3.899 Y31.691 E6.9362
G1 X2.109 Y31.860 E7.1138
G1 X2.092 Y31.862 E7.1155
G1 X1.918 Y31.872 E7.1326
G1 X1.901 Y31.873 E7.1343
G1 X0.104 Y31.930 E7.3119
G1 X0.087 Y31.930 E7.3136
G1 X-0.087 Y31.930 E7.3308
G1 X-0.104 Y31.930 E7.3325
G1 X-1.901 Y31.873 E7.5101
G1 X-1.918 Y31.872 E7.5118
G1 X-2.092 Y31.862 E7.5289
G1 X-2.109 Y31.860 E7.5306
G1 X-3.899 Y31.691 E7.7082
G1 X-3.916 Y31.689 E7.7099
G1 X-4.088 Y31.667 E7.7271
G1 X-4.105 Y31.665 E7.7288
G1 X-5.881 Y31.384 E7.9064
G1 X-5.898 Y31.381 E7.9081
G1 X-6.068 Y31.348 E7.9253
G1 X-6.085 Y31.345 E7.9269
G1 X-7.840 Y30.953 E8.1045
G1 X-7.856 Y30.949 E8.1062
G1 X-8.025 Y30.905 E8.1234
G1 X-8.041 Y30.901 E8.1251
G1 X-9.768 Y30.399 E8.3027
G1 X-9.784 Y30.394 E8.3044
G1 X-9.950 Y30.340 E8.3216
G1 X-9.966 Y30.335 E8.3233
G1 X-11.657 Y29.726 E8.5009
G1 X-11.673 Y29.720 E8.5025
G1 X-11.835 Y29.656 E8.5197
G1 X-11.851 Y29.649 E8.5214
G1 X-13.501 Y28.935 E8.6990
G1 X-13.516 Y28.928 E8.7007
G1 X-13.674 Y28.854 E8.7179
G1 X-13.689 Y28.847 E8.7196
G1 X-15.291 Y28.030 E8.8972
G1 X-15.306 Y28.022 E8.8989
G1 X-15.459 Y27.939 E8.9160
G1 X-15.473 Y27.930 E8.9177
G1 X-17.021 Y27.015 E9.0953
G1 X-17.035 Y27.006 E9.0970
G1 X-17.182 Y26.913 E9.1142
G1 X-17.197 Y26.903 E9.1159
G1 X-18.684 Y25.893 E9.2935
G1 X-18.698 Y25.883 E9.2952
G1 X-18.838 Y25.781 E9.3123
G1 X-18.852 Y25.771 E9.3140
G1 X-20.273 Y24.669 E9.4916
G1 X-20.286 Y24.658 E9.4933
G1 X-20.420 Y24.547 E9.5105
G1 X-20.433 Y24.536 E9.5122
G1 X-21.782 Y23.347 E9.6898
G1 X-21.794 Y23.335 E9.6915
G1 X-21.921 Y23.216 E9.7087
G1 X-21.933 Y23.205 E9.7103
G1 X-23.200 Y21.938 E9.8873
G1 X-23.212 Y21.926 E9.8890
G1 X-23.330 Y21.799 E9.9061
G1 X-23.342 Y21.787 E9.9078
G1 X-24.531 Y20.439 E10.0853
G1 X-24.542 Y20.426 E10.0870
G1 X-24.653 Y20.292 E10.1042
G1 X-24.664 Y20.278 E10.1059
G1 X-25.766 Y18.858 E10.2835
G1 X-25.776 Y18.844 E10.2852
G1 X-25.878 Y18.704 E10.3024
G1 X-25.888 Y18.690 E10.3041
G1 X-26.899 Y17.203 E10.4817
G1 X-26.909 Y17.189 E10.4833
G1 X-27.002 Y17.042 E10.5006
G1 X-27.011 Y17.027 E10.5022
G1 X-27.926 Y15.480 E10.6798
G1 X-27.935 Y15.465 E10.6815
G1 X-28.019 Y15.313 E10.6987
G1 X-28.026 Y15.298 E10.7004
G1 X-28.843 Y13.696 E10.8780
G1 X-28.851 Y13.681 E10.8796
G1 X-28.925 Y13.523 E10.8969
G1 X-28.932 Y13.508 E10.8985
G1 X-29.646 Y11.858 E11.0761
G1 X-29.653 Y11.842 E11.0778
G1 X-29.717 Y11.680 E11.0950
G1 X-29.723 Y11.664 E11.0967
G1 X-30.332 Y9.973 E11.2743
G1 X-30.338 Y9.957 E11.2760
G1 X-30.392 Y9.791 E11.2932
G1 X-30.397 Y9.775 E11.2948
G1 X-30.899 Y8.049 E11.4724
G1 X-30.903 Y8.032 E11.4741
G1 X-30.947 Y7.863 E11.4913
G1 X-30.950 Y7.847 E11.4930
G1 X-31.343 Y6.092 E11.6706
G1 X-31.346 Y6.076 E11.6723
G1 X-31.379 Y5.905 E11.6895
G1 X-31.382 Y5.888 E11.6911
G1 X-31.664 Y4.113 E11.8687
G1 X-31.666 Y4.096 E11.8704
G1 X-31.688 Y3.923 E11.8876
G1 X-31.690 Y3.906 E11.8893
G1 X-31.860 Y2.116 E12.0669
G1 X-31.861 Y2.099 E12.0686
G1 X-31.872 Y1.925 E12.0858
G1 X-31.873 Y1.909 E12.0875
G1 X-31.930 Y0.111 E12.2651
G1 X-31.930 Y0.095 E12.2667
G1 X-31.930 Y-0.079 E12.2839
G1 X-31.930 Y-0.096 E12.2856
G1 X-31.874 Y-1.894 E12.4632
G1 X-31.873 Y-1.910 E12.4649
G1 X-31.862 Y-2.084 E12.4821
G1 X-31.861 Y-2.101 E12.4838
G1 X-31.692 Y-3.891 E12.6614
G1 X-31.690 Y-3.908 E12.6631
G1 X-31.668 Y-4.081 E12.6803
G1 X-31.666 Y-4.098 E12.6819
G1 X-31.385 Y-5.874 E12.8595
G1 X-31.382 Y-5.890 E12.8612
G1 X-31.349 Y-6.061 E12.8784
G1 X-31.346 Y-6.078 E12.8801
G1 X-30.954 Y-7.832 E13.0577
G1 X-30.950 Y-7.849 E13.0594
G1 X-30.907 Y-8.018 E13.0766
G1 X-30.902 Y-8.034 E13.0782
G1 X-30.401 Y-9.761 E13.2559
G1 X-30.396 Y-9.777 E13.2575
G1 X-30.342 Y-9.943 E13.2747
G1 X-30.337 Y-9.959 E13.2764
G1 X-29.728 Y-11.650 E13.4540
G1 X-29.722 Y-11.666 E13.4557
G1 X-29.658 Y-11.828 E13.4729
G1 X-29.652 Y-11.844 E13.4745
G1 X-28.938 Y-13.494 E13.6521
G1 X-28.931 Y-13.509 E13.6538
G1 X-28.857 Y-13.667 E13.6710
G1 X-28.850 Y-13.682 E13.6727
G1 X-28.031 Y-15.290 E13.8510
G1 X-28.023 Y-15.305 E13.8526
G1 X-27.939 Y-15.458 E13.8699
G1 X-27.930 Y-15.473 E13.8716
G1 X-27.018 Y-17.015 E14.0486
G1 X-27.009 Y-17.030 E14.0502
G1 X-26.916 Y-17.176 E14.0674
G1 X-26.907 Y-17.190 E14.0690
G1 X-25.897 Y-18.677 E14.2466
G1 X-25.887 Y-18.691 E14.2483
G1 X-25.785 Y-18.832 E14.2655
G1 X-25.775 Y-18.846 E14.2671
G1 X-24.673 Y-20.267 E14.4448
G1 X-24.663 Y-20.280 E14.4464
G1 X-24.552 Y-20.414 E14.4637
G1 X-24.541 Y-20.427 E14.4653
G1 X-23.352 Y-21.776 E14.6429
G1 X-23.340 Y-21.789 E14.6446
G1 X-23.221 Y-21.915 E14.6618
G1 X-23.210 Y-21.928 E14.6635
G1 X-21.939 Y-23.199 E14.8411
G1 X-21.926 Y-23.211 E14.8427
G1 X-21.800 Y-23.330 E14.8599
G1 X-21.787 Y-23.341 E14.8616
G1 X-20.434 Y-24.535 E15.0399
G1 X-20.421 Y-24.546 E15.0415
G1 X-20.286 Y-24.658 E15.0588
G1 X-20.273 Y-24.668 E15.0605
G1 X-18.852 Y-25.771 E15.2382
G1 X-18.838 Y-25.781 E15.2398
G1 X-18.698 Y-25.883 E15.2570
G1 X-18.684 Y-25.893 E15.2587
G1 X-17.197 Y-26.903 E15.4363
G1 X-17.182 Y-26.913 E15.4380
G1 X-17.035 Y-27.006 E15.4552
G1 X-17.021 Y-27.015 E15.4568
G1 X-15.473 Y-27.930 E15.6345
G1 X-15.459 Y-27.939 E15.6361
G1 X-15.306 Y-28.022 E15.6533
G1 X-15.291 Y-28.030 E15.6550
G1 X-13.689 Y-28.847 E15.8326
G1 X-13.674 Y-28.854 E15.8343
G1 X-13.516 Y-28.928 E15.8515
G1 X-13.501 Y-28.935 E15.8532
G1 X-11.851 Y-29.649 E16.0308
G1 X-11.835 Y-29.656 E16.0324
G1 X-11.673 Y-29.720 E16.0496
G1 X-11.657 Y-29.726 E16.0513
G1 X-9.966 Y-30.335 E16.2289
G1 X-9.950 Y-30.340 E16.2306
G1 X-9.784 Y-30.394 E16.2478
G1 X-9.768 Y-30.399 E16.2494
G1 X-8.041 Y-30.901 E16.4271
G1 X-8.025 Y-30.905 E16.4287
G1 X-7.856 Y-30.949 E16.4460
G1 X-7.840 Y-30.953 E16.4476
G1 X-6.085 Y-31.345 E16.6252
G1 X-6.068 Y-31.348 E16.6269
G1 X-5.898 Y-31.381 E16.6441
G1 X-5.881 Y-31.384 E16.6458
G1 X-4.105 Y-31.665 E16.8234
G1 X-4.088 Y-31.667 E16.8250
G1 X-3.916 Y-31.689 E16.8423
G1 X-3.899 Y-31.691 E16.8439
G1 X-2.109 Y-31.860 E17.0215
G1 X-2.092 Y-31.862 E17.0232
G1 X-1.918 Y-31.872 E17.0404
G1 X-1.901 Y-31.873 E17.0421
G1 X-0.104 Y-31.930 E17.2197
G1 X-0.087 Y-31.930 E17.2214
G1 X0.087 Y-31.930 E17.2386
G1 X0.104 Y-31.930 E17.2402
G1 X1.901 Y-31.873 E17.4178
G1 X1.918 Y-31.872 E17.4195
G1 X2.092 Y-31.862 E17.4367
G1 X2.109 Y-31.860 E17.4384
G1 X3.895 Y-31.691 E17.6156
G1 X3.912 Y-31.690 E17.6173
G1 X4.084 Y-31.668 E17.6345
G1 X4.101 Y-31.665 E17.6361
G1 X5.880 Y-31.384 E17.8141
G1 X5.897 Y-31.381 E17.8158
G1 X6.068 Y-31.348 E17.8330
G1 X6.085 Y-31.345 E17.8347
G1 X7.840 Y-30.953 E18.0123
G1 X7.856 Y-30.949 E18.0140
G1 X8.025 Y-30.905 E18.0312
G1 X8.041 Y-30.901 E18.0329
G1 X9.768 Y-30.399 E18.2105
G1 X9.784 Y-30.394 E18.2122
G1 X9.950 Y-30.340 E18.2294
G1 X9.966 Y-30.335 E18.2310
G1 X11.657 Y-29.726 E18.4086
G1 X11.673 Y-29.720 E18.4103
G1 X11.835 Y-29.656 E18.4275
G1 X11.851 Y-29.649 E18.4292
G1 X13.501 Y-28.935 E18.6068
G1 X13.516 Y-28.928 E18.6085
G1 X13.674 Y-28.854 E18.6257
G1 X13.689 Y-28.847 E18.6273
G1 X15.291 Y-28.030 E18.8050
G1 X15.306 Y-28.022 E18.8066
G1 X15.459 Y-27.939 E18.8238
G1 X15.473 Y-27.930 E18.8255
G1 X17.021 Y-27.015 E19.0031
G1 X17.035 Y-27.006 E19.0048
