; G-Code generated by Simplify3D(R) Version 3.1.0
; Jun 25, 2016 at 1:22:54 AM
; Settings Summary
;   processName,Process1
;   applyToModels,Retraction
;   profileName,Rostock MAX v2 (modified)
;   profileVersion,2015-05-01 08:00:00
;   baseProfile,
;   printMaterial,PLA
;   printQuality,Medium
;   printExtruders,
;   extruderName,Primary Extruder
;   extruderToolheadNumber,0
;   extruderDiameter,0.5
;   extruderAutoWidth,0
;   extruderWidth,0.5
;   extrusionMultiplier,0.95
;   extruderUseRetract,1
;   extruderRetractionDistance,6
;   extruderExtraRestartDistance,0
;   extruderRetractionZLift,0.3
;   extruderRetractionSpeed,6600
;   extruderUseCoasting,0
;   extruderCoastingDistance,1
;   extruderUseWipe,1
;   extruderWipeDistance,5
;   primaryExtruder,0
;   layerHeight,0.2
;   topSolidLayers,3
;   bottomSolidLayers,3
;   perimeterOutlines,3
;   printPerimetersInsideOut,1
;   startPointOption,2
;   startPointOriginX,0
;   startPointOriginY,0
;   startPointOriginZ,300
;   sequentialIslands,0
;   spiralVaseMode,0
;   firstLayerHeightPercentage,90
;   firstLayerWidthPercentage,100
;   firstLayerUnderspeed,0.4
;   useRaft,0
;   raftExtruder,0
;   raftLayers,3
;   raftOffset,3
;   raftSeparationDistance,0.14
;   raftInfill,85
;   disableRaftBaseLayers,0
;   useSkirt,1
;   skirtExtruder,0
;   skirtLayers,1
;   skirtOutlines,2
;   skirtOffset,4
;   usePrimePillar,0
;   primePillarExtruder,999
;   primePillarWidth,12
;   primePillarLocation,7
;   primePillarSpeedMultiplier,1
;   useOozeShield,0
;   oozeShieldExtruder,999
;   oozeShieldOffset,2
;   oozeShieldOutlines,1
;   oozeShieldSidewallShape,1
;   oozeShieldSidewallAngle,30
;   oozeShieldSpeedMultiplier,1
;   infillExtruder,0
;   internalInfillPattern,Rectilinear
;   externalInfillPattern,Rectilinear
;   infillPercentage,20
;   outlineOverlapPercentage,15
;   infillExtrusionWidthPercentage,150
;   minInfillLength,5
;   infillLayerInterval,1
;   infillAngles,45,-45
;   overlapInfillAngles,0
;   generateSupport,0
;   supportExtruder,0
;   supportInfillPercentage,30
;   supportExtraInflation,0
;   denseSupportLayers,0
;   denseSupportInfillPercentage,70
;   supportLayerInterval,1
;   supportHorizontalPartOffset,0.3
;   supportUpperSeparationLayers,1
;   supportLowerSeparationLayers,1
;   supportType,0
;   supportGridSpacing,4
;   maxOverhangAngle,45
;   supportAngles,0
;   temperatureName,Primary Extruder,Heated Bed
;   temperatureNumber,0,1
;   temperatureSetpointCount,1,1
;   temperatureSetpointLayers,1,1
;   temperatureSetpointTemperatures,195,60
;   temperatureStabilizeAtStartup,1,1
;   temperatureHeatedBed,0,1
;   temperatureRelayBetweenLayers,0,0
;   temperatureRelayBetweenLoops,0,0
;   fanLayers,1,2
;   fanSpeeds,0,100
;   blipFanToFullPower,1
;   adjustSpeedForCooling,1
;   minSpeedLayerTime,15
;   minCoolingSpeedSlowdown,20
;   increaseFanForCooling,0
;   minFanLayerTime,60
;   maxCoolingFanSpeed,100
;   increaseFanForBridging,0
;   bridgingFanSpeed,100
;   use5D,1
;   relativeEdistances,0
;   allowEaxisZeroing,1
;   independentExtruderAxes,0
;   includeM10123,0
;   stickySupport,1
;   applyToolheadOffsets,0
;   gcodeXoffset,0
;   gcodeYoffset,0
;   gcodeZoffset,0
;   overrideMachineDefinition,1
;   machineTypeOverride,1
;   strokeXoverride,197
;   strokeYoverride,197
;   strokeZoverride,375
;   originOffsetXoverride,98.5
;   originOffsetYoverride,98.5
;   originOffsetZoverride,0
;   homeXdirOverride,0
;   homeYdirOverride,0
;   homeZdirOverride,1
;   flipXoverride,1
;   flipYoverride,-1
;   flipZoverride,1
;   toolheadOffsets,0,0|0,0|0,0|0,0|0,0|0,0
;   overrideFirmwareConfiguration,1
;   firmwareTypeOverride,RepRap (Marlin/Repetier/Sprinter)
;   GPXconfigOverride,r2
;   baudRateOverride,115200
;   overridePrinterModels,1
;   printerModelsOverride
;   startingGcode,G28 ; home all axes
;   layerChangeGcode,
;   retractionGcode,
;   toolChangeGcode,
;   endingGcode,M104 S0 ; turn off extruder,M140 S0 ; turn off bed,G28 ; home axes,M84 ; disable motors
;   exportFileFormat,gcode
;   celebration,0
;   celebrationSong,Random Song
;   postProcessing,
;   defaultSpeed,3000
;   outlineUnderspeed,0.5
;   solidInfillUnderspeed,0.8
;   supportUnderspeed,0.8
;   rapidXYspeed,9000
;   rapidZspeed,1200
;   minBridgingArea,50
;   bridgingExtraInflation,0
;   bridgingExtrusionMultiplier,0.95
;   bridgingSpeedMultiplier,0.7
;   filamentDiameter,1.7
;   filamentPricePerKg,33.98
;   filamentDensity,1.25
;   useMinPrintHeight,0
;   minPrintHeight,0
;   useMaxPrintHeight,0
;   maxPrintHeight,0
;   useDiaphragm,0
;   diaphragmLayerInterval,20
;   robustSlicing,1
;   mergeAllIntoSolid,0
;   onlyRetractWhenCrossingOutline,1
;   retractBetweenLayers,1
;   useRetractionMinTravel,0
;   retractionMinTravel,3
;   retractWhileWiping,0
;   onlyWipeOutlines,1
;   avoidCrossingOutline,0
;   maxMovementDetourFactor,3
;   toolChangeRetractionDistance,12
;   toolChangeExtraRestartDistance,-0.5
;   toolChangeRetractionSpeed,600
;   allowThinWallGapFill,1
;   thinWallAllowedOverlapPercentage,10
;   horizontalSizeCompensation,0
G90
M82
M106 S0
M140 S60
M190 S60
M104 S195 T0
M109 S195 T0
G28 ; home all axes
G92 E0
G1 E-6.0000 F6600
G1 Z0.480 F1200
; layer 1, Z = 0.18
T0
; tool H0.200 W0.500
; skirt
G1 X24.750 Y-21.806 F9000
G1 Z0.180 F1200
G1 E0.0000 F1980
G92 E0
G1 X24.750 Y21.806 E1.8253 F1200
G1 X24.636 Y22.082 E1.8378
G1 X22.082 Y24.636 E1.9890
G1 X21.806 Y24.750 E2.0015
G1 X-21.806 Y24.750 E3.8268
G1 X-22.082 Y24.636 E3.8393
G1 X-24.636 Y22.082 E3.9905
G1 X-24.750 Y21.806 E4.0030
G1 X-24.750 Y-21.806 E5.8283
G1 X-24.636 Y-22.082 E5.8408
G1 X-22.082 Y-24.636 E5.9920
G1 X-21.806 Y-24.750 E6.0045
G1 X21.806 Y-24.750 E7.8298
G1 X22.082 Y-24.636 E7.8423
G1 X24.636 Y-22.082 E7.9935
G1 X24.750 Y-21.806 E8.0060
G1 X24.250 Y-21.707 F9000
G92 E0
G1 X24.250 Y21.707 E1.8170 F1200
G1 X24.212 Y21.798 E1.8212
G1 X21.798 Y24.212 E1.9640
G1 X21.707 Y24.250 E1.9682
G1 X-21.707 Y24.250 E3.7852
G1 X-21.798 Y24.212 E3.7894
G1 X-24.212 Y21.798 E3.9322
G1 X-24.250 Y21.707 E3.9364
G1 X-24.250 Y-21.707 E5.7534
G1 X-24.212 Y-21.798 E5.7576
G1 X-21.798 Y-24.212 E5.9004
G1 X-21.707 Y-24.250 E5.9046
G1 X21.707 Y-24.250 E7.7216
G1 X21.798 Y-24.212 E7.7257
G1 X24.212 Y-21.798 E7.8686
G1 X24.250 Y-21.707 E7.8728
G92 E0
G1 E-6.0000 F6600
G1 Z0.480 F1200
; inner perimeter
; inner perimeter
; outer perimeter
G1 X19.750 Y-19.750 F9000
G1 Z0.180 F1200
G1 E0.0000 F6600
G92 E0
G1 X19.750 Y19.750 E1.6532 F600
G1 X-19.750 Y19.750 E3.3065
G1 X-19.750 Y-19.750 E4.9597
G1 X19.750 Y-19.750 E6.6129
G1 X19.750 Y-14.750 F3000
; inner perimeter
; inner perimeter
; outer perimeter
G1 X19.277 Y-19.277 F9000
G92 E0
G1 X-19.277 Y-19.277 E1.6136 F600
G1 X-19.277 Y19.277 E3.2272
G1 X19.277 Y19.277 E4.8408
G1 X19.277 Y-19.277 E6.4544
G92 E0
G1 E-6.0000 F6600
G1 X14.277 Y-19.277 F3000
G1 Z0.680 F1200
; layer 2, Z = 0.38
M106 S255
; inner perimeter
; inner perimeter
; outer perimeter
G1 X19.750 Y-19.750 F9000
G1 Z0.380 F1200
G1 E0.0000 F6600
G92 E0
G1 X19.750 Y19.750 E1.6532 F1249
G1 X-19.750 Y19.750 E3.3065
G1 X-19.750 Y-19.750 E4.9597
G1 X19.750 Y-19.750 E6.6129
G1 X19.750 Y-14.750 F3000
; inner perimeter
; inner perimeter
; outer perimeter
G1 X19.277 Y-19.277 F9000
G92 E0
G1 X-19.277 Y-19.277 E1.6136 F1249
G1 X-19.277 Y19.277 E3.2272
G1 X19.277 Y19.277 E4.8408
G1 X19.277 Y-19.277 E6.4544
G92 E0
G1 E-6.0000 F6600
G1 X14.277 Y-19.277 F3000
G1 Z0.880 F1200
; layer 3, Z = 0.58
; inner perimeter
; inner perimeter
; outer perimeter
G1 X19.750 Y-19.750 F9000
G1 Z0.580 F1200
G1 E0.0000 F6600
G92 E0
G1 X19.750 Y19.750 E1.6532 F1249
G1 X-19.750 Y19.750 E3.3065
G1 X-19.750 Y-19.750 E4.9597
G1 X19.750 Y-19.750 E6.6129
G1 X19.750 Y-14.750 F3000
; inner perimeter
; inner perimeter
; outer perimeter
G1 X19.277 Y-19.277 F9000
G92 E0
G1 X-19.277 Y-19.277 E1.6136 F1249
G1 X-19.277 Y19.277 E3.2272
G1 X19.277 Y19.277 E4.8408
G1 X19.277 Y-19.277 E6.4544
G92 E0
G1 E-6.0000 F6600
G1 X14.277 Y-19.277 F3000
G1 Z1.080 F1200
; layer 4, Z = 0.78
; inner perimeter
; inner perimeter
; outer perimeter
G1 X19.750 Y-19.750 F9000
G1 Z0.780 F1200
G1 E0.0000 F6600
G92 E0
G1 X19.750 Y19.750 E1.6532 F1249
G1 X-19.750 Y19.750 E3.3065
G1 X-19.750 Y-19.750 E4.9597
G1 X19.750 Y-19.750 E6.6129
G1 X19.750 Y-14.750 F3000
; inner perimeter
; inner perimeter
; outer perimeter
G1 X19.277 Y-19.277 F9000
G92 E0
G1 X-19.277 Y-19.277 E1.6136 F1249
G1 X-19.277 Y19.277 E3.2272
G1 X19.277 Y19.277 E4.8408
G1 X19.277 Y-19.277 E6.4544
G92 E0
G1 E-6.0000 F6600
G1 X14.277 Y-19.277 F3000
G1 Z1.280 F1200
; layer 5, Z = 0.98
; inner perimeter
; inner perimeter
; outer perimeter
G1 X19.750 Y-19.750 F9000
G1 Z0.980 F1200
G1 E0.0000 F6600
G92 E0
G1 X19.750 Y19.750 E1.6532 F1249
G1 X-19.750 Y19.750 E3.3065
G1 X-19.750 Y-19.750 E4.9597
G1 X19.750 Y-19.750 E6.6129
G1 X19.750 Y-14.750 F3000
; inner perimeter
; inner perimeter
; outer perimeter
G1 X19.277 Y-19.277 F9000
G92 E0
G1 X-19.277 Y-19.277 E1.6136 F1249
G1 X-19.277 Y19.277 E3.2272
G1 X19.277 Y19.277 E4.8408
G1 X19.277 Y-19.277 E6.4544
G92 E0
G1 E-6.0000 F6600
G1 X14.277 Y-19.277 F3000
G1 Z1.480 F1200
; layer 6, Z = 1.18
; inner perimeter
; inner perimeter
; outer perimeter
G1 X19.750 Y-19.750 F9000
G1 Z1.180 F1200
G1 E0.0000 F6600
G92 E0
G1 X19.750 Y19.750 E1.6532 F1249
G1 X-19.750 Y19.750 E3.3065
G1 X-19.750 Y-19.750 E4.9597
G1 X19.750 Y-19.750 E6.6129
G1 X19.750 Y-14.750 F3000
; inner perimeter
; inner perimeter
; outer perimeter
G1 X19.277 Y-19.277 F9000
G92 E0
G1 X-19.277 Y-19.277 E1.6136 F1249
G1 X-19.277 Y19.277 E3.2272
G1 X19.277 Y19.277 E4.8408
G1 X19.277 Y-19.277 E6.4544
G92 E0
G1 E-6.0000 F6600
G1 X14.277 Y-19.277 F3000
G1 Z1.680 F1200
; layer 7, Z = 1.38
; inner perimeter
; inner perimeter
; outer perimeter
G1 X10.285 Y-19.277 F9000
G1 Z1.380 F1200
G1 E0.0000 F6600
G92 E0
G1 X10.285 Y-19.750 E0.0198 F969
G1 X19.750 Y-19.750 E0.4160
G1 X19.750 Y-16.444 E0.5544
G1 X19.277 Y-16.444 E0.5742
G1 X19.277 Y-19.277 E0.6927
G1 X10.285 Y-19.277 E1.0691
G92 E0
G1 E-6.0000 F6600
G1 X10.285 Y-19.750 F3000
G1 X14.811 Y-19.750 F3000
G1 Z1.680 F1200
; inner perimeter
; inner perimeter
; outer perimeter
G1 X7.835 Y-19.750 F9000
G1 Z1.380 F1200
G1 E0.0000 F6600
G92 E0
G1 X7.835 Y-19.277 E0.0198 F969
G1 X-8.375 Y-19.277 E0.6983
G1 X-8.375 Y-19.750 E0.7181
G1 X7.835 Y-19.750 E1.3966
G92 E0
G1 E-6.0000 F6600
G1 X7.835 Y-19.277 F3000
G1 X3.309 Y-19.277 F3000
G1 Z1.680 F1200
; inner perimeter
; inner perimeter
; outer perimeter
G1 X-9.017 Y-19.277 F9000
G1 Z1.380 F1200
G1 E0.0000 F6600
G92 E0
G1 X-19.277 Y-19.277 E0.4294 F969
G1 X-19.277 Y19.277 E2.0430
G1 X19.277 Y19.277 E3.6566
G1 X19.277 Y18.785 E3.6772
G1 X19.750 Y18.785 E3.6970
G1 X19.750 Y19.750 E3.7374
G1 X-19.750 Y19.750 E5.3906
G1 X-19.750 Y-19.750 E7.0438
G1 X-9.017 Y-19.750 E7.4930
G1 X-9.017 Y-19.277 E7.5129
G92 E0
G1 E-6.0000 F6600
G1 X-14.017 Y-19.277 F3000
G1 Z1.680 F1200
; inner perimeter
; inner perimeter
; outer perimeter
G1 X19.277 Y5.656 F9000
G1 Z1.380 F1200
G1 E0.0000 F6600
G92 E0
G1 X19.750 Y5.656 E0.0198 F969
G1 X19.750 Y7.079 E0.0794
G1 X19.277 Y7.079 E0.0992
G1 X19.277 Y5.656 E0.1587
G92 E0
G1 E-6.0000 F6600
G1 X19.750 Y5.656 F3000
G1 X19.750 Y7.079 F3000
G1 X19.277 Y7.079 F3000
G1 X19.277 Y5.656 F3000
G1 Z1.880 F1200
; layer 8, Z = 1.58
; inner perimeter
; inner perimeter
; outer perimeter
G1 X19.277 Y5.656 F9000
G1 Z1.580 F1200
G1 E0.0000 F6600
G92 E0
G1 X19.750 Y5.656 E0.0198 F532
G1 X19.750 Y7.079 E0.0794
G1 X19.277 Y7.079 E0.0992
G1 X19.277 Y5.656 E0.1587
G92 E0
G1 E-6.0000 F6600
G1 X19.750 Y5.656 F3000
G1 X19.750 Y7.079 F3000
G1 X19.277 Y7.079 F3000
G1 X19.277 Y5.656 F3000
G1 Z1.880 F1200
; inner perimeter
; inner perimeter
; outer perimeter
G1 X19.287 Y18.600 F9000
G1 Z1.580 F1200
G1 E0.0000 F6600
G92 E0
G1 X19.750 Y18.600 E0.0194 F532
G1 X19.750 Y19.750 E0.0675
G1 X14.171 Y19.750 E0.3010
G1 X14.171 Y19.277 E0.3208
G1 X19.277 Y19.277 E0.5345
G1 X19.277 Y18.653 E0.5606
G1 X19.287 Y18.600 E0.5629
G92 E0
G1 E-6.0000 F6600
G1 X19.750 Y18.600 F3000
G1 X19.750 Y19.750 F3000
G1 X16.363 Y19.750 F3000
G1 Z1.880 F1200
; inner perimeter
; inner perimeter
; outer perimeter
G1 X-16.779 Y19.750 F9000
G1 Z1.580 F1200
G1 E0.0000 F6600
G92 E0
G1 X-19.750 Y19.750 E0.1243 F532
G1 X-19.750 Y13.673 E0.3787
G1 X-19.277 Y13.673 E0.3985
G1 X-19.277 Y19.277 E0.6331
G1 X-16.779 Y19.277 E0.7376
G1 X-16.779 Y19.750 E0.7574
G92 E0
G1 E-6.0000 F6600
G1 X-19.750 Y19.750 F3000
G1 X-19.750 Y17.721 F3000
G1 Z1.880 F1200
; inner perimeter
; inner perimeter
; outer perimeter
G1 X-19.750 Y4.973 F9000
G1 Z1.580 F1200
G1 E0.0000 F6600
G92 E0
G1 X-19.750 Y-3.205 E0.3423 F532
G1 X-19.277 Y-3.205 E0.3621
G1 X-19.277 Y4.973 E0.7044
G1 X-19.750 Y4.973 E0.7242
G92 E0
G1 E-6.0000 F6600
G1 X-19.750 Y-0.027 F3000
G1 Z1.880 F1200
; inner perimeter
; inner perimeter
; outer perimeter
G1 X-19.750 Y-17.017 F9000
G1 Z1.580 F1200
G1 E0.0000 F6600
G92 E0
G1 X-19.750 Y-19.750 E0.1144 F532
G1 X-9.922 Y-19.750 E0.5257
G1 X-9.922 Y-19.277 E0.5456
G1 X-19.277 Y-19.277 E0.9371
G1 X-19.277 Y-17.017 E1.0317
G1 X-19.750 Y-17.017 E1.0515
G92 E0
G1 E-6.0000 F6600
G1 X-19.750 Y-19.750 F3000
G1 X-17.483 Y-19.750 F3000
G1 Z1.880 F1200
; inner perimeter
; inner perimeter
; outer perimeter
G1 X-7.492 Y-19.750 F9000
G1 Z1.580 F1200
G1 E0.0000 F6600
G92 E0
G1 X7.382 Y-19.750 E0.6226 F532
G1 X7.382 Y-19.277 E0.6424
G1 X-7.492 Y-19.277 E1.2649
G1 X-7.492 Y-19.750 E1.2848
G92 E0
G1 E-6.0000 F6600
G1 X-2.492 Y-19.750 F3000
G1 Z1.880 F1200
; inner perimeter
; inner perimeter
; outer perimeter
G1 X10.744 Y-19.750 F9000
G1 Z1.580 F1200
G1 E0.0000 F6600
G92 E0
G1 X19.750 Y-19.750 E0.3769 F532
G1 X19.750 Y-16.444 E0.5153
G1 X19.277 Y-16.444 E0.5351
G1 X19.277 Y-19.277 E0.6537
G1 X10.744 Y-19.277 E1.0108
G1 X10.744 Y-19.750 E1.0306
G92 E0
G1 E-6.0000 F6600
G1 X15.744 Y-19.750 F3000
G1 Z2.080 F1200
; layer 9, Z = 1.78
; inner perimeter
; inner perimeter
; outer perimeter
G1 X19.277 Y-19.277 F9000
G1 Z1.780 F1200
G1 E0.0000 F6600
G92 E0
G1 X10.999 Y-19.277 E0.3464 F526
G1 X10.999 Y-19.750 E0.3663
G1 X19.750 Y-19.750 E0.7325
G1 X19.750 Y-16.444 E0.8709
G1 X19.277 Y-16.444 E0.8907
G1 X19.277 Y-19.277 E1.0093
G92 E0
G1 E-6.0000 F6600
G1 X14.277 Y-19.277 F3000
G1 Z2.080 F1200
; inner perimeter
; inner perimeter
; outer perimeter
G1 X7.116 Y-19.277 F9000
G1 Z1.780 F1200
G1 E0.0000 F6600
G92 E0
G1 X-7.076 Y-19.277 E0.5940 F526
G1 X-7.076 Y-19.750 E0.6138
G1 X7.116 Y-19.750 E1.2077
G1 X7.116 Y-19.277 E1.2276
G92 E0
G1 E-6.0000 F6600
G1 X2.116 Y-19.277 F3000
G1 Z2.080 F1200
; inner perimeter
; inner perimeter
; outer perimeter
G1 X-10.335 Y-19.277 F9000
G1 Z1.780 F1200
G1 E0.0000 F6600
G92 E0
G1 X-19.277 Y-19.277 E0.3742 F526
G1 X-19.277 Y-17.017 E0.4688
G1 X-19.750 Y-17.017 E0.4886
G1 X-19.750 Y-19.750 E0.6030
G1 X-10.335 Y-19.750 E0.9971
G1 X-10.335 Y-19.277 E1.0169
G92 E0
G1 E-6.0000 F6600
G1 X-15.335 Y-19.277 F3000
G1 Z2.080 F1200
; inner perimeter
; inner perimeter
; outer perimeter
G1 X-19.277 Y-3.071 F9000
G1 Z1.780 F1200
G1 E0.0000 F6600
G92 E0
G1 X-19.277 Y4.973 E0.3366 F526
G1 X-19.750 Y4.973 E0.3565
G1 X-19.750 Y-3.071 E0.6931
G1 X-19.277 Y-3.071 E0.7129
G92 E0
G1 E-6.0000 F6600
G1 X-19.277 Y1.929 F3000
G1 Z2.080 F1200
; inner perimeter
; inner perimeter
; outer perimeter
G1 X-19.277 Y13.673 F9000
G1 Z1.780 F1200
G1 E0.0000 F6600
G92 E0
G1 X-19.277 Y19.277 E0.2345 F526
G1 X-16.298 Y19.277 E0.3592
G1 X-16.298 Y19.750 E0.3790
G1 X-19.750 Y19.750 E0.5235
G1 X-19.750 Y13.673 E0.7778
G1 X-19.277 Y13.673 E0.7977
G92 E0
G1 E-6.0000 F6600
G1 X-19.277 Y18.673 F3000
G1 Z2.080 F1200
; inner perimeter
; inner perimeter
; outer perimeter
G1 X14.171 Y19.277 F9000
G1 Z1.780 F1200
G1 E0.0000 F6600
G92 E0
G1 X19.277 Y19.277 E0.2137 F526
G1 X19.277 Y18.653 E0.2398
G1 X19.323 Y18.415 E0.2499
G1 X19.750 Y18.415 E0.2678
G1 X19.750 Y19.750 E0.3237
G1 X14.171 Y19.750 E0.5572
G1 X14.171 Y19.277 E0.5770
G92 E0
G1 E-6.0000 F6600
G1 X19.171 Y19.277 F3000
G1 Z2.080 F1200
; inner perimeter
; inner perimeter
; outer perimeter
G1 X19.277 Y7.079 F9000
G1 Z1.780 F1200
G1 E0.0000 F6600
G92 E0
G1 X19.277 Y5.656 E0.0595 F526
G1 X19.750 Y5.656 E0.0794
G1 X19.750 Y7.079 E0.1389
