; G-Code generated by Simplify3D(R) Version 3.1.0
; Jul 26, 2016 at 7:50:51 PM
; Settings Summary
;   processName,Process1
;   applyToModels,oddish_pinlegs,oddish_pinlegs(2)
;   profileName,Rostock MAX v2 (modified)
;   profileVersion,2015-05-01 08:00:00
;   baseProfile,
;   printMaterial,PLA
;   printQuality,Medium
;   printExtruders,
;   extruderName,Primary Extruder
;   extruderToolheadNumber,0
;   extruderDiameter,0.4
;   extruderAutoWidth,1
;   extruderWidth,0.48
;   extrusionMultiplier,1.1
;   extruderUseRetract,1
;   extruderRetractionDistance,6
;   extruderExtraRestartDistance,0
;   extruderRetractionZLift,0.5
;   extruderRetractionSpeed,4600
;   extruderUseCoasting,1
;   extruderCoastingDistance,1
;   extruderUseWipe,1
;   extruderWipeDistance,5
;   primaryExtruder,0
;   layerHeight,0.2
;   topSolidLayers,3
;   bottomSolidLayers,3
;   perimeterOutlines,3
;   printPerimetersInsideOut,1
;   startPointOption,2
;   startPointOriginX,0
;   startPointOriginY,0
;   startPointOriginZ,300
;   sequentialIslands,0
;   spiralVaseMode,0
;   firstLayerHeightPercentage,25
;   firstLayerWidthPercentage,100
;   firstLayerUnderspeed,0.4
;   useRaft,0
;   raftExtruder,0
;   raftLayers,3
;   raftOffset,15
;   raftSeparationDistance,0.14
;   raftInfill,85
;   disableRaftBaseLayers,0
;   useSkirt,1
;   skirtExtruder,0
;   skirtLayers,1
;   skirtOutlines,3
;   skirtOffset,10
;   usePrimePillar,0
;   primePillarExtruder,999
;   primePillarWidth,12
;   primePillarLocation,7
;   primePillarSpeedMultiplier,1
;   useOozeShield,0
;   oozeShieldExtruder,999
;   oozeShieldOffset,2
;   oozeShieldOutlines,1
;   oozeShieldSidewallShape,1
;   oozeShieldSidewallAngle,30
;   oozeShieldSpeedMultiplier,1
;   infillExtruder,0
;   internalInfillPattern,Rectilinear
;   externalInfillPattern,Rectilinear
;   infillPercentage,33
;   outlineOverlapPercentage,25
;   infillExtrusionWidthPercentage,150
;   minInfillLength,5
;   infillLayerInterval,1
;   infillAngles,45,-45
;   overlapInfillAngles,0
;   generateSupport,0
;   supportExtruder,0
;   supportInfillPercentage,30
;   supportExtraInflation,0
;   denseSupportLayers,0
;   denseSupportInfillPercentage,70
;   supportLayerInterval,1
;   supportHorizontalPartOffset,0.3
;   supportUpperSeparationLayers,1
;   supportLowerSeparationLayers,1
;   supportType,1
;   supportGridSpacing,4
;   maxOverhangAngle,45
;   supportAngles,0
;   temperatureName,Primary Extruder,Heated Bed
;   temperatureNumber,0,1
;   temperatureSetpointCount,1,1
;   temperatureSetpointLayers,1,1
;   temperatureSetpointTemperatures,205,60
;   temperatureStabilizeAtStartup,1,1
;   temperatureHeatedBed,0,1
;   temperatureRelayBetweenLayers,0,0
;   temperatureRelayBetweenLoops,0,0
;   fanLayers,1,2
;   fanSpeeds,0,100
;   blipFanToFullPower,1
;   adjustSpeedForCooling,1
;   minSpeedLayerTime,15
;   minCoolingSpeedSlowdown,20
;   increaseFanForCooling,0
;   minFanLayerTime,60
;   maxCoolingFanSpeed,100
;   increaseFanForBridging,0
;   bridgingFanSpeed,100
;   use5D,1
;   relativeEdistances,0
;   allowEaxisZeroing,1
;   independentExtruderAxes,0
;   includeM10123,0
;   stickySupport,1
;   applyToolheadOffsets,0
;   gcodeXoffset,0
;   gcodeYoffset,0
;   gcodeZoffset,0
;   overrideMachineDefinition,1
;   machineTypeOverride,1
;   strokeXoverride,197
;   strokeYoverride,197
;   strokeZoverride,375
;   originOffsetXoverride,98.5
;   originOffsetYoverride,98.5
;   originOffsetZoverride,0
;   homeXdirOverride,0
;   homeYdirOverride,0
;   homeZdirOverride,1
;   flipXoverride,1
;   flipYoverride,-1
;   flipZoverride,1
;   toolheadOffsets,0,0|0,0|0,0|0,0|0,0|0,0
;   overrideFirmwareConfiguration,1
;   firmwareTypeOverride,RepRap (Marlin/Repetier/Sprinter)
;   GPXconfigOverride,r2
;   baudRateOverride,115200
;   overridePrinterModels,1
;   printerModelsOverride
;   startingGcode,G28 ; home all axes
;   layerChangeGcode,
;   retractionGcode,
;   toolChangeGcode,
;   endingGcode,M104 S0 ; turn off extruder,M140 S0 ; turn off bed,G28 ; home axes,M84 ; disable motors
;   exportFileFormat,gcode
;   celebration,0
;   celebrationSong,Random Song
;   postProcessing,
;   defaultSpeed,3000
;   outlineUnderspeed,0.5
;   solidInfillUnderspeed,0.8
;   supportUnderspeed,0.8
;   rapidXYspeed,9000
;   rapidZspeed,1200
;   minBridgingArea,50
;   bridgingExtraInflation,0
;   bridgingExtrusionMultiplier,0.95
;   bridgingSpeedMultiplier,0.7
;   filamentDiameter,1.7
;   filamentPricePerKg,33.98
;   filamentDensity,1.25
;   useMinPrintHeight,0
;   minPrintHeight,0.05
;   useMaxPrintHeight,0
;   maxPrintHeight,0
;   useDiaphragm,0
;   diaphragmLayerInterval,20
;   robustSlicing,1
;   mergeAllIntoSolid,0
;   onlyRetractWhenCrossingOutline,1
;   retractBetweenLayers,1
;   useRetractionMinTravel,0
;   retractionMinTravel,3
;   retractWhileWiping,1
;   onlyWipeOutlines,1
;   avoidCrossingOutline,1
;   maxMovementDetourFactor,1
;   toolChangeRetractionDistance,12
;   toolChangeExtraRestartDistance,-0.5
;   toolChangeRetractionSpeed,600
;   allowThinWallGapFill,0
;   thinWallAllowedOverlapPercentage,10
;   horizontalSizeCompensation,0
G90
M82
M106 S0
M140 S60
M190 S60
M104 S205 T0
M109 S205 T0
G28 ; home all axes
G92 E0
G1 E-6.0000 F4600
G1 Z0.550 F1200
; layer 1, Z = 0.05
T0
; tool H0.200 W0.480
; skirt
G1 X0.000 Y21.196 F9000
G1 Z0.050 F1200
G1 E0.0000 F1380
G92 E0
G1 X-0.304 Y21.363 E0.0161 F1200
G1 X-0.341 Y21.382 E0.0181
G1 X-1.010 Y21.690 E0.0523
G1 X-1.048 Y21.706 E0.0543
G1 X-2.489 Y22.252 E0.1259
G1 X-2.594 Y22.282 E0.1310
G1 X-3.473 Y22.443 E0.1726
G1 X-3.486 Y22.456 E0.1735
G1 X-3.927 Y22.639 E0.1957
G1 X-10.049 Y22.639 E0.4805
G1 X-10.490 Y22.456 E0.5027
G1 X-10.503 Y22.443 E0.5036
G1 X-11.382 Y22.282 E0.5451
G1 X-11.487 Y22.252 E0.5502
G1 X-12.928 Y21.706 E0.6219
G1 X-12.966 Y21.690 E0.6238
G1 X-13.635 Y21.382 E0.6581
G1 X-13.672 Y21.363 E0.6600
G1 X-15.147 Y20.555 E0.7383
G1 X-15.174 Y20.539 E0.7397
G1 X-15.645 Y20.248 E0.7655
G1 X-15.672 Y20.230 E0.7670
G1 X-18.982 Y17.937 E0.9543
G1 X-19.174 Y17.719 E0.9678
G1 X-21.592 Y13.103 E1.2103
G1 X-21.661 Y12.820 E1.2238
G1 X-21.661 Y6.997 E1.4947
G1 X-21.592 Y6.715 E1.5082
G1 X-20.778 Y5.161 E1.5899
G1 X-20.778 Y-5.161 E2.0701
G1 X-21.592 Y-6.715 E2.1517
G1 X-21.661 Y-6.997 E2.1652
G1 X-21.661 Y-12.820 E2.4361
G1 X-21.592 Y-13.103 E2.4496
G1 X-19.174 Y-17.719 E2.6921
G1 X-18.982 Y-17.937 E2.7056
G1 X-15.672 Y-20.230 E2.8930
G1 X-15.645 Y-20.247 E2.8944
G1 X-15.174 Y-20.539 E2.9202
G1 X-15.147 Y-20.555 E2.9217
G1 X-13.672 Y-21.363 E2.9999
G1 X-13.635 Y-21.382 E3.0018
G1 X-12.966 Y-21.690 E3.0361
G1 X-12.928 Y-21.706 E3.0380
G1 X-11.487 Y-22.253 E3.1097
G1 X-11.382 Y-22.282 E3.1148
G1 X-10.503 Y-22.443 E3.1564
G1 X-10.490 Y-22.456 E3.1572
G1 X-10.049 Y-22.639 E3.1794
G1 X-3.927 Y-22.639 E3.4642
G1 X-3.486 Y-22.456 E3.4865
G1 X-3.473 Y-22.443 E3.4873
G1 X-2.594 Y-22.282 E3.5289
G1 X-2.489 Y-22.253 E3.5340
G1 X-1.048 Y-21.706 E3.6057
G1 X-1.010 Y-21.690 E3.6076
G1 X-0.341 Y-21.382 E3.6419
G1 X-0.304 Y-21.363 E3.6438
G1 X0.000 Y-21.196 E3.6599
G1 X0.304 Y-21.363 E3.6760
G1 X0.341 Y-21.382 E3.6780
G1 X1.010 Y-21.690 E3.7122
G1 X1.048 Y-21.706 E3.7142
G1 X2.489 Y-22.253 E3.7859
G1 X2.594 Y-22.282 E3.7909
G1 X3.473 Y-22.443 E3.8325
G1 X3.486 Y-22.456 E3.8334
G1 X3.927 Y-22.639 E3.8556
G1 X10.049 Y-22.639 E4.1404
G1 X10.490 Y-22.456 E4.1626
G1 X10.503 Y-22.443 E4.1635
G1 X11.382 Y-22.282 E4.2050
G1 X11.487 Y-22.253 E4.2101
G1 X12.928 Y-21.706 E4.2818
G1 X12.966 Y-21.690 E4.2837
G1 X13.635 Y-21.382 E4.3180
G1 X13.672 Y-21.363 E4.3199
G1 X15.147 Y-20.555 E4.3982
G1 X15.174 Y-20.539 E4.3996
G1 X15.645 Y-20.247 E4.4254
G1 X15.672 Y-20.230 E4.4269
G1 X18.982 Y-17.937 E4.6142
G1 X19.174 Y-17.719 E4.6278
G1 X21.592 Y-13.103 E4.8702
G1 X21.661 Y-12.820 E4.8837
G1 X21.661 Y-6.997 E5.1546
G1 X21.592 Y-6.715 E5.1682
G1 X20.778 Y-5.161 E5.2498
G1 X20.778 Y5.161 E5.7300
G1 X21.592 Y6.715 E5.8116
G1 X21.661 Y6.997 E5.8251
G1 X21.661 Y12.820 E6.0960
G1 X21.592 Y13.103 E6.1096
G1 X19.174 Y17.719 E6.3520
G1 X18.982 Y17.937 E6.3655
G1 X15.672 Y20.230 E6.5529
G1 X15.645 Y20.247 E6.5543
G1 X15.174 Y20.539 E6.5801
G1 X15.147 Y20.555 E6.5816
G1 X13.672 Y21.363 E6.6598
G1 X13.635 Y21.382 E6.6618
G1 X12.966 Y21.690 E6.6960
G1 X12.928 Y21.706 E6.6980
G1 X11.487 Y22.252 E6.7696
G1 X11.382 Y22.282 E6.7747
G1 X10.503 Y22.443 E6.8163
G1 X10.490 Y22.456 E6.8172
G1 X10.049 Y22.639 E6.8394
G1 X3.927 Y22.639 E7.1242
G1 X3.486 Y22.456 E7.1464
G1 X3.473 Y22.443 E7.1472
G1 X2.594 Y22.282 E7.1888
G1 X2.489 Y22.252 E7.1939
G1 X1.048 Y21.706 E7.2656
G1 X1.010 Y21.690 E7.2675
G1 X0.897 Y21.638 E7.2733
G1 X0.341 Y21.382 F1200
G1 X0.304 Y21.363 F1200
G1 X0.000 Y21.196 F1200
G1 X0.000 Y20.649 F9000
G92 E0
G1 X-0.527 Y20.938 E0.0280 F1200
G1 X-0.550 Y20.949 E0.0291
G1 X-1.203 Y21.251 E0.0626
G1 X-1.226 Y21.260 E0.0638
G1 X-2.639 Y21.796 E0.1341
G1 X-2.702 Y21.813 E0.1371
G1 X-3.706 Y21.998 E0.1846
G1 X-3.758 Y22.049 E0.1880
G1 X-4.023 Y22.159 E0.2013
G1 X-9.953 Y22.159 E0.4773
G1 X-10.218 Y22.049 E0.4906
G1 X-10.270 Y21.998 E0.4940
G1 X-11.274 Y21.813 E0.5415
G1 X-11.337 Y21.796 E0.5445
G1 X-12.750 Y21.260 E0.6148
G1 X-12.773 Y21.251 E0.6160
G1 X-13.426 Y20.949 E0.6495
G1 X-13.449 Y20.938 E0.6506
G1 X-14.911 Y20.137 E0.7282
G1 X-14.927 Y20.127 E0.7291
G1 X-15.388 Y19.843 E0.7543
G1 X-15.403 Y19.832 E0.7551
G1 X-18.660 Y17.576 E0.9395
G1 X-18.776 Y17.445 E0.9476
G1 X-21.140 Y12.932 E1.1846
G1 X-21.181 Y12.762 E1.1928
G1 X-21.181 Y7.055 E1.4583
G1 X-21.140 Y6.886 E1.4664
G1 X-20.298 Y5.279 E1.5508
G1 X-20.298 Y-5.279 E2.0420
G1 X-21.140 Y-6.886 E2.1264
G1 X-21.181 Y-7.055 E2.1345
G1 X-21.181 Y-12.762 E2.4000
G1 X-21.140 Y-12.932 E2.4081
G1 X-18.776 Y-17.445 E2.6451
G1 X-18.660 Y-17.576 E2.6532
G1 X-15.403 Y-19.832 E2.8376
G1 X-15.388 Y-19.842 E2.8385
G1 X-14.927 Y-20.127 E2.8637
G1 X-14.911 Y-20.137 E2.8645
G1 X-13.449 Y-20.938 E2.9421
G1 X-13.426 Y-20.949 E2.9433
G1 X-12.773 Y-21.251 E2.9767
G1 X-12.750 Y-21.260 E2.9779
G1 X-11.337 Y-21.796 E3.0482
G1 X-11.274 Y-21.814 E3.0512
G1 X-10.270 Y-21.998 E3.0988
G1 X-10.218 Y-22.049 E3.1021
G1 X-9.953 Y-22.159 E3.1155
G1 X-4.023 Y-22.159 E3.3914
G1 X-3.758 Y-22.049 E3.4047
G1 X-3.706 Y-21.998 E3.4081
G1 X-2.702 Y-21.814 E3.4556
G1 X-2.639 Y-21.796 E3.4587
G1 X-1.226 Y-21.260 E3.5289
G1 X-1.203 Y-21.251 E3.5301
G1 X-0.550 Y-20.949 E3.5636
G1 X-0.527 Y-20.938 E3.5648
G1 X0.000 Y-20.649 E3.5927
G1 X0.527 Y-20.938 E3.6207
G1 X0.550 Y-20.949 E3.6219
G1 X1.203 Y-21.251 E3.6554
G1 X1.226 Y-21.260 E3.6565
G1 X2.639 Y-21.796 E3.7268
G1 X2.702 Y-21.814 E3.7299
G1 X3.706 Y-21.998 E3.7774
G1 X3.758 Y-22.049 E3.7808
G1 X4.023 Y-22.159 E3.7941
G1 X9.953 Y-22.159 E4.0700
G1 X10.218 Y-22.049 E4.0833
G1 X10.270 Y-21.998 E4.0867
G1 X11.274 Y-21.814 E4.1342
G1 X11.337 Y-21.796 E4.1373
G1 X12.750 Y-21.260 E4.2076
G1 X12.773 Y-21.251 E4.2087
G1 X13.426 Y-20.949 E4.2422
G1 X13.449 Y-20.938 E4.2434
G1 X14.911 Y-20.137 E4.3209
G1 X14.927 Y-20.127 E4.3218
G1 X15.388 Y-19.842 E4.3470
G1 X15.403 Y-19.832 E4.3479
G1 X18.660 Y-17.576 E4.5322
G1 X18.776 Y-17.445 E4.5403
G1 X21.140 Y-12.932 E4.7774
G1 X21.181 Y-12.762 E4.7855
G1 X21.181 Y-7.055 E5.0510
G1 X21.140 Y-6.886 E5.0591
G1 X20.298 Y-5.279 E5.1435
G1 X20.298 Y5.279 E5.6347
G1 X21.140 Y6.886 E5.7191
G1 X21.181 Y7.055 E5.7272
G1 X21.181 Y12.762 E5.9927
G1 X21.140 Y12.932 E6.0008
G1 X18.776 Y17.445 E6.2379
G1 X18.660 Y17.576 E6.2460
G1 X15.403 Y19.832 E6.4303
G1 X15.388 Y19.842 E6.4312
G1 X14.927 Y20.127 E6.4564
G1 X14.911 Y20.137 E6.4573
G1 X13.449 Y20.938 E6.5348
G1 X13.426 Y20.949 E6.5360
G1 X12.773 Y21.251 E6.5695
G1 X12.750 Y21.260 E6.5706
G1 X11.337 Y21.796 E6.6409
G1 X11.274 Y21.813 E6.6440
G1 X10.270 Y21.998 E6.6915
G1 X10.218 Y22.049 E6.6949
G1 X9.953 Y22.159 E6.7082
G1 X4.023 Y22.159 E6.9841
G1 X3.758 Y22.049 E6.9974
G1 X3.706 Y21.998 E7.0008
G1 X2.702 Y21.813 E7.0484
G1 X2.639 Y21.796 E7.0514
G1 X1.226 Y21.260 E7.1217
G1 X1.203 Y21.251 E7.1228
G1 X0.889 Y21.106 E7.1389
G1 X0.550 Y20.949 F1200
G1 X0.527 Y20.938 F1200
G1 X0.000 Y20.649 F1200
G1 X0.000 Y20.102 F9000
G92 E0
G1 X-0.751 Y20.513 E0.0398 F1200
G1 X-0.758 Y20.517 E0.0402
G1 X-1.397 Y20.811 E0.0729
G1 X-1.404 Y20.814 E0.0733
G1 X-2.789 Y21.339 E0.1422
G1 X-2.810 Y21.345 E0.1432
G1 X-3.940 Y21.552 E0.1967
G1 X-4.030 Y21.642 E0.2026
G1 X-4.118 Y21.679 E0.2070
G1 X-9.858 Y21.679 E0.4741
G1 X-9.946 Y21.642 E0.4785
G1 X-10.036 Y21.552 E0.4844
G1 X-11.166 Y21.345 E0.5379
G1 X-11.187 Y21.339 E0.5389
G1 X-12.572 Y20.814 E0.6078
G1 X-12.579 Y20.811 E0.6082
G1 X-13.218 Y20.517 E0.6409
G1 X-13.225 Y20.513 E0.6413
G1 X-14.674 Y19.719 E0.7181
G1 X-14.680 Y19.716 E0.7184
G1 X-15.130 Y19.438 E0.7430
G1 X-15.135 Y19.434 E0.7433
G1 X-18.339 Y17.214 E0.9247
G1 X-18.378 Y17.171 E0.9274
G1 X-20.687 Y12.760 E1.1590
G1 X-20.701 Y12.704 E1.1617
G1 X-20.701 Y7.114 E1.4218
G1 X-20.687 Y7.057 E1.4245
G1 X-19.818 Y5.397 E1.5117
G1 X-19.818 Y-5.397 E2.0139
G1 X-20.687 Y-7.057 E2.1010
G1 X-20.701 Y-7.114 E2.1038
G1 X-20.701 Y-12.704 E2.3638
G1 X-20.687 Y-12.760 E2.3665
G1 X-18.378 Y-17.171 E2.5982
G1 X-18.339 Y-17.214 E2.6009
G1 X-15.135 Y-19.434 E2.7822
G1 X-15.130 Y-19.437 E2.7825
G1 X-14.680 Y-19.716 E2.8071
G1 X-14.674 Y-19.719 E2.8074
G1 X-13.225 Y-20.513 E2.8843
G1 X-13.218 Y-20.517 E2.8847
G1 X-12.579 Y-20.811 E2.9174
G1 X-12.572 Y-20.814 E2.9178
G1 X-11.187 Y-21.339 E2.9867
G1 X-11.166 Y-21.345 E2.9877
G1 X-10.036 Y-21.552 E3.0411
G1 X-9.946 Y-21.642 E3.0470
G1 X-9.858 Y-21.679 E3.0515
G1 X-4.118 Y-21.679 E3.3185
G1 X-4.030 Y-21.642 E3.3230
G1 X-3.940 Y-21.552 E3.3289
G1 X-2.810 Y-21.345 E3.3823
G1 X-2.789 Y-21.339 E3.3833
G1 X-1.404 Y-20.814 E3.4522
G1 X-1.397 Y-20.811 E3.4526
G1 X-0.758 Y-20.517 E3.4853
G1 X-0.751 Y-20.513 E3.4857
G1 X0.000 Y-20.102 E3.5256
G1 X0.751 Y-20.513 E3.5654
G1 X0.758 Y-20.517 E3.5658
G1 X1.397 Y-20.811 E3.5985
G1 X1.404 Y-20.814 E3.5989
G1 X2.789 Y-21.339 E3.6678
G1 X2.810 Y-21.345 E3.6688
G1 X3.940 Y-21.552 E3.7222
G1 X4.030 Y-21.642 E3.7281
G1 X4.118 Y-21.679 E3.7326
G1 X9.858 Y-21.679 E3.9996
G1 X9.946 Y-21.642 E4.0041
G1 X10.036 Y-21.552 E4.0100
G1 X11.166 Y-21.345 E4.0634
G1 X11.187 Y-21.339 E4.0644
G1 X12.572 Y-20.814 E4.1333
G1 X12.579 Y-20.811 E4.1337
G1 X13.218 Y-20.517 E4.1664
G1 X13.225 Y-20.513 E4.1668
G1 X14.674 Y-19.719 E4.2437
G1 X14.680 Y-19.716 E4.2440
G1 X15.130 Y-19.437 E4.2686
G1 X15.135 Y-19.434 E4.2689
G1 X18.339 Y-17.214 E4.4502
G1 X18.378 Y-17.171 E4.4529
G1 X20.687 Y-12.760 E4.6846
G1 X20.701 Y-12.704 E4.6873
G1 X20.701 Y-7.114 E4.9473
G1 X20.687 Y-7.057 E4.9501
G1 X19.818 Y-5.397 E5.0372
G1 X19.818 Y5.397 E5.5394
G1 X20.687 Y7.057 E5.6266
G1 X20.701 Y7.114 E5.6293
G1 X20.701 Y12.704 E5.8894
G1 X20.687 Y12.760 E5.8921
G1 X18.378 Y17.170 E6.1237
G1 X18.339 Y17.214 E6.1264
G1 X15.135 Y19.434 E6.3078
G1 X15.130 Y19.437 E6.3081
G1 X14.680 Y19.716 E6.3327
G1 X14.674 Y19.719 E6.3330
G1 X13.225 Y20.513 E6.4098
G1 X13.218 Y20.517 E6.4102
G1 X12.579 Y20.811 E6.4429
G1 X12.572 Y20.814 E6.4433
G1 X11.187 Y21.339 E6.5122
G1 X11.166 Y21.345 E6.5132
G1 X10.036 Y21.552 E6.5667
G1 X9.946 Y21.642 E6.5726
G1 X9.858 Y21.679 E6.5770
G1 X4.118 Y21.679 E6.8441
G1 X4.030 Y21.642 E6.8485
G1 X3.940 Y21.552 E6.8544
G1 X2.810 Y21.345 E6.9079
G1 X2.789 Y21.339 E6.9089
G1 X1.404 Y20.814 E6.9778
G1 X1.397 Y20.811 E6.9782
G1 X0.881 Y20.574 E7.0046
G1 X0.758 Y20.517 F1200
G1 X0.751 Y20.513 F1200
G1 X0.000 Y20.102 F1200
; inner perimeter
G1 X-5.598 Y5.160 F9000
G92 E0
G1 X-6.341 Y4.927 E0.0362 F1000
G1 X-6.988 Y4.864 E0.0665
G1 X-7.637 Y4.927 E0.0968
G1 X-8.378 Y5.161 E0.1330
G1 X-8.378 Y-5.160 E0.6131
G1 X-7.635 Y-4.927 E0.6494
G1 X-6.988 Y-4.864 E0.6796
G1 X-6.339 Y-4.927 E0.7100
G1 X-5.598 Y-5.161 E0.7461
G1 X-5.598 Y4.160 E1.1797
G1 X-5.598 Y5.160 F1000
; inner perimeter
G1 X-4.948 Y10.332 F9000
G92 E0
G1 X-4.948 Y9.486 E0.0394 F800
G1 X-4.549 Y9.762 E0.0620
G1 X-4.337 Y9.909 F800
G1 X-4.948 Y10.332 F800
G92 E0
G1 E-6.0000 F4600
G1 Z0.550 F1200
G1 X-9.028 Y10.332 F9000
G1 Z0.050 F1200
G1 E0.0000 F4600
G92 E0
G1 X-9.639 Y9.909 E0.0346 F800
G1 X-9.154 Y9.573 E0.0620
G1 X-9.028 Y9.485 F800
G1 X-9.028 Y10.332 F800
G1 X-8.858 Y6.247 F9000
G92 E0
G1 X-8.858 Y-6.247 E0.5812 F800
G1 X-8.536 Y-5.856 E0.6048
