; G-Code generated by Simplify3D(R) Version 3.1.0
; Jul 26, 2016 at 6:36:04 PM
; Settings Summary
;   processName,Process1
;   applyToModels,oddish_feet
;   profileName,Rostock MAX v2 (modified)
;   profileVersion,2015-05-01 08:00:00
;   baseProfile,
;   printMaterial,PLA
;   printQuality,Medium
;   printExtruders,
;   extruderName,Primary Extruder
;   extruderToolheadNumber,0
;   extruderDiameter,0.4
;   extruderAutoWidth,1
;   extruderWidth,0.48
;   extrusionMultiplier,1.1
;   extruderUseRetract,1
;   extruderRetractionDistance,6
;   extruderExtraRestartDistance,0
;   extruderRetractionZLift,0.3
;   extruderRetractionSpeed,6600
;   extruderUseCoasting,0
;   extruderCoastingDistance,1
;   extruderUseWipe,1
;   extruderWipeDistance,5
;   primaryExtruder,0
;   layerHeight,0.2
;   topSolidLayers,3
;   bottomSolidLayers,3
;   perimeterOutlines,3
;   printPerimetersInsideOut,1
;   startPointOption,2
;   startPointOriginX,0
;   startPointOriginY,0
;   startPointOriginZ,300
;   sequentialIslands,0
;   spiralVaseMode,0
;   firstLayerHeightPercentage,25
;   firstLayerWidthPercentage,100
;   firstLayerUnderspeed,0.4
;   useRaft,1
;   raftExtruder,0
;   raftLayers,3
;   raftOffset,15
;   raftSeparationDistance,0.14
;   raftInfill,85
;   disableRaftBaseLayers,0
;   useSkirt,0
;   skirtExtruder,0
;   skirtLayers,1
;   skirtOutlines,3
;   skirtOffset,20
;   usePrimePillar,0
;   primePillarExtruder,999
;   primePillarWidth,12
;   primePillarLocation,7
;   primePillarSpeedMultiplier,1
;   useOozeShield,0
;   oozeShieldExtruder,999
;   oozeShieldOffset,2
;   oozeShieldOutlines,1
;   oozeShieldSidewallShape,1
;   oozeShieldSidewallAngle,30
;   oozeShieldSpeedMultiplier,1
;   infillExtruder,0
;   internalInfillPattern,Rectilinear
;   externalInfillPattern,Rectilinear
;   infillPercentage,33
;   outlineOverlapPercentage,25
;   infillExtrusionWidthPercentage,150
;   minInfillLength,5
;   infillLayerInterval,1
;   infillAngles,45,-45
;   overlapInfillAngles,0
;   generateSupport,0
;   supportExtruder,0
;   supportInfillPercentage,30
;   supportExtraInflation,0
;   denseSupportLayers,0
;   denseSupportInfillPercentage,70
;   supportLayerInterval,1
;   supportHorizontalPartOffset,0.3
;   supportUpperSeparationLayers,1
;   supportLowerSeparationLayers,1
;   supportType,1
;   supportGridSpacing,4
;   maxOverhangAngle,45
;   supportAngles,0
;   temperatureName,Primary Extruder,Heated Bed
;   temperatureNumber,0,1
;   temperatureSetpointCount,1,1
;   temperatureSetpointLayers,1,1
;   temperatureSetpointTemperatures,205,60
;   temperatureStabilizeAtStartup,1,1
;   temperatureHeatedBed,0,1
;   temperatureRelayBetweenLayers,0,0
;   temperatureRelayBetweenLoops,0,0
;   fanLayers,1,2
;   fanSpeeds,0,100
;   blipFanToFullPower,1
;   adjustSpeedForCooling,1
;   minSpeedLayerTime,15
;   minCoolingSpeedSlowdown,20
;   increaseFanForCooling,0
;   minFanLayerTime,60
;   maxCoolingFanSpeed,100
;   increaseFanForBridging,0
;   bridgingFanSpeed,100
;   use5D,1
;   relativeEdistances,0
;   allowEaxisZeroing,1
;   independentExtruderAxes,0
;   includeM10123,0
;   stickySupport,1
;   applyToolheadOffsets,0
;   gcodeXoffset,0
;   gcodeYoffset,0
;   gcodeZoffset,0
;   overrideMachineDefinition,1
;   machineTypeOverride,1
;   strokeXoverride,197
;   strokeYoverride,197
;   strokeZoverride,375
;   originOffsetXoverride,98.5
;   originOffsetYoverride,98.5
;   originOffsetZoverride,0
;   homeXdirOverride,0
;   homeYdirOverride,0
;   homeZdirOverride,1
;   flipXoverride,1
;   flipYoverride,-1
;   flipZoverride,1
;   toolheadOffsets,0,0|0,0|0,0|0,0|0,0|0,0
;   overrideFirmwareConfiguration,1
;   firmwareTypeOverride,RepRap (Marlin/Repetier/Sprinter)
;   GPXconfigOverride,r2
;   baudRateOverride,115200
;   overridePrinterModels,1
;   printerModelsOverride
;   startingGcode,G28 ; home all axes
;   layerChangeGcode,
;   retractionGcode,
;   toolChangeGcode,
;   endingGcode,M104 S0 ; turn off extruder,M140 S0 ; turn off bed,G28 ; home axes,M84 ; disable motors
;   exportFileFormat,gcode
;   celebration,0
;   celebrationSong,Random Song
;   postProcessing,
;   defaultSpeed,3000
;   outlineUnderspeed,0.5
;   solidInfillUnderspeed,0.8
;   supportUnderspeed,0.8
;   rapidXYspeed,9000
;   rapidZspeed,1200
;   minBridgingArea,50
;   bridgingExtraInflation,0
;   bridgingExtrusionMultiplier,0.95
;   bridgingSpeedMultiplier,0.7
;   filamentDiameter,1.7
;   filamentPricePerKg,33.98
;   filamentDensity,1.25
;   useMinPrintHeight,0
;   minPrintHeight,0.05
;   useMaxPrintHeight,0
;   maxPrintHeight,0
;   useDiaphragm,0
;   diaphragmLayerInterval,20
;   robustSlicing,1
;   mergeAllIntoSolid,0
;   onlyRetractWhenCrossingOutline,1
;   retractBetweenLayers,1
;   useRetractionMinTravel,0
;   retractionMinTravel,3
;   retractWhileWiping,0
;   onlyWipeOutlines,1
;   avoidCrossingOutline,1
;   maxMovementDetourFactor,1
;   toolChangeRetractionDistance,12
;   toolChangeExtraRestartDistance,-0.5
;   toolChangeRetractionSpeed,600
;   allowThinWallGapFill,0
;   thinWallAllowedOverlapPercentage,10
;   horizontalSizeCompensation,0
G90
M82
M106 S0
M140 S60
M190 S60
M104 S205 T0
M109 S205 T0
G28 ; home all axes
G92 E0
G1 E-6.0000 F6600
G1 Z0.425 F1200
; layer 1, Z = 0.125
T0
; tool H0.500 W0.800
; raft
G1 X0.000 Y5.561 F9000
G1 Z0.125 F1200
G1 E0.0000 F1980
G92 E0
G1 X-15.312 Y18.315 E3.8631 F300
G1 X-34.689 Y4.182 E8.5123
G1 X-37.816 Y-0.211 E9.5576
G1 X-39.590 Y-6.015 E10.7342
G1 X-39.953 Y-8.338 E11.1900
G1 X-40.208 Y-26.880 E14.7846
G1 X-17.482 Y-34.699 E19.4435
G1 X-5.603 Y-19.040 E23.2536
G1 X-4.733 Y-17.619 E23.5767
G1 X0.000 Y-7.780 E25.6931
G1 X4.734 Y-17.619 E27.8097
G1 X5.603 Y-19.041 E28.1328
G1 X17.803 Y-35.119 E32.0453
G1 X41.169 Y-25.990 E36.9083
G1 X38.912 Y-2.509 E41.4810
G1 X35.386 Y3.674 E42.8607
G1 X15.312 Y18.315 E47.6772
G1 X0.000 Y5.561 E51.5403
G1 X0.062 Y4.571 F9000
G92 E0
G1 X32.798 Y4.571 E6.3458 F300
G1 X29.664 Y6.857 E7.0977
G1 X2.806 Y6.857 E12.3041
G1 X5.550 Y9.143 E12.9964
G1 X26.530 Y9.143 E17.0634
G1 X23.397 Y11.429 E17.8153
G1 X8.294 Y11.429 E20.7429
G1 X11.038 Y13.714 E21.4352
G1 X20.263 Y13.714 E23.2233
G1 X17.129 Y16.000 E23.9752
G1 X13.782 Y16.000 E24.6240
G1 X0.444 Y-6.857 F9000
G92 E0
G1 X38.526 Y-6.857 E7.3822 F300
G1 X38.746 Y-9.143 E7.8274
G1 X1.543 Y-9.143 E15.0390
G1 X2.643 Y-11.429 E15.5307
G1 X38.966 Y-11.429 E22.5718
G1 X39.185 Y-13.714 E23.0169
G1 X3.743 Y-13.714 E29.8875
G1 X4.843 Y-16.000 E30.3792
G1 X39.405 Y-16.000 E37.0791
G1 X39.625 Y-18.286 E37.5242
G1 X6.079 Y-18.286 E44.0271
G1 X6.265 Y-18.590 E44.0962
G1 X7.769 Y-20.571 E44.5784
G1 X39.845 Y-20.571 E50.7964
G1 X40.065 Y-22.857 E51.2415
G1 X9.503 Y-22.857 E57.1659
G1 X11.237 Y-25.143 E57.7221
G1 X40.284 Y-25.143 E63.3528
G1 X40.315 Y-25.465 E63.4155
G1 X35.289 Y-27.429 E64.4616
G1 X12.972 Y-27.429 E68.7878
G1 X14.706 Y-29.714 E69.3440
G1 X29.439 Y-29.714 E72.2000
G1 X23.589 Y-32.000 E73.4175
G1 X16.440 Y-32.000 E74.8032
G1 X-22.869 Y-32.000 F9000
G92 E0
G1 X-16.438 Y-32.000 E1.2465 F300
G1 X-14.704 Y-29.714 E1.8027
G1 X-29.512 Y-29.714 E4.6732
G1 X-36.155 Y-27.429 E6.0351
G1 X-12.970 Y-27.429 E10.5295
G1 X-11.236 Y-25.143 E11.0856
G1 X-39.384 Y-25.143 E16.5420
G1 X-39.353 Y-22.857 E16.9852
G1 X-9.502 Y-22.857 E22.7716
G1 X-7.768 Y-20.571 E23.3278
G1 X-39.321 Y-20.571 E29.4443
G1 X-39.290 Y-18.286 E29.8874
G1 X-6.079 Y-18.286 E36.3253
G1 X-5.437 Y-17.236 E36.5639
G1 X-4.843 Y-16.000 E36.8297
G1 X-39.258 Y-16.000 E43.5012
G1 X-39.227 Y-13.714 E43.9443
G1 X-3.743 Y-13.714 E50.8229
G1 X-2.643 Y-11.429 E51.3146
G1 X-39.195 Y-11.429 E58.4002
G1 X-39.164 Y-9.143 E58.8433
G1 X-1.543 Y-9.143 E66.1360
G1 X-0.444 Y-6.857 E66.6277
G1 X-38.912 Y-6.857 E74.0847
G1 X-38.808 Y-6.195 E74.2146
G1 X-38.312 Y-4.571 E74.5437
G1 X38.306 Y-4.571 E89.3961
G1 X38.132 Y-2.756 E89.7495
G1 X37.863 Y-2.286 E89.8546
G1 X-37.613 Y-2.286 E104.4857
G1 X-37.089 Y-0.569 E104.8337
G1 X-36.684 Y0.000 E104.9691
G1 X36.560 Y0.000 E119.1674
G1 X35.257 Y2.286 E119.6774
G1 X-35.057 Y2.286 E133.3076
G1 X-34.113 Y3.612 E133.6233
G1 X-32.798 Y4.571 E133.9388
G1 X-0.062 Y4.571 E140.2846
G1 X-2.806 Y6.857 E140.9769
G1 X-29.664 Y6.857 E146.1833
G1 X-26.530 Y9.143 E146.9352
G1 X-5.550 Y9.143 E151.0022
G1 X-8.294 Y11.429 E151.6945
G1 X-23.397 Y11.429 E154.6220
G1 X-20.263 Y13.714 E155.3739
G1 X-11.038 Y13.714 E157.1621
G1 X-13.782 Y16.000 E157.8544
G1 X-17.129 Y16.000 E158.5031
G92 E0
G1 E-6.0000 F6600
G1 Z0.925 F1200
; layer 2, Z = 0.625
M106 S255
; raft
G1 X-15.312 Y18.315 F9000
G1 Z0.625 F1200
G1 E0.0000 F6600
G92 E0
G1 X-34.689 Y4.182 E4.6492 F750
G1 X-37.816 Y-0.211 E5.6945
G1 X-39.590 Y-6.015 E6.8711
G1 X-39.953 Y-8.338 E7.3268
G1 X-40.208 Y-26.880 E10.9215
G1 X-17.482 Y-34.699 E15.5804
G1 X-5.603 Y-19.040 E19.3905
G1 X-4.733 Y-17.619 E19.7136
G1 X0.000 Y-7.780 E21.8300
G1 X4.734 Y-17.619 E23.9466
G1 X5.603 Y-19.041 E24.2697
G1 X17.803 Y-35.119 E28.1822
G1 X41.169 Y-25.990 E33.0452
G1 X38.912 Y-2.509 E37.6179
G1 X35.386 Y3.674 E38.9976
G1 X15.312 Y18.315 E43.8141
G1 X0.000 Y5.561 E47.6772
G1 X-15.312 Y18.315 E51.5403
G1 X-17.129 Y16.000 F9000
G92 E0
G1 X-13.782 Y16.000 E0.6488 F750
G1 X-11.038 Y13.714 E1.3411
G1 X-20.263 Y13.714 E3.1292
G1 X-23.397 Y11.429 E3.8811
G1 X-8.294 Y11.429 E6.8087
G1 X-5.550 Y9.143 E7.5010
G1 X-26.530 Y9.143 E11.5680
G1 X-29.664 Y6.857 E12.3199
G1 X-2.806 Y6.857 E17.5263
G1 X-0.062 Y4.571 E18.2186
G1 X-32.798 Y4.571 E24.5644
G1 X-34.113 Y3.612 E24.8798
G1 X-35.057 Y2.286 E25.1955
G1 X35.257 Y2.286 E38.8257
G1 X36.560 Y0.000 E39.3358
G1 X-36.684 Y0.000 E53.5341
G1 X-37.089 Y-0.569 E53.6694
G1 X-37.613 Y-2.286 E54.0174
G1 X37.863 Y-2.286 E68.6485
G1 X38.132 Y-2.756 E68.7536
G1 X38.306 Y-4.571 E69.1071
G1 X-38.312 Y-4.571 E83.9594
G1 X-38.808 Y-6.195 E84.2885
G1 X-38.912 Y-6.857 E84.4184
G1 X-0.444 Y-6.857 E91.8754
G1 X-1.543 Y-9.143 E92.3671
G1 X-39.164 Y-9.143 E99.6598
G1 X-39.195 Y-11.429 E100.1030
G1 X-2.643 Y-11.429 E107.1886
G1 X-3.743 Y-13.714 E107.6803
G1 X-39.227 Y-13.714 E114.5589
G1 X-39.258 Y-16.000 E115.0020
G1 X-4.843 Y-16.000 E121.6735
G1 X-5.437 Y-17.236 E121.9393
G1 X-6.079 Y-18.286 E122.1779
G1 X-39.290 Y-18.286 E128.6157
G1 X-39.321 Y-20.571 E129.0589
G1 X-7.768 Y-20.571 E135.1754
G1 X-9.502 Y-22.857 E135.7315
G1 X-39.353 Y-22.857 E141.5180
G1 X-39.384 Y-25.143 E141.9611
G1 X-11.236 Y-25.143 E147.4175
G1 X-12.970 Y-27.429 E147.9737
G1 X-36.155 Y-27.429 E152.4681
G1 X-29.512 Y-29.714 E153.8300
G1 X-14.704 Y-29.714 E156.7005
G1 X-16.438 Y-32.000 E157.2566
G1 X-22.869 Y-32.000 E158.5031
G1 X0.444 Y-6.857 F9000
G92 E0
G1 X38.526 Y-6.857 E7.3822 F750
G1 X38.746 Y-9.143 E7.8274
G1 X1.543 Y-9.143 E15.0390
G1 X2.643 Y-11.429 E15.5307
G1 X38.966 Y-11.429 E22.5718
G1 X39.185 Y-13.714 E23.0169
G1 X3.743 Y-13.714 E29.8875
G1 X4.843 Y-16.000 E30.3792
G1 X39.405 Y-16.000 E37.0791
G1 X39.625 Y-18.286 E37.5242
G1 X6.079 Y-18.286 E44.0271
G1 X6.265 Y-18.590 E44.0962
G1 X7.769 Y-20.571 E44.5784
G1 X39.845 Y-20.571 E50.7964
G1 X40.065 Y-22.857 E51.2415
G1 X9.503 Y-22.857 E57.1659
G1 X11.237 Y-25.143 E57.7221
G1 X40.284 Y-25.143 E63.3528
G1 X40.315 Y-25.465 E63.4155
G1 X35.289 Y-27.429 E64.4616
G1 X12.972 Y-27.429 E68.7878
G1 X14.706 Y-29.714 E69.3440
G1 X29.439 Y-29.714 E72.2000
G1 X23.589 Y-32.000 E73.4175
G1 X16.440 Y-32.000 E74.8032
G1 X0.062 Y4.571 F9000
G92 E0
G1 X32.798 Y4.571 E6.3458 F750
G1 X29.664 Y6.857 E7.0977
G1 X2.806 Y6.857 E12.3041
G1 X5.550 Y9.143 E12.9964
G1 X26.530 Y9.143 E17.0634
G1 X23.397 Y11.429 E17.8153
G1 X8.294 Y11.429 E20.7429
G1 X11.038 Y13.714 E21.4352
G1 X20.263 Y13.714 E23.2233
G1 X17.129 Y16.000 E23.9752
G1 X13.782 Y16.000 E24.6240
G92 E0
G1 E-6.0000 F6600
G1 Z1.301 F1200
; layer 3, Z = 1.00147
; tool H0.376 W0.640
; raft
G1 X40.960 Y-26.158 F9000
G1 Z1.001 F1200
G1 E0.0000 F6600
G92 E0
G1 X40.960 Y-22.976 E0.3715 F1500
G1 X39.680 Y-9.664 E1.9330
G1 X39.680 Y-26.658 E3.9172
G1 X38.400 Y-27.158 E4.0777
G1 X38.400 Y-1.450 E7.0794
G1 X37.120 Y0.794 E7.3812
G1 X37.120 Y-27.658 E10.7034
G1 X35.840 Y-28.158 E10.8639
G1 X35.840 Y3.039 E14.5066
G1 X35.447 Y3.728 E14.5993
G1 X34.560 Y4.375 E14.7274
G1 X34.560 Y-28.658 E18.5846
G1 X33.280 Y-29.158 E18.7451
G1 X33.280 Y5.309 E22.7697
G1 X32.000 Y6.243 E22.9547
G1 X32.000 Y-29.658 E27.1467
G1 X30.720 Y-30.158 E27.3071
G1 X30.720 Y7.176 E31.6665
G1 X29.440 Y8.110 E31.8515
G1 X29.440 Y-30.659 E36.3783
G1 X28.160 Y-31.159 E36.5388
G1 X28.160 Y9.043 E41.2330
G1 X26.880 Y9.977 E41.4180
G1 X26.880 Y-31.659 E46.2797
G1 X25.600 Y-32.159 E46.4401
G1 X25.600 Y10.911 E51.4692
G1 X24.320 Y11.844 E51.6542
G1 X24.320 Y-32.659 E56.8506
G1 X23.040 Y-33.159 E57.0111
G1 X23.040 Y12.778 E62.3750
G1 X21.760 Y13.711 E62.5600
G1 X21.760 Y-33.659 E68.0913
G1 X20.480 Y-34.159 E68.2517
G1 X20.480 Y14.645 E73.9504
G1 X19.200 Y15.579 E74.1354
G1 X19.200 Y-34.660 E80.0015
G1 X17.920 Y-35.160 E80.1620
G1 X17.920 Y16.512 E86.1955
G1 X16.640 Y17.446 E86.3805
G1 X16.640 Y-33.719 E92.3548
G1 X15.360 Y-32.032 E92.6021
G1 X15.360 Y18.380 E98.4885
G1 X15.309 Y18.417 E98.4959
G1 X14.080 Y17.393 E98.6826
G1 X14.080 Y-30.345 E104.2568
G1 X12.800 Y-28.658 E104.5041
G1 X12.800 Y16.327 E109.7569
G1 X11.520 Y15.261 E109.9514
G1 X11.520 Y-26.971 E114.8827
G1 X10.240 Y-25.284 E115.1299
G1 X10.240 Y14.195 E119.7397
G1 X8.960 Y13.128 E119.9342
G1 X8.960 Y-23.598 E124.2226
G1 X7.680 Y-21.911 E124.4699
G1 X7.680 Y12.062 E128.4367
G1 X6.400 Y10.996 E128.6312
G1 X6.400 Y-20.224 E132.2766
G1 X5.537 Y-19.086 E132.4433
G1 X5.120 Y-18.404 E132.5367
G1 X5.120 Y9.930 E135.8452
G1 X3.840 Y8.864 E136.0397
G1 X3.840 Y-15.946 E138.9366
G1 X2.560 Y-13.286 E139.2814
G1 X2.560 Y7.797 E141.7431
G1 X1.280 Y6.731 E141.9377
G1 X1.280 Y-10.625 E143.9643
G1 X0.000 Y-7.965 E144.3090
G1 X0.000 Y5.665 E145.9005
G1 X-1.280 Y6.731 E146.0950
G1 X-1.280 Y-10.625 E148.1216
G1 X-2.560 Y-13.285 E148.4664
G1 X-2.560 Y7.797 E150.9281
G1 X-3.840 Y8.864 E151.1226
G1 X-3.840 Y-15.946 E154.0196
G1 X-4.663 Y-17.657 E154.2413
G1 X-5.120 Y-18.404 E154.3435
G1 X-5.120 Y9.930 E157.6520
G1 X-6.400 Y10.996 E157.8465
G1 X-6.400 Y-20.224 E161.4919
G1 X-7.680 Y-21.911 E161.7392
G1 X-7.680 Y12.062 E165.7061
G1 X-8.960 Y13.128 E165.9006
G1 X-8.960 Y-23.598 E170.1890
G1 X-10.240 Y-25.285 E170.4363
G1 X-10.240 Y14.195 E175.0462
G1 X-11.520 Y15.261 E175.2408
G1 X-11.520 Y-26.973 E180.1722
G1 X-12.800 Y-28.660 E180.4195
G1 X-12.800 Y16.327 E185.6724
G1 X-14.080 Y17.393 E185.8669
G1 X-14.080 Y-30.347 E191.4414
G1 X-15.360 Y-32.034 E191.6887
G1 X-15.360 Y18.380 E197.5753
G1 X-16.640 Y17.446 E197.7603
G1 X-16.640 Y-33.722 E203.7349
G1 X-17.453 Y-34.794 E203.8921
G1 X-17.920 Y-34.633 E203.9497
G1 X-17.920 Y16.512 E209.9218
G1 X-19.200 Y15.579 E210.1068
G1 X-19.200 Y-34.193 E215.9184
G1 X-20.480 Y-33.753 E216.0765
G1 X-20.480 Y14.645 E221.7277
G1 X-21.760 Y13.711 E221.9127
G1 X-21.760 Y-33.312 E227.4034
G1 X-23.040 Y-32.872 E227.5615
G1 X-23.040 Y12.778 E232.8918
G1 X-24.320 Y11.844 E233.0768
G1 X-24.320 Y-32.431 E238.2467
G1 X-25.600 Y-31.991 E238.4047
G1 X-25.600 Y10.911 E243.4142
G1 X-26.880 Y9.977 E243.5991
G1 X-26.880 Y-31.551 E248.4481
G1 X-28.160 Y-31.110 E248.6062
G1 X-28.160 Y9.043 E253.2948
G1 X-29.440 Y8.110 E253.4798
G1 X-29.440 Y-30.670 E258.0079
G1 X-30.720 Y-30.229 E258.1659
G1 X-30.720 Y7.176 E262.5336
G1 X-32.000 Y6.243 E262.7186
G1 X-32.000 Y-29.789 E266.9259
G1 X-33.280 Y-29.349 E267.0839
G1 X-33.280 Y5.309 E271.1307
G1 X-34.560 Y4.375 E271.3157
G1 X-34.560 Y-28.908 E275.2021
G1 X-35.840 Y-28.468 E275.3601
G1 X-35.840 Y2.703 E278.9998
G1 X-37.120 Y0.905 E279.2576
G1 X-37.120 Y-28.027 E282.6359
G1 X-38.400 Y-27.587 E282.7939
G1 X-38.400 Y-1.849 E285.7993
G1 X-39.668 Y-5.997 E286.3058
G1 X-39.680 Y-6.075 E286.3151
G1 X-39.680 Y-27.147 E288.7754
G92 E0
G1 E-6.0000 F6600
G1 Z1.524 F1200
; layer 4, Z = 1.22369
; tool H0.222 W0.400
; raft
G1 X-23.444 Y-30.744 F9000
G1 Z1.224 F1200
G1 E0.0000 F6600
G92 E0
G1 X-17.874 Y-32.237 E0.2484 F3000
G1 X-17.566 Y-31.832 E0.2703
G1 X-29.845 Y-28.542 E0.8179
G1 X-36.246 Y-26.340 E1.1095
G1 X-17.259 Y-31.427 E1.9563
G1 X-16.952 Y-31.022 E1.9782
G1 X-38.386 Y-25.279 E2.9341
G1 X-38.379 Y-24.794 E2.9550
G1 X-16.645 Y-30.618 E3.9243
G1 X-16.338 Y-30.213 E3.9461
