; G-Code generated by Simplify3D(R) Version 3.1.0
; Jul 26, 2016 at 1:58:13 AM
; Settings Summary
;   processName,Process1
;   applyToModels,oddish_body
;   profileName,Rostock MAX v2 (modified)
;   profileVersion,2015-05-01 08:00:00
;   baseProfile,
;   printMaterial,PLA
;   printQuality,Medium
;   printExtruders,
;   extruderName,Primary Extruder
;   extruderToolheadNumber,0
;   extruderDiameter,0.4
;   extruderAutoWidth,1
;   extruderWidth,0.48
;   extrusionMultiplier,1.1
;   extruderUseRetract,1
;   extruderRetractionDistance,6
;   extruderExtraRestartDistance,0
;   extruderRetractionZLift,0.3
;   extruderRetractionSpeed,6600
;   extruderUseCoasting,0
;   extruderCoastingDistance,1
;   extruderUseWipe,1
;   extruderWipeDistance,5
;   primaryExtruder,0
;   layerHeight,0.2
;   topSolidLayers,3
;   bottomSolidLayers,3
;   perimeterOutlines,3
;   printPerimetersInsideOut,1
;   startPointOption,2
;   startPointOriginX,0
;   startPointOriginY,0
;   startPointOriginZ,300
;   sequentialIslands,0
;   spiralVaseMode,0
;   firstLayerHeightPercentage,25
;   firstLayerWidthPercentage,100
;   firstLayerUnderspeed,0.4
;   useRaft,1
;   raftExtruder,0
;   raftLayers,3
;   raftOffset,3
;   raftSeparationDistance,0.14
;   raftInfill,85
;   disableRaftBaseLayers,0
;   useSkirt,1
;   skirtExtruder,0
;   skirtLayers,1
;   skirtOutlines,3
;   skirtOffset,5
;   usePrimePillar,0
;   primePillarExtruder,999
;   primePillarWidth,12
;   primePillarLocation,7
;   primePillarSpeedMultiplier,1
;   useOozeShield,0
;   oozeShieldExtruder,999
;   oozeShieldOffset,2
;   oozeShieldOutlines,1
;   oozeShieldSidewallShape,1
;   oozeShieldSidewallAngle,30
;   oozeShieldSpeedMultiplier,1
;   infillExtruder,0
;   internalInfillPattern,Rectilinear
;   externalInfillPattern,Rectilinear
;   infillPercentage,100
;   outlineOverlapPercentage,25
;   infillExtrusionWidthPercentage,150
;   minInfillLength,5
;   infillLayerInterval,1
;   infillAngles,45,-45
;   overlapInfillAngles,0
;   generateSupport,1
;   supportExtruder,0
;   supportInfillPercentage,30
;   supportExtraInflation,0
;   denseSupportLayers,0
;   denseSupportInfillPercentage,70
;   supportLayerInterval,1
;   supportHorizontalPartOffset,0.3
;   supportUpperSeparationLayers,1
;   supportLowerSeparationLayers,1
;   supportType,1
;   supportGridSpacing,4
;   maxOverhangAngle,45
;   supportAngles,0
;   temperatureName,Primary Extruder,Heated Bed
;   temperatureNumber,0,1
;   temperatureSetpointCount,1,1
;   temperatureSetpointLayers,1,1
;   temperatureSetpointTemperatures,205,60
;   temperatureStabilizeAtStartup,1,1
;   temperatureHeatedBed,0,1
;   temperatureRelayBetweenLayers,0,0
;   temperatureRelayBetweenLoops,0,0
;   fanLayers,1,2
;   fanSpeeds,0,100
;   blipFanToFullPower,1
;   adjustSpeedForCooling,1
;   minSpeedLayerTime,15
;   minCoolingSpeedSlowdown,20
;   increaseFanForCooling,0
;   minFanLayerTime,60
;   maxCoolingFanSpeed,100
;   increaseFanForBridging,0
;   bridgingFanSpeed,100
;   use5D,1
;   relativeEdistances,0
;   allowEaxisZeroing,1
;   independentExtruderAxes,0
;   includeM10123,0
;   stickySupport,1
;   applyToolheadOffsets,0
;   gcodeXoffset,0
;   gcodeYoffset,0
;   gcodeZoffset,0
;   overrideMachineDefinition,1
;   machineTypeOverride,1
;   strokeXoverride,197
;   strokeYoverride,197
;   strokeZoverride,375
;   originOffsetXoverride,98.5
;   originOffsetYoverride,98.5
;   originOffsetZoverride,0
;   homeXdirOverride,0
;   homeYdirOverride,0
;   homeZdirOverride,1
;   flipXoverride,1
;   flipYoverride,-1
;   flipZoverride,1
;   toolheadOffsets,0,0|0,0|0,0|0,0|0,0|0,0
;   overrideFirmwareConfiguration,1
;   firmwareTypeOverride,RepRap (Marlin/Repetier/Sprinter)
;   GPXconfigOverride,r2
;   baudRateOverride,115200
;   overridePrinterModels,1
;   printerModelsOverride
;   startingGcode,G28 ; home all axes
;   layerChangeGcode,
;   retractionGcode,
;   toolChangeGcode,
;   endingGcode,M104 S0 ; turn off extruder,M140 S0 ; turn off bed,G28 ; home axes,M84 ; disable motors
;   exportFileFormat,gcode
;   celebration,0
;   celebrationSong,Random Song
;   postProcessing,
;   defaultSpeed,750
;   outlineUnderspeed,0.5
;   solidInfillUnderspeed,0.8
;   supportUnderspeed,0.8
;   rapidXYspeed,9000
;   rapidZspeed,1200
;   minBridgingArea,50
;   bridgingExtraInflation,0
;   bridgingExtrusionMultiplier,0.95
;   bridgingSpeedMultiplier,0.7
;   filamentDiameter,1.7
;   filamentPricePerKg,33.98
;   filamentDensity,1.25
;   useMinPrintHeight,0
;   minPrintHeight,0
;   useMaxPrintHeight,0
;   maxPrintHeight,0
;   useDiaphragm,0
;   diaphragmLayerInterval,20
;   robustSlicing,1
;   mergeAllIntoSolid,0
;   onlyRetractWhenCrossingOutline,1
;   retractBetweenLayers,1
;   useRetractionMinTravel,0
;   retractionMinTravel,3
;   retractWhileWiping,0
;   onlyWipeOutlines,1
;   avoidCrossingOutline,1
;   maxMovementDetourFactor,1
;   toolChangeRetractionDistance,12
;   toolChangeExtraRestartDistance,-0.5
;   toolChangeRetractionSpeed,600
;   allowThinWallGapFill,0
;   thinWallAllowedOverlapPercentage,10
;   horizontalSizeCompensation,0
G90
M82
M106 S0
M140 S60
M190 S60
M104 S205 T0
M109 S205 T0
G28 ; home all axes
G92 E0
G1 E-6.0000 F6600
G1 Z0.425 F1200
; layer 1, Z = 0.125
T0
; tool H0.500 W0.480
; skirt
G1 X-12.475 Y-43.442 F9000
G1 Z0.125 F1200
G1 E0.0000 F1980
G92 E0
G1 X-10.699 Y-45.218 E0.2921 F300
G1 X-10.502 Y-45.350 E0.3196
G1 X-8.446 Y-46.201 E0.5785
G1 X-8.214 Y-46.248 E0.6059
G1 X8.219 Y-46.248 E2.5173
G1 X8.451 Y-46.201 E2.5448
G1 X10.507 Y-45.350 E2.8036
G1 X10.703 Y-45.218 E2.8311
G1 X12.480 Y-43.441 E3.1234
G1 X16.485 Y-42.428 E3.6039
G1 X16.830 Y-42.501 E3.6449
G1 X16.852 Y-42.501 E3.6475
G1 X16.925 Y-42.517 E3.6562
G1 X16.947 Y-42.518 E3.6587
G1 X17.022 Y-42.534 E3.6676
G1 X17.236 Y-42.540 E3.6926
G1 X19.230 Y-42.244 E3.9270
G1 X19.433 Y-42.175 E3.9520
G1 X19.620 Y-42.072 E3.9768
G1 X20.306 Y-41.937 E4.0582
G1 X20.481 Y-41.873 E4.0798
G1 X21.117 Y-41.522 E4.1642
G1 X21.322 Y-41.462 E4.1891
G1 X21.442 Y-41.412 E4.2042
G1 X21.529 Y-41.363 E4.2159
G1 X21.734 Y-41.303 E4.2407
G1 X21.854 Y-41.253 E4.2558
G1 X26.178 Y-38.868 E4.8301
G1 X26.287 Y-38.791 E4.8457
G1 X26.439 Y-38.655 E4.8694
G1 X26.510 Y-38.616 E4.8788
G1 X26.620 Y-38.538 E4.8945
G1 X26.771 Y-38.403 E4.9180
G1 X27.405 Y-38.054 E5.0022
G1 X27.554 Y-37.939 E5.0241
G1 X28.024 Y-37.438 E5.1040
G1 X28.208 Y-37.337 E5.1283
G1 X28.375 Y-37.201 E5.1534
G1 X29.694 Y-35.660 E5.3894
G1 X29.803 Y-35.474 E5.4145
G1 X29.830 Y-35.400 E5.4236
G1 X29.834 Y-35.394 E5.4244
G1 X29.867 Y-35.302 E5.4359
G1 X29.871 Y-35.295 E5.4367
G1 X29.884 Y-35.261 E5.4409
G1 X30.199 Y-34.867 E5.4996
G1 X30.307 Y-34.656 E5.5272
G1 X30.361 Y-34.470 E5.5497
G1 X40.161 Y-25.279 E7.1125
G1 X40.217 Y-25.219 E7.1219
G1 X40.694 Y-24.632 E7.2100
G1 X40.741 Y-24.566 E7.2194
G1 X41.842 Y-22.760 E7.4654
G1 X41.879 Y-22.688 E7.4748
G1 X42.183 Y-21.994 E7.5629
G1 X42.210 Y-21.918 E7.5723
G1 X47.697 Y-2.658 E9.9016
G1 X47.714 Y-2.578 E9.9111
G1 X47.821 Y-1.821 E10.0001
G1 X47.827 Y-1.739 E10.0096
G1 X47.837 Y0.399 E10.2582
G1 X47.832 Y0.480 E10.2677
G1 X47.732 Y1.239 E10.3567
G1 X47.715 Y1.319 E10.3662
G1 X42.253 Y21.202 E12.7645
G1 X42.227 Y21.277 E12.7737
G1 X41.936 Y21.963 E12.8603
G1 X41.900 Y22.034 E12.8696
G1 X40.842 Y23.825 E13.1116
G1 X40.797 Y23.890 E13.1208
G1 X40.336 Y24.476 E13.2074
G1 X40.283 Y24.535 E13.2167
G1 X25.400 Y39.011 E15.6315
G1 X25.341 Y39.061 E15.6405
G1 X24.761 Y39.495 E15.7248
G1 X24.696 Y39.537 E15.7338
G1 X22.934 Y40.531 E15.9691
G1 X22.864 Y40.564 E15.9781
G1 X22.192 Y40.835 E16.0624
G1 X22.119 Y40.860 E16.0714
G1 X1.858 Y46.137 E18.5065
G1 X1.783 Y46.152 E18.5154
G1 X1.075 Y46.243 E18.5985
G1 X0.998 Y46.247 E18.6074
G1 X-0.997 Y46.247 E18.8395
G1 X-1.074 Y46.243 E18.8484
G1 X-1.782 Y46.152 E18.9315
G1 X-1.857 Y46.137 E18.9404
G1 X-22.118 Y40.860 E21.3755
G1 X-22.191 Y40.835 E21.3845
G1 X-22.863 Y40.564 E21.4687
G1 X-22.933 Y40.530 E21.4778
G1 X-24.695 Y39.537 E21.7131
G1 X-24.760 Y39.495 E21.7221
G1 X-25.340 Y39.061 E21.8064
G1 X-25.399 Y39.011 E21.8154
G1 X-40.282 Y24.535 E24.2301
G1 X-40.335 Y24.476 E24.2394
G1 X-40.796 Y23.891 E24.3260
G1 X-40.841 Y23.825 E24.3353
G1 X-41.899 Y22.034 E24.5772
G1 X-41.935 Y21.963 E24.5865
G1 X-42.225 Y21.277 E24.6731
G1 X-42.252 Y21.202 E24.6823
G1 X-47.715 Y1.319 E27.0806
G1 X-47.732 Y1.239 E27.0901
G1 X-47.832 Y0.481 E27.1791
G1 X-47.837 Y0.399 E27.1887
G1 X-47.827 Y-1.739 E27.4373
G1 X-47.821 Y-1.821 E27.4469
G1 X-47.714 Y-2.578 E27.5358
G1 X-47.697 Y-2.658 E27.5454
G1 X-42.209 Y-21.919 E29.8747
G1 X-42.182 Y-21.995 E29.8841
G1 X-41.878 Y-22.688 E29.9721
G1 X-41.841 Y-22.760 E29.9816
G1 X-40.740 Y-24.566 E30.2275
G1 X-40.693 Y-24.632 E30.2370
G1 X-40.216 Y-25.219 E30.3250
G1 X-40.160 Y-25.279 E30.3344
G1 X-29.222 Y-35.537 E32.0786
G1 X-28.964 Y-36.237 E32.1653
G1 X-28.943 Y-36.271 E32.1700
G1 X-28.931 Y-36.305 E32.1742
G1 X-28.910 Y-36.337 E32.1787
G1 X-28.898 Y-36.371 E32.1829
G1 X-28.768 Y-36.580 E32.2115
G1 X-27.173 Y-38.256 E32.4806
G1 X-26.971 Y-38.396 E32.5092
G1 X-26.623 Y-38.544 E32.5531
G1 X-26.598 Y-38.568 E32.5571
G1 X-26.565 Y-38.589 E32.5617
G1 X-26.476 Y-38.673 E32.5760
G1 X-26.442 Y-38.695 E32.5807
G1 X-26.354 Y-38.777 E32.5947
G1 X-26.319 Y-38.800 E32.5995
G1 X-26.230 Y-38.883 E32.6137
G1 X-26.054 Y-38.998 E32.6382
G1 X-25.004 Y-39.445 E32.7709
G1 X-24.623 Y-39.721 E32.8256
G1 X-24.559 Y-39.761 E32.8344
G1 X-22.823 Y-40.711 E33.0645
G1 X-22.755 Y-40.743 E33.0733
G1 X-22.095 Y-41.002 E33.1557
G1 X-22.023 Y-41.025 E33.1645
G1 X-20.516 Y-41.407 E33.3453
G1 X-19.935 Y-41.654 E33.4188
G1 X-19.837 Y-41.686 E33.4308
G1 X-18.897 Y-41.906 E33.5430
G1 X-18.885 Y-41.908 E33.5445
G1 X-18.339 Y-42.093 E33.6115
G1 X-18.202 Y-42.122 E33.6278
G1 X-17.390 Y-42.198 E33.7227
G1 X-12.475 Y-43.442 E34.3124
G1 X-12.229 Y-43.010 F9000
G92 E0
G1 X-10.393 Y-44.846 E0.3020 F300
G1 X-10.275 Y-44.924 E0.3185
G1 X-8.306 Y-45.740 E0.5663
G1 X-8.167 Y-45.767 E0.5828
G1 X8.172 Y-45.767 E2.4832
G1 X8.311 Y-45.740 E2.4997
G1 X10.279 Y-44.924 E2.7475
G1 X10.397 Y-44.846 E2.7640
G1 X12.234 Y-43.008 E3.0662
G1 X16.475 Y-41.935 E3.5750
G1 X16.887 Y-42.022 E3.6240
G1 X16.909 Y-42.023 E3.6266
G1 X16.983 Y-42.039 E3.6353
G1 X17.004 Y-42.039 E3.6378
G1 X17.079 Y-42.055 E3.6467
G1 X17.208 Y-42.059 E3.6617
G1 X19.117 Y-41.775 E3.8862
G1 X19.239 Y-41.734 E3.9012
G1 X19.454 Y-41.616 E3.9297
G1 X20.177 Y-41.473 E4.0154
G1 X20.282 Y-41.435 E4.0284
G1 X20.931 Y-41.077 E4.1146
G1 X21.161 Y-41.009 E4.1425
G1 X21.233 Y-40.979 E4.1516
G1 X21.343 Y-40.918 E4.1663
G1 X21.573 Y-40.850 E4.1941
G1 X21.645 Y-40.820 E4.2032
G1 X25.922 Y-38.461 E4.7713
G1 X25.988 Y-38.414 E4.7807
G1 X26.160 Y-38.261 E4.8075
G1 X26.255 Y-38.209 E4.8201
G1 X26.321 Y-38.162 E4.8295
G1 X26.492 Y-38.009 E4.8562
G1 X27.141 Y-37.651 E4.9423
G1 X27.230 Y-37.582 E4.9554
G1 X27.726 Y-37.054 E5.0398
G1 X27.938 Y-36.937 E5.0679
G1 X28.038 Y-36.856 E5.0829
G1 X29.302 Y-35.381 E5.3088
G1 X29.367 Y-35.269 E5.3239
G1 X29.394 Y-35.195 E5.3331
G1 X29.398 Y-35.189 E5.3339
G1 X29.431 Y-35.097 E5.3453
G1 X29.435 Y-35.091 E5.3461
G1 X29.457 Y-35.031 E5.3535
G1 X29.466 Y-35.016 E5.3556
G1 X29.794 Y-34.604 E5.4168
G1 X29.859 Y-34.478 E5.4333
G1 X29.936 Y-34.210 E5.4657
G1 X39.821 Y-24.940 E7.0420
G1 X39.854 Y-24.904 E7.0476
G1 X40.311 Y-24.342 E7.1319
G1 X40.339 Y-24.302 E7.1375
G1 X41.424 Y-22.524 E7.3798
G1 X41.446 Y-22.480 E7.3854
G1 X41.737 Y-21.817 E7.4697
G1 X41.753 Y-21.771 E7.4754
G1 X47.231 Y-2.542 E9.8008
G1 X47.241 Y-2.494 E9.8065
G1 X47.344 Y-1.769 E9.8917
G1 X47.347 Y-1.720 E9.8974
G1 X47.357 Y0.385 E10.1422
G1 X47.354 Y0.434 E10.1480
G1 X47.258 Y1.160 E10.2331
G1 X47.248 Y1.208 E10.2388
G1 X41.794 Y21.059 E12.6333
G1 X41.778 Y21.104 E12.6389
G1 X41.500 Y21.761 E12.7218
G1 X41.479 Y21.803 E12.7273
G1 X40.437 Y23.567 E12.9656
G1 X40.410 Y23.606 E12.9712
G1 X39.969 Y24.166 E13.0541
G1 X39.937 Y24.202 E13.0596
G1 X25.077 Y38.656 E15.4707
G1 X25.041 Y38.686 E15.4761
G1 X24.486 Y39.101 E15.5568
G1 X24.447 Y39.127 E15.5622
G1 X22.712 Y40.105 E15.7939
G1 X22.670 Y40.125 E15.7993
G1 X22.027 Y40.385 E15.8800
G1 X21.983 Y40.399 E15.8854
G1 X1.752 Y45.669 E18.3169
G1 X1.707 Y45.678 E18.3223
G1 X1.029 Y45.765 E18.4018
G1 X0.983 Y45.767 E18.4071
G1 X-0.982 Y45.767 E18.6357
G1 X-1.028 Y45.765 E18.6410
G1 X-1.706 Y45.678 E18.7205
G1 X-1.751 Y45.669 E18.7259
G1 X-21.982 Y40.399 E21.1574
G1 X-22.026 Y40.385 E21.1628
G1 X-22.669 Y40.125 E21.2434
G1 X-22.711 Y40.105 E21.2489
G1 X-24.446 Y39.127 E21.4806
G1 X-24.485 Y39.101 E21.4860
G1 X-25.040 Y38.686 E21.5666
G1 X-25.076 Y38.656 E21.5720
G1 X-39.936 Y24.202 E23.9831
G1 X-39.968 Y24.166 E23.9887
G1 X-40.408 Y23.606 E24.0716
G1 X-40.435 Y23.567 E24.0771
G1 X-41.478 Y21.804 E24.3154
G1 X-41.499 Y21.761 E24.3209
G1 X-41.777 Y21.105 E24.4038
G1 X-41.793 Y21.060 E24.4094
G1 X-47.248 Y1.208 E26.8039
G1 X-47.258 Y1.160 E26.8096
G1 X-47.354 Y0.434 E26.8948
G1 X-47.357 Y0.385 E26.9005
G1 X-47.347 Y-1.720 E27.1454
G1 X-47.344 Y-1.770 E27.1511
G1 X-47.241 Y-2.495 E27.2363
G1 X-47.231 Y-2.543 E27.2420
G1 X-41.752 Y-21.771 E29.5675
G1 X-41.735 Y-21.817 E29.5732
G1 X-41.445 Y-22.481 E29.6574
G1 X-41.422 Y-22.524 E29.6631
G1 X-40.338 Y-24.302 E29.9053
G1 X-40.310 Y-24.342 E29.9110
G1 X-39.853 Y-24.904 E29.9952
G1 X-39.820 Y-24.940 E30.0009
G1 X-28.811 Y-35.265 E31.7564
G1 X-28.531 Y-36.025 E31.8506
G1 X-28.510 Y-36.059 E31.8553
G1 X-28.497 Y-36.093 E31.8595
G1 X-28.477 Y-36.126 E31.8640
G1 X-28.464 Y-36.160 E31.8682
G1 X-28.386 Y-36.285 E31.8853
G1 X-26.859 Y-37.890 E32.1431
G1 X-26.738 Y-37.974 E32.1602
G1 X-26.357 Y-38.136 E32.2083
G1 X-26.301 Y-38.188 E32.2173
G1 X-26.268 Y-38.210 E32.2219
G1 X-26.178 Y-38.294 E32.2361
G1 X-26.145 Y-38.316 E32.2408
G1 X-26.057 Y-38.398 E32.2548
G1 X-26.022 Y-38.421 E32.2597
G1 X-25.933 Y-38.504 E32.2738
G1 X-25.827 Y-38.573 E32.2885
G1 X-24.766 Y-39.024 E32.4226
G1 X-24.354 Y-39.323 E32.4818
G1 X-24.315 Y-39.347 E32.4871
G1 X-22.606 Y-40.283 E32.7137
G1 X-22.565 Y-40.302 E32.7190
G1 X-21.934 Y-40.550 E32.7979
G1 X-21.891 Y-40.564 E32.8032
G1 X-20.363 Y-40.950 E32.9865
G1 X-19.766 Y-41.204 E33.0619
G1 X-19.707 Y-41.224 E33.0691
G1 X-18.808 Y-41.434 E33.1765
G1 X-18.773 Y-41.439 E33.1806
G1 X-18.212 Y-41.629 E33.2496
G1 X-18.130 Y-41.647 E33.2593
G1 X-17.308 Y-41.724 E33.3553
G1 X-12.229 Y-43.010 E33.9647
G1 X-11.983 Y-42.577 F9000
G92 E0
G1 X-10.087 Y-44.473 E0.3119 F300
G1 X-10.048 Y-44.499 E0.3174
G1 X-8.166 Y-45.278 E0.5542
G1 X-8.120 Y-45.288 E0.5597
G1 X8.124 Y-45.288 E2.4491
G1 X8.171 Y-45.278 E2.4546
G1 X10.052 Y-44.499 E2.6914
G1 X10.091 Y-44.473 E2.6969
G1 X11.989 Y-42.576 E3.0090
G1 X16.466 Y-41.442 E3.5462
G1 X16.945 Y-41.544 E3.6032
G1 X16.967 Y-41.545 E3.6057
G1 X17.040 Y-41.560 E3.6144
G1 X17.062 Y-41.561 E3.6169
G1 X17.137 Y-41.577 E3.6259
G1 X17.180 Y-41.578 E3.6309
G1 X19.004 Y-41.307 E3.8454
G1 X19.045 Y-41.293 E3.8504
G1 X19.288 Y-41.159 E3.8826
G1 X20.047 Y-41.009 E3.9727
G1 X20.082 Y-40.996 E3.9770
G1 X20.745 Y-40.631 E4.0650
G1 X21.000 Y-40.556 E4.0959
G1 X21.024 Y-40.546 E4.0990
G1 X21.157 Y-40.472 E4.1167
G1 X21.412 Y-40.397 E4.1476
G1 X21.436 Y-40.387 E4.1506
G1 X25.667 Y-38.054 E4.7125
G1 X25.689 Y-38.038 E4.7157
G1 X25.881 Y-37.867 E4.7456
G1 X25.999 Y-37.801 E4.7614
G1 X26.021 Y-37.786 E4.7645
G1 X26.213 Y-37.615 E4.7943
G1 X26.876 Y-37.249 E4.8824
G1 X26.906 Y-37.226 E4.8868
G1 X27.428 Y-36.670 E4.9755
G1 X27.669 Y-36.538 E5.0074
G1 X27.702 Y-36.511 E5.0125
G1 X28.909 Y-35.101 E5.2283
G1 X28.931 Y-35.064 E5.2333
G1 X28.958 Y-34.990 E5.2425
G1 X28.962 Y-34.983 E5.2434
G1 X28.995 Y-34.892 E5.2547
G1 X28.999 Y-34.886 E5.2555
G1 X29.020 Y-34.826 E5.2629
G1 X29.038 Y-34.795 E5.2670
G1 X29.048 Y-34.770 E5.2702
G1 X29.389 Y-34.342 E5.3339
G1 X29.411 Y-34.300 E5.3394
G1 X29.511 Y-33.950 E5.3817
G1 X39.481 Y-24.600 E6.9714
G1 X39.492 Y-24.589 E6.9733
G1 X39.929 Y-24.051 E7.0538
G1 X39.938 Y-24.038 E7.0557
G1 X41.005 Y-22.288 E7.2942
G1 X41.013 Y-22.273 E7.2961
G1 X41.290 Y-21.639 E7.3766
G1 X41.296 Y-21.624 E7.3784
G1 X46.765 Y-2.427 E9.7001
G1 X46.768 Y-2.410 E9.7020
G1 X46.866 Y-1.718 E9.7834
G1 X46.867 Y-1.702 E9.7853
G1 X46.877 Y0.370 E10.0263
G1 X46.876 Y0.387 E10.0282
