; G-Code generated by Simplify3D(R) Version 3.1.1
; Dec 23, 2016 at 2:25:01 PM
; Settings Summary
;   processName,Process1
;   applyToModels,WoodCoaster
;   profileName,Rostock MAX v2 (modified)
;   profileVersion,2015-05-01 08:00:00
;   baseProfile,
;   printMaterial,Iron PLA
;   printQuality,Medium
;   printExtruders,
;   extruderName,Primary Extruder
;   extruderToolheadNumber,0
;   extruderDiameter,0.6
;   extruderAutoWidth,1
;   extruderWidth,0.72
;   extrusionMultiplier,1
;   extruderUseRetract,1
;   extruderRetractionDistance,2
;   extruderExtraRestartDistance,-0.2
;   extruderRetractionZLift,0
;   extruderRetractionSpeed,1800
;   extruderUseCoasting,1
;   extruderCoastingDistance,0.5
;   extruderUseWipe,0
;   extruderWipeDistance,5
;   primaryExtruder,0
;   layerHeight,0.3
;   topSolidLayers,3
;   bottomSolidLayers,3
;   perimeterOutlines,3
;   printPerimetersInsideOut,1
;   startPointOption,2
;   startPointOriginX,0
;   startPointOriginY,0
;   startPointOriginZ,300
;   sequentialIslands,0
;   spiralVaseMode,0
;   firstLayerHeightPercentage,25
;   firstLayerWidthPercentage,100
;   firstLayerUnderspeed,0.4
;   useRaft,0
;   raftExtruder,0
;   raftLayers,3
;   raftOffset,15
;   raftSeparationDistance,0.14
;   raftInfill,85
;   disableRaftBaseLayers,0
;   useSkirt,1
;   skirtExtruder,0
;   skirtLayers,1
;   skirtOutlines,2
;   skirtOffset,10
;   usePrimePillar,0
;   primePillarExtruder,999
;   primePillarWidth,12
;   primePillarLocation,7
;   primePillarSpeedMultiplier,1
;   useOozeShield,0
;   oozeShieldExtruder,999
;   oozeShieldOffset,2
;   oozeShieldOutlines,1
;   oozeShieldSidewallShape,1
;   oozeShieldSidewallAngle,30
;   oozeShieldSpeedMultiplier,1
;   infillExtruder,0
;   internalInfillPattern,Fast Honeycomb
;   externalInfillPattern,Rectilinear
;   infillPercentage,20
;   outlineOverlapPercentage,40
;   infillExtrusionWidthPercentage,100
;   minInfillLength,3
;   infillLayerInterval,1
;   infillAngles,0
;   overlapInfillAngles,0
;   generateSupport,1
;   supportExtruder,0
;   supportInfillPercentage,40
;   supportExtraInflation,0
;   denseSupportLayers,0
;   denseSupportInfillPercentage,70
;   supportLayerInterval,1
;   supportHorizontalPartOffset,0.5
;   supportUpperSeparationLayers,1
;   supportLowerSeparationLayers,1
;   supportType,0
;   supportGridSpacing,3
;   maxOverhangAngle,70
;   supportAngles,0
;   temperatureName,Primary Extruder,Heated Bed
;   temperatureNumber,0,1
;   temperatureSetpointCount,1,1
;   temperatureSetpointLayers,1,1
;   temperatureSetpointTemperatures,225,60
;   temperatureStabilizeAtStartup,1,1
;   temperatureHeatedBed,0,1
;   temperatureRelayBetweenLayers,0,0
;   temperatureRelayBetweenLoops,0,0
;   fanLayers,1,2
;   fanSpeeds,0,80
;   blipFanToFullPower,1
;   adjustSpeedForCooling,1
;   minSpeedLayerTime,5
;   minCoolingSpeedSlowdown,80
;   increaseFanForCooling,0
;   minFanLayerTime,60
;   maxCoolingFanSpeed,100
;   increaseFanForBridging,0
;   bridgingFanSpeed,100
;   use5D,1
;   relativeEdistances,0
;   allowEaxisZeroing,1
;   independentExtruderAxes,0
;   includeM10123,0
;   stickySupport,1
;   applyToolheadOffsets,0
;   gcodeXoffset,0
;   gcodeYoffset,0
;   gcodeZoffset,0
;   overrideMachineDefinition,1
;   machineTypeOverride,1
;   strokeXoverride,197
;   strokeYoverride,197
;   strokeZoverride,375
;   originOffsetXoverride,98.5
;   originOffsetYoverride,98.5
;   originOffsetZoverride,0
;   homeXdirOverride,0
;   homeYdirOverride,0
;   homeZdirOverride,1
;   flipXoverride,1
;   flipYoverride,-1
;   flipZoverride,1
;   toolheadOffsets,0,0|0,0|0,0|0,0|0,0|0,0
;   overrideFirmwareConfiguration,1
;   firmwareTypeOverride,RepRap (Marlin/Repetier/Sprinter)
;   GPXconfigOverride,r2
;   baudRateOverride,115200
;   overridePrinterModels,1
;   printerModelsOverride
;   startingGcode,G28 ; home all axes
;   layerChangeGcode,
;   retractionGcode,
;   toolChangeGcode,
;   endingGcode,M104 S0 ; turn off extruder,M140 S0 ; turn off bed,G28 ; home axes,M84 ; disable motors
;   exportFileFormat,gcode
;   celebration,0
;   celebrationSong,Random Song
;   postProcessing,
;   defaultSpeed,1000
;   outlineUnderspeed,0.5
;   solidInfillUnderspeed,0.8
;   supportUnderspeed,0.8
;   rapidXYspeed,9000
;   rapidZspeed,1200
;   minBridgingArea,50
;   bridgingExtraInflation,0
;   bridgingExtrusionMultiplier,0.8
;   bridgingSpeedMultiplier,1.25
;   filamentDiameter,1.75
;   filamentPricePerKg,22
;   filamentDensity,1.25
;   useMinPrintHeight,0
;   minPrintHeight,0.05
;   useMaxPrintHeight,0
;   maxPrintHeight,0
;   useDiaphragm,0
;   diaphragmLayerInterval,20
;   robustSlicing,1
;   mergeAllIntoSolid,0
;   onlyRetractWhenCrossingOutline,0
;   retractBetweenLayers,0
;   useRetractionMinTravel,0
;   retractionMinTravel,3
;   retractWhileWiping,1
;   onlyWipeOutlines,1
;   avoidCrossingOutline,1
;   maxMovementDetourFactor,1.5
;   toolChangeRetractionDistance,12
;   toolChangeExtraRestartDistance,-0.5
;   toolChangeRetractionSpeed,600
;   allowThinWallGapFill,0
;   thinWallAllowedOverlapPercentage,10
;   horizontalSizeCompensation,0
G90
M82
M106 S0
M140 S60
M190 S60
M104 S225 T0
M109 S225 T0
G28 ; home all axes
G92 E0
G1 E-2.0000 F1800
G1 Z0.075 F1200
; layer 1, Z = 0.075
T0
; tool H0.300 W0.720
; skirt
G1 X-42.357 Y43.750 F9000
G1 E-0.2000 F540
G92 E0
G1 X-43.526 Y42.589 E0.1479 F400
G1 X-44.783 Y41.487 E0.2980
G1 X-44.811 Y41.461 E0.3015
G1 X-45.337 Y40.930 E0.3686
G1 X-45.363 Y40.901 E0.3720
G1 X-46.927 Y39.079 E0.5878
G1 X-46.944 Y39.058 E0.5901
G1 X-47.262 Y38.649 E0.6366
G1 X-47.277 Y38.628 E0.6390
G1 X-48.222 Y37.280 E0.7869
G1 X-49.151 Y36.272 E0.9099
G1 X-49.199 Y36.212 E0.9168
G1 X-50.248 Y34.685 E1.0832
G1 X-50.265 Y34.657 E1.0861
G1 X-50.591 Y34.116 E1.1429
G1 X-50.607 Y34.087 E1.1458
G1 X-51.048 Y33.243 E1.2314
G1 X-52.564 Y31.074 E1.4690
G1 X-52.581 Y31.049 E1.4717
G1 X-52.889 Y30.551 E1.5243
G1 X-52.905 Y30.525 E1.5270
G1 X-54.360 Y27.854 E1.8002
G1 X-54.381 Y27.811 E1.8044
G1 X-54.752 Y26.960 E1.8879
G1 X-54.769 Y26.915 E1.8921
G1 X-55.117 Y25.874 E1.9907
G1 X-55.150 Y25.804 E1.9977
G1 X-55.400 Y25.406 E2.0399
G1 X-55.429 Y25.354 E2.0452
G1 X-55.934 Y24.313 E2.1492
G1 X-55.957 Y24.258 E2.1545
G1 X-56.080 Y23.912 E2.1875
G1 X-56.413 Y23.312 E2.2491
G1 X-56.432 Y23.275 E2.2528
G1 X-56.767 Y22.544 E2.3250
G1 X-56.783 Y22.506 E2.3287
G1 X-57.497 Y20.575 E2.5136
G1 X-57.505 Y20.552 E2.5158
G1 X-57.652 Y20.091 E2.5593
G1 X-57.659 Y20.067 E2.5615
G1 X-58.544 Y16.775 E2.8676
G1 X-58.774 Y16.312 E2.9141
G1 X-58.807 Y16.228 E2.9222
G1 X-59.318 Y14.550 E3.0796
G1 X-59.337 Y14.463 E3.0877
G1 X-59.473 Y13.415 E3.1826
G1 X-59.626 Y12.926 E3.2286
G1 X-59.634 Y12.900 E3.2310
G1 X-59.922 Y11.789 E3.3341
G1 X-59.928 Y11.759 E3.3368
G1 X-60.043 Y11.184 E3.3895
G1 X-60.048 Y11.154 E3.3922
G1 X-60.386 Y8.791 E3.6066
G1 X-60.389 Y8.767 E3.6088
G1 X-60.435 Y8.291 E3.6517
G1 X-60.437 Y8.267 E3.6539
G1 X-60.498 Y7.066 E3.7619
G1 X-61.068 Y0.859 E4.3216
G1 X-61.070 Y0.820 E4.3251
G1 X-61.085 Y0.054 E4.3939
G1 X-61.084 Y0.015 E4.3975
G1 X-61.017 Y-1.230 E4.5094
G1 X-61.016 Y-1.239 E4.5102
G1 X-61.003 Y-1.424 E4.5269
G1 X-61.002 Y-1.434 E4.5277
G1 X-60.229 Y-10.096 E5.3087
G1 X-60.224 Y-10.140 E5.3127
G1 X-60.076 Y-10.996 E5.3907
G1 X-60.066 Y-11.039 E5.3947
G1 X-59.916 Y-11.620 E5.4486
G1 X-59.846 Y-12.076 E5.4900
G1 X-59.835 Y-12.126 E5.4945
G1 X-59.592 Y-13.090 E5.5838
G1 X-59.578 Y-13.138 E5.5884
G1 X-59.318 Y-13.869 E5.6581
G1 X-58.698 Y-16.245 E5.8786
G1 X-58.697 Y-16.249 E5.8789
G1 X-58.678 Y-16.320 E5.8855
G1 X-58.677 Y-16.323 E5.8858
G1 X-57.574 Y-20.323 E6.2584
G1 X-57.567 Y-20.346 E6.2606
G1 X-57.421 Y-20.794 E6.3029
G1 X-57.413 Y-20.817 E6.3051
G1 X-56.853 Y-22.311 E6.4483
G1 X-56.849 Y-22.322 E6.4494
G1 X-56.763 Y-22.537 E6.4702
G1 X-56.759 Y-22.548 E6.4713
G1 X-55.953 Y-24.440 E6.6559
G1 X-55.944 Y-24.460 E6.6579
G1 X-55.761 Y-24.845 E6.6962
G1 X-55.751 Y-24.865 E6.6982
G1 X-55.178 Y-25.957 E6.8090
G1 X-55.168 Y-25.976 E6.8108
G1 X-54.964 Y-26.330 E6.8476
G1 X-54.953 Y-26.348 E6.8494
G1 X-54.756 Y-26.661 E6.8826
G1 X-54.459 Y-27.295 E6.9455
G1 X-54.179 Y-27.999 E7.0136
G1 X-54.169 Y-28.022 E7.0158
G1 X-53.963 Y-28.476 E7.0606
G1 X-53.952 Y-28.499 E7.0629
G1 X-53.011 Y-30.339 E7.2485
G1 X-52.993 Y-30.371 E7.2518
G1 X-52.623 Y-30.986 E7.3162
G1 X-52.603 Y-31.016 E7.3195
G1 X-49.519 Y-35.436 E7.8035
G1 X-49.246 Y-35.925 E7.8537
G1 X-49.234 Y-35.945 E7.8559
G1 X-48.988 Y-36.342 E7.8978
G1 X-48.975 Y-36.362 E7.8999
G1 X-48.366 Y-37.255 E7.9970
G1 X-48.354 Y-37.271 E7.9988
G1 X-48.116 Y-37.593 E8.0347
G1 X-48.104 Y-37.609 E8.0365
G1 X-46.782 Y-39.261 E8.2265
G1 X-46.763 Y-39.283 E8.2292
G1 X-46.379 Y-39.713 E8.2810
G1 X-46.358 Y-39.735 E8.2836
G1 X-42.362 Y-43.741 E8.7918
G1 X-41.983 Y-44.201 E8.8453
G1 X-41.965 Y-44.221 E8.8478
G1 X-41.604 Y-44.615 E8.8957
G1 X-41.585 Y-44.635 E8.8982
G1 X-40.646 Y-45.563 E9.0168
G1 X-40.630 Y-45.578 E9.0188
G1 X-40.310 Y-45.869 E9.0575
G1 X-40.294 Y-45.883 E9.0595
G1 X-38.645 Y-47.265 E9.2526
G1 X-38.626 Y-47.280 E9.2549
G1 X-38.241 Y-47.574 E9.2984
G1 X-38.221 Y-47.588 E9.3006
G1 X-35.978 Y-49.140 E9.5455
G1 X-35.203 Y-49.833 E9.6389
G1 X-35.179 Y-49.853 E9.6417
G1 X-34.703 Y-50.232 E9.6963
G1 X-34.678 Y-50.250 E9.6991
G1 X-33.738 Y-50.913 E9.8024
G1 X-33.725 Y-50.922 E9.8038
G1 X-33.464 Y-51.095 E9.8319
G1 X-33.450 Y-51.103 E9.8333
G1 X-32.473 Y-51.708 E9.9365
G1 X-32.449 Y-51.723 E9.9391
G1 X-31.958 Y-51.992 E9.9894
G1 X-31.932 Y-52.005 E9.9920
G1 X-31.821 Y-52.059 E10.0030
G1 X-31.314 Y-52.430 E10.0595
G1 X-31.272 Y-52.458 E10.0640
G1 X-30.429 Y-52.963 E10.1523
G1 X-30.385 Y-52.987 E10.1568
G1 X-26.308 Y-54.937 E10.5626
G1 X-26.305 Y-54.938 E10.5629
G1 X-26.244 Y-54.967 E10.5689
G1 X-26.241 Y-54.968 E10.5692
G1 X-21.847 Y-57.002 E11.0041
G1 X-21.825 Y-57.012 E11.0062
G1 X-21.393 Y-57.189 E11.0482
G1 X-21.370 Y-57.197 E11.0503
G1 X-20.239 Y-57.604 E11.1582
G1 X-20.218 Y-57.611 E11.1603
G1 X-19.798 Y-57.742 E11.1998
G1 X-19.777 Y-57.748 E11.2018
G1 X-11.440 Y-59.979 E11.9767
G1 X-11.403 Y-59.987 E11.9801
G1 X-10.676 Y-60.128 E12.0467
G1 X-10.638 Y-60.134 E12.0501
G1 X-8.331 Y-60.414 E12.2588
G1 X-8.319 Y-60.415 E12.2599
G1 X-8.077 Y-60.439 E12.2817
G1 X-8.065 Y-60.440 E12.2828
G1 X-7.119 Y-60.511 E12.3680
G1 X-6.771 Y-60.583 E12.3999
G1 X-6.753 Y-60.586 E12.4015
G1 X-5.540 Y-60.795 E12.5121
G1 X-5.507 Y-60.800 E12.5151
G1 X-4.846 Y-60.871 E12.5748
G1 X-4.812 Y-60.874 E12.5778
G1 X-3.486 Y-60.933 E12.6971
G1 X-3.473 Y-60.933 E12.6983
G1 X-3.214 Y-60.939 E12.7215
G1 X-3.201 Y-60.939 E12.7227
G1 X-2.167 Y-60.934 E12.8155
G1 X-0.512 Y-61.072 E12.9647
G1 X-0.475 Y-61.074 E12.9680
G1 X0.248 Y-61.084 E13.0329
G1 X0.285 Y-61.084 E13.0362
G1 X2.197 Y-60.980 E13.2082
G1 X2.227 Y-60.978 E13.2109
G1 X2.808 Y-60.914 E13.2634
G1 X2.838 Y-60.910 E13.2661
G1 X3.290 Y-60.835 E13.3072
G1 X9.846 Y-60.268 E13.8982
G1 X9.884 Y-60.264 E13.9016
G1 X10.607 Y-60.150 E13.9674
G1 X10.644 Y-60.143 E13.9707
G1 X11.721 Y-59.896 E14.0700
G1 X11.731 Y-59.894 E14.0709
G1 X11.920 Y-59.847 E14.0883
G1 X11.929 Y-59.845 E14.0892
G1 X15.278 Y-58.946 E14.4006
G1 X15.565 Y-58.912 E14.4265
G1 X15.658 Y-58.892 E14.4350
G1 X16.950 Y-58.498 E14.5564
G1 X20.158 Y-57.657 E14.8542
G1 X20.201 Y-57.643 E14.8583
G1 X21.038 Y-57.347 E14.9380
G1 X21.081 Y-57.330 E14.9421
G1 X23.996 Y-56.010 E15.2295
G1 X24.000 Y-56.009 E15.2299
G1 X24.071 Y-55.976 E15.2369
G1 X24.075 Y-55.974 E15.2373
G1 X27.439 Y-54.391 E15.5712
G1 X29.657 Y-53.403 E15.7892
G1 X29.700 Y-53.381 E15.7935
G1 X30.526 Y-52.920 E15.8785
G1 X30.568 Y-52.895 E15.8829
G1 X32.519 Y-51.564 E16.0950
G1 X32.886 Y-51.377 E16.1320
G1 X32.920 Y-51.358 E16.1355
G1 X34.112 Y-50.639 E16.2605
G1 X34.128 Y-50.628 E16.2622
G1 X34.452 Y-50.416 E16.2970
G1 X34.468 Y-50.405 E16.2987
G1 X35.311 Y-49.808 E16.3915
G1 X35.370 Y-49.759 E16.3984
G1 X36.048 Y-49.117 E16.4823
G1 X36.934 Y-48.485 E16.5800
G1 X37.360 Y-48.227 E16.6247
G1 X37.385 Y-48.211 E16.6274
G1 X37.863 Y-47.883 E16.6794
G1 X37.887 Y-47.866 E16.6821
G1 X38.777 Y-47.182 E16.7829
G1 X38.792 Y-47.170 E16.7846
G1 X39.083 Y-46.929 E16.8185
G1 X39.098 Y-46.917 E16.8202
G1 X40.737 Y-45.459 E17.0173
G1 X40.762 Y-45.435 E17.0203
G1 X41.230 Y-44.963 E17.0801
G1 X41.254 Y-44.938 E17.0831
G1 X41.784 Y-44.330 E17.1556
G1 X45.946 Y-40.184 E17.6832
G1 X45.960 Y-40.169 E17.6850
G1 X46.227 Y-39.883 E17.7202
G1 X46.241 Y-39.868 E17.7220
G1 X47.356 Y-38.577 E17.8751
G1 X47.369 Y-38.562 E17.8769
G1 X47.614 Y-38.257 E17.9121
G1 X47.626 Y-38.241 E17.9139
G1 X48.288 Y-37.350 E18.0135
G1 X48.308 Y-37.321 E18.0167
G1 X48.688 Y-36.730 E18.0798
G1 X48.707 Y-36.700 E18.0830
G1 X48.954 Y-36.252 E18.1289
G1 X51.029 Y-33.297 E18.4532
G1 X51.450 Y-32.771 E18.5137
G1 X51.468 Y-32.746 E18.5164
G1 X51.816 Y-32.257 E18.5703
G1 X51.833 Y-32.232 E18.5731
G1 X52.970 Y-30.422 E18.7650
G1 X52.987 Y-30.392 E18.7681
G1 X53.309 Y-29.800 E18.8286
G1 X53.324 Y-29.769 E18.8317
G1 X57.239 Y-21.300 E19.6696
G1 X57.254 Y-21.266 E19.6729
G1 X57.513 Y-20.585 E19.7384
G1 X57.525 Y-20.550 E19.7417
G1 X57.835 Y-19.530 E19.8374
G1 X57.840 Y-19.512 E19.8391
G1 X57.935 Y-19.154 E19.8723
G1 X57.939 Y-19.136 E19.8740
G1 X57.992 Y-18.905 E19.8953
G1 X58.138 Y-18.482 E19.9355
G1 X58.149 Y-18.446 E19.9389
G1 X58.341 Y-17.729 E20.0055
G1 X58.350 Y-17.692 E20.0089
G1 X58.466 Y-17.091 E20.0639
G1 X58.569 Y-16.711 E20.0993
G1 X58.575 Y-16.698 E20.1006
G1 X58.836 Y-16.059 E20.1625
G1 X58.848 Y-16.025 E20.1657
G1 X59.201 Y-14.963 E20.2662
G1 X59.209 Y-14.939 E20.2685
G1 X59.344 Y-14.460 E20.3132
G1 X59.350 Y-14.436 E20.3155
G1 X59.615 Y-13.290 E20.4211
G1 X59.619 Y-13.267 E20.4231
G1 X59.701 Y-12.830 E20.4631
G1 X59.705 Y-12.807 E20.4652
G1 X59.819 Y-12.016 E20.5370
G1 X60.100 Y-10.900 E20.6403
G1 X60.108 Y-10.859 E20.6441
G1 X60.248 Y-10.038 E20.7188
G1 X60.253 Y-9.996 E20.7227
G1 X60.578 Y-6.349 E21.0514
G1 X60.586 Y-6.320 E21.0542
G1 X60.591 Y-6.297 E21.0562
G1 X60.679 Y-5.850 E21.0972
G1 X60.683 Y-5.827 E21.0993
G1 X60.876 Y-4.562 E21.2142
G1 X60.881 Y-4.514 E21.2185
G1 X60.940 Y-3.590 E21.3017
G1 X60.941 Y-3.543 E21.3059
G1 X60.916 Y-2.513 E21.3984
G1 X61.065 Y-0.987 E21.5361
G1 X61.067 Y-0.951 E21.5394
G1 X61.089 Y-0.251 E21.6022
G1 X61.089 Y-0.216 E21.6054
G1 X61.050 Y0.909 E21.7065
G1 X61.049 Y0.924 E21.7079
G1 X61.030 Y1.221 E21.7346
G1 X61.029 Y1.236 E21.7359
G1 X60.915 Y2.479 E21.8480
G1 X60.941 Y3.543 E21.9436
G1 X60.940 Y3.590 E21.9478
G1 X60.881 Y4.514 E22.0309
G1 X60.876 Y4.561 E22.0352
G1 X60.683 Y5.826 E22.1501
G1 X60.679 Y5.849 E22.1522
G1 X60.591 Y6.296 E22.1931
G1 X60.586 Y6.319 E22.1952
G1 X60.577 Y6.353 E22.1984
G1 X60.236 Y10.141 E22.5399
G1 X60.230 Y10.187 E22.5441
G1 X60.072 Y11.079 E22.6254
G1 X60.062 Y11.124 E22.6296
G1 X58.717 Y16.147 E23.0965
G1 X58.711 Y16.201 E23.1014
G1 X58.707 Y16.230 E23.1041
G1 X58.611 Y16.796 E23.1556
G1 X58.605 Y16.825 E23.1582
G1 X58.361 Y17.908 E23.2580
G1 X58.356 Y17.927 E23.2597
G1 X58.260 Y18.290 E23.2934
G1 X58.255 Y18.309 E23.2952
G1 X57.962 Y19.279 E23.3862
G1 X57.957 Y19.293 E23.3875
G1 X57.868 Y19.564 E23.4131
G1 X57.863 Y19.578 E23.4145
G1 X56.986 Y21.999 E23.6457
G1 X56.981 Y22.012 E23.6470
G1 X56.881 Y22.267 E23.6716
G1 X56.876 Y22.280 E23.6728
G1 X55.662 Y25.153 E23.9529
G1 X55.657 Y25.166 E23.9541
G1 X55.543 Y25.417 E23.9789
G1 X55.537 Y25.430 E23.9802
G1 X55.082 Y26.367 E24.0737
G1 X55.074 Y26.382 E24.0753
G1 X54.916 Y26.684 E24.1058
G1 X54.907 Y26.699 E24.1074
G1 X54.335 Y27.707 E24.2116
G1 X54.320 Y27.732 E24.2141
G1 X54.110 Y28.061 E24.2491
G1 X53.219 Y29.978 E24.4390
G1 X53.199 Y30.018 E24.4430
G1 X52.764 Y30.781 E24.5219
G1 X52.740 Y30.819 E24.5260
G1 X52.009 Y31.884 E24.6419
G1 X51.376 Y33.022 E24.7589
G1 X51.363 Y33.045 E24.7612
G1 X51.096 Y33.475 E24.8067
G1 X51.082 Y33.497 E24.8091
G1 X50.043 Y35.003 E24.9734
G1 X50.031 Y35.019 E24.9751
G1 X49.803 Y35.325 E25.0094
G1 X49.791 Y35.341 E25.0112
G1 X49.060 Y36.252 E25.1161
G1 X49.047 Y36.267 E25.1179
G1 X48.794 Y36.560 E25.1526
G1 X48.781 Y36.575 E25.1544
G1 X48.605 Y36.764 E25.1776
G1 X47.550 Y38.296 E25.3447
G1 X47.533 Y38.319 E25.3472
G1 X47.197 Y38.756 E25.3967
G1 X47.179 Y38.778 E25.3992
G1 X46.309 Y39.795 E25.5195
