; G-Code generated by Simplify3D(R) Version 3.1.0
; Jul 29, 2016 at 1:03:09 AM
; Settings Summary
;   processName,Process1
;   applyToModels,Pi Case Top
;   profileName,Rostock MAX v2 (modified)
;   profileVersion,2015-05-01 08:00:00
;   baseProfile,
;   printMaterial,PLA
;   printQuality,Medium
;   printExtruders,
;   extruderName,Primary Extruder
;   extruderToolheadNumber,0
;   extruderDiameter,0.4
;   extruderAutoWidth,1
;   extruderWidth,0.48
;   extrusionMultiplier,1.1
;   extruderUseRetract,1
;   extruderRetractionDistance,6
;   extruderExtraRestartDistance,0
;   extruderRetractionZLift,0.5
;   extruderRetractionSpeed,4600
;   extruderUseCoasting,1
;   extruderCoastingDistance,1
;   extruderUseWipe,1
;   extruderWipeDistance,5
;   primaryExtruder,0
;   layerHeight,0.2
;   topSolidLayers,3
;   bottomSolidLayers,3
;   perimeterOutlines,3
;   printPerimetersInsideOut,1
;   startPointOption,2
;   startPointOriginX,0
;   startPointOriginY,0
;   startPointOriginZ,300
;   sequentialIslands,0
;   spiralVaseMode,0
;   firstLayerHeightPercentage,25
;   firstLayerWidthPercentage,100
;   firstLayerUnderspeed,0.4
;   useRaft,0
;   raftExtruder,0
;   raftLayers,3
;   raftOffset,15
;   raftSeparationDistance,0.14
;   raftInfill,85
;   disableRaftBaseLayers,0
;   useSkirt,1
;   skirtExtruder,0
;   skirtLayers,1
;   skirtOutlines,3
;   skirtOffset,10
;   usePrimePillar,0
;   primePillarExtruder,999
;   primePillarWidth,12
;   primePillarLocation,7
;   primePillarSpeedMultiplier,1
;   useOozeShield,0
;   oozeShieldExtruder,999
;   oozeShieldOffset,2
;   oozeShieldOutlines,1
;   oozeShieldSidewallShape,1
;   oozeShieldSidewallAngle,30
;   oozeShieldSpeedMultiplier,1
;   infillExtruder,0
;   internalInfillPattern,Rectilinear
;   externalInfillPattern,Rectilinear
;   infillPercentage,33
;   outlineOverlapPercentage,25
;   infillExtrusionWidthPercentage,150
;   minInfillLength,5
;   infillLayerInterval,1
;   infillAngles,45,-45
;   overlapInfillAngles,0
;   generateSupport,0
;   supportExtruder,0
;   supportInfillPercentage,30
;   supportExtraInflation,0
;   denseSupportLayers,0
;   denseSupportInfillPercentage,70
;   supportLayerInterval,1
;   supportHorizontalPartOffset,0.3
;   supportUpperSeparationLayers,1
;   supportLowerSeparationLayers,1
;   supportType,1
;   supportGridSpacing,4
;   maxOverhangAngle,45
;   supportAngles,0
;   temperatureName,Primary Extruder,Heated Bed
;   temperatureNumber,0,1
;   temperatureSetpointCount,1,1
;   temperatureSetpointLayers,1,1
;   temperatureSetpointTemperatures,205,60
;   temperatureStabilizeAtStartup,1,1
;   temperatureHeatedBed,0,1
;   temperatureRelayBetweenLayers,0,0
;   temperatureRelayBetweenLoops,0,0
;   fanLayers,1,2
;   fanSpeeds,0,100
;   blipFanToFullPower,1
;   adjustSpeedForCooling,1
;   minSpeedLayerTime,15
;   minCoolingSpeedSlowdown,20
;   increaseFanForCooling,0
;   minFanLayerTime,60
;   maxCoolingFanSpeed,100
;   increaseFanForBridging,0
;   bridgingFanSpeed,100
;   use5D,1
;   relativeEdistances,0
;   allowEaxisZeroing,1
;   independentExtruderAxes,0
;   includeM10123,0
;   stickySupport,1
;   applyToolheadOffsets,0
;   gcodeXoffset,0
;   gcodeYoffset,0
;   gcodeZoffset,0
;   overrideMachineDefinition,1
;   machineTypeOverride,1
;   strokeXoverride,197
;   strokeYoverride,197
;   strokeZoverride,375
;   originOffsetXoverride,98.5
;   originOffsetYoverride,98.5
;   originOffsetZoverride,0
;   homeXdirOverride,0
;   homeYdirOverride,0
;   homeZdirOverride,1
;   flipXoverride,1
;   flipYoverride,-1
;   flipZoverride,1
;   toolheadOffsets,0,0|0,0|0,0|0,0|0,0|0,0
;   overrideFirmwareConfiguration,1
;   firmwareTypeOverride,RepRap (Marlin/Repetier/Sprinter)
;   GPXconfigOverride,r2
;   baudRateOverride,115200
;   overridePrinterModels,1
;   printerModelsOverride
;   startingGcode,G28 ; home all axes
;   layerChangeGcode,
;   retractionGcode,
;   toolChangeGcode,
;   endingGcode,M104 S0 ; turn off extruder,M140 S0 ; turn off bed,G28 ; home axes,M84 ; disable motors
;   exportFileFormat,gcode
;   celebration,0
;   celebrationSong,Random Song
;   postProcessing,
;   defaultSpeed,3000
;   outlineUnderspeed,0.5
;   solidInfillUnderspeed,0.8
;   supportUnderspeed,0.8
;   rapidXYspeed,9000
;   rapidZspeed,1200
;   minBridgingArea,50
;   bridgingExtraInflation,0
;   bridgingExtrusionMultiplier,0.95
;   bridgingSpeedMultiplier,0.7
;   filamentDiameter,1.75
;   filamentPricePerKg,22
;   filamentDensity,1.25
;   useMinPrintHeight,0
;   minPrintHeight,0.05
;   useMaxPrintHeight,0
;   maxPrintHeight,0
;   useDiaphragm,0
;   diaphragmLayerInterval,20
;   robustSlicing,1
;   mergeAllIntoSolid,0
;   onlyRetractWhenCrossingOutline,1
;   retractBetweenLayers,1
;   useRetractionMinTravel,0
;   retractionMinTravel,3
;   retractWhileWiping,1
;   onlyWipeOutlines,1
;   avoidCrossingOutline,1
;   maxMovementDetourFactor,1
;   toolChangeRetractionDistance,12
;   toolChangeExtraRestartDistance,-0.5
;   toolChangeRetractionSpeed,600
;   allowThinWallGapFill,0
;   thinWallAllowedOverlapPercentage,10
;   horizontalSizeCompensation,0
G90
M82
M106 S0
M140 S60
M190 S60
M104 S205 T0
M109 S205 T0
G28 ; home all axes
G92 E0
G1 E-6.0000 F4600
G1 Z0.550 F1200
; layer 1, Z = 0.05
T0
; tool H0.200 W0.480
; skirt
G1 X56.700 Y-52.381 F9000
G1 Z0.050 F1200
G1 E0.0000 F1380
G92 E0
G1 X56.700 Y52.381 E4.5994 F1200
G1 X56.517 Y52.822 E4.6204
G1 X50.322 Y59.017 E5.0050
G1 X49.881 Y59.200 E5.0260
G1 X-49.881 Y59.200 E9.4058
G1 X-50.322 Y59.017 E9.4268
G1 X-56.517 Y52.822 E9.8115
G1 X-56.700 Y52.381 E9.8324
G1 X-56.700 Y-52.381 E14.4318
G1 X-56.517 Y-52.822 E14.4528
G1 X-50.322 Y-59.017 E14.8374
G1 X-49.881 Y-59.200 E14.8584
G1 X49.881 Y-59.200 E19.2383
G1 X50.322 Y-59.017 E19.2592
G1 X56.148 Y-53.191 E19.6210
G1 X56.517 Y-52.822 F1200
G1 X56.700 Y-52.381 F1200
G1 X56.220 Y-52.285 F9000
G92 E0
G1 X56.220 Y52.285 E4.5910 F1200
G1 X56.110 Y52.550 E4.6036
G1 X50.050 Y58.610 E4.9799
G1 X49.785 Y58.720 E4.9924
G1 X-49.785 Y58.720 E9.3639
G1 X-50.050 Y58.610 E9.3765
G1 X-56.110 Y52.550 E9.7528
G1 X-56.220 Y52.285 E9.7654
G1 X-56.220 Y-52.285 E14.3564
G1 X-56.110 Y-52.550 E14.3689
G1 X-50.050 Y-58.610 E14.7452
G1 X-49.785 Y-58.720 E14.7578
G1 X49.785 Y-58.720 E19.1293
G1 X50.050 Y-58.610 E19.1419
G1 X55.606 Y-53.055 E19.4868
G1 X56.110 Y-52.550 F1200
G1 X56.220 Y-52.285 F1200
G1 X55.740 Y-52.190 F9000
G92 E0
G1 X55.740 Y52.190 E4.5826 F1200
G1 X55.703 Y52.278 E4.5868
G1 X49.778 Y58.203 E4.9547
G1 X49.690 Y58.240 E4.9589
G1 X-49.690 Y58.240 E9.3220
G1 X-49.778 Y58.203 E9.3262
G1 X-55.703 Y52.278 E9.6941
G1 X-55.740 Y52.190 E9.6983
G1 X-55.740 Y-52.190 E14.2809
G1 X-55.703 Y-52.278 E14.2851
G1 X-49.778 Y-58.203 E14.6530
G1 X-49.690 Y-58.240 E14.6572
G1 X49.690 Y-58.240 E19.0203
G1 X49.778 Y-58.203 E19.0245
G1 X55.064 Y-52.918 E19.3527
G1 X55.703 Y-52.278 F1200
G1 X55.740 Y-52.190 F1200
; inner perimeter
G1 X44.300 Y-46.800 F9000
G92 E0
G1 X44.300 Y46.800 E4.1094 F1000
G1 X-44.300 Y46.800 E7.9992
G1 X-44.300 Y-46.800 E12.1086
G1 X43.300 Y-46.800 E15.9545
G1 X44.300 Y-46.800 F1000
; inner perimeter
G1 X44.780 Y-47.280 F9000
G92 E0
G1 X44.780 Y47.280 E4.1515 F800
G1 X-44.780 Y47.280 E8.0835
G1 X-44.780 Y-47.280 E12.2350
G1 X43.780 Y-47.280 E16.1231
G1 X44.780 Y-47.280 F800
; outer perimeter
G1 X45.260 Y-47.760 F9000
G92 E0
G1 X45.260 Y47.760 E4.1937 F600
G1 X-45.260 Y47.760 E8.1678
G1 X-45.260 Y-47.760 E12.3614
G1 X44.260 Y-47.760 E16.2917
G1 X45.260 Y-47.760 F600
G1 X45.260 Y-42.760 F3000
; inner perimeter
G1 X36.200 Y-12.200 F9000
G92 E0
G1 X-35.700 Y-12.200 E3.1567 F1000
G1 X-35.700 Y40.200 E5.4572
G1 X36.200 Y40.200 E8.6138
G1 X36.200 Y38.950 E8.6687
G1 X42.950 Y38.950 E8.9651
G1 X42.950 Y29.050 E9.3997
G1 X36.200 Y29.050 E9.6961
G1 X36.200 Y27.950 E9.7444
G1 X42.950 Y27.950 E10.0407
G1 X42.950 Y18.050 E10.4753
G1 X36.200 Y18.050 E10.7717
G1 X36.200 Y16.950 E10.8200
G1 X42.950 Y16.950 E11.1163
G1 X42.950 Y7.050 E11.5510
G1 X36.200 Y7.050 E11.8473
G1 X36.200 Y5.950 E11.8956
G1 X42.950 Y5.950 E12.1920
G1 X42.950 Y-3.950 E12.6266
G1 X36.200 Y-3.950 E12.9230
G1 X36.200 Y-11.200 E13.2413
G1 X36.200 Y-12.200 F1000
; inner perimeter
G1 X35.720 Y-11.720 F9000
G92 E0
G1 X-35.220 Y-11.720 E3.1145 F800
G1 X-35.220 Y39.720 E5.3729
G1 X35.720 Y39.720 E8.4874
G1 X35.720 Y38.470 E8.5423
G1 X42.470 Y38.470 E8.8386
G1 X42.470 Y29.530 E9.2311
G1 X35.720 Y29.530 E9.5275
G1 X35.720 Y27.470 E9.6179
G1 X42.470 Y27.470 E9.9143
G1 X42.470 Y18.530 E10.3068
G1 X35.720 Y18.530 E10.6031
G1 X35.720 Y16.470 E10.6935
G1 X42.470 Y16.470 E10.9899
G1 X42.470 Y7.530 E11.3824
G1 X35.720 Y7.530 E11.6787
G1 X35.720 Y5.470 E11.7692
G1 X42.470 Y5.470 E12.0655
G1 X42.470 Y-3.470 E12.4580
G1 X35.720 Y-3.470 E12.7544
G1 X35.720 Y-10.720 E13.0727
G1 X35.720 Y-11.720 F800
; outer perimeter
G1 X35.240 Y-11.240 F9000
G92 E0
G1 X-34.740 Y-11.240 E3.0724 F600
G1 X-34.740 Y39.240 E5.2886
G1 X35.240 Y39.240 E8.3610
G1 X35.240 Y-10.240 E10.5333
G1 X35.240 Y-11.240 F600
G92 E0
G1 X31.327 Y-11.240 E-6.0000 F3000
G1 X30.240 Y-11.240 F3000
G1 Z0.550 F1200
; inner perimeter
; inner perimeter
; outer perimeter
G1 X41.990 Y-2.990 F9000
G1 Z0.050 F1200
G1 E0.0000 F4600
G92 E0
G1 X36.510 Y-2.990 E0.2406 F600
G1 X36.510 Y4.990 E0.5909
G1 X41.990 Y4.990 E0.8315
G1 X41.990 Y-1.990 E1.1380
G1 X41.990 Y-2.990 F600
G92 E0
G1 X38.077 Y-2.990 E-6.0000 F3000
G1 X36.990 Y-2.990 F3000
G1 Z0.550 F1200
; inner perimeter
; inner perimeter
; outer perimeter
G1 X41.990 Y8.010 F9000
G1 Z0.050 F1200
G1 E0.0000 F4600
G92 E0
G1 X36.510 Y8.010 E0.2406 F600
G1 X36.510 Y15.990 E0.5909
G1 X41.990 Y15.990 E0.8315
G1 X41.990 Y9.010 E1.1380
G1 X41.990 Y8.010 F600
G92 E0
G1 X38.077 Y8.010 E-6.0000 F3000
G1 X36.990 Y8.010 F3000
G1 Z0.550 F1200
; inner perimeter
; inner perimeter
; outer perimeter
G1 X41.990 Y19.010 F9000
G1 Z0.050 F1200
G1 E0.0000 F4600
G92 E0
G1 X36.510 Y19.010 E0.2406 F600
G1 X36.510 Y26.990 E0.5909
G1 X41.990 Y26.990 E0.8315
G1 X41.990 Y20.010 E1.1380
G1 X41.990 Y19.010 F600
G92 E0
G1 X38.077 Y19.010 E-6.0000 F3000
G1 X36.990 Y19.010 F3000
G1 Z0.550 F1200
; inner perimeter
; inner perimeter
; outer perimeter
G1 X41.990 Y30.010 F9000
G1 Z0.050 F1200
G1 E0.0000 F4600
G92 E0
G1 X36.510 Y30.010 E0.2406 F600
G1 X36.510 Y37.990 E0.5909
G1 X41.990 Y37.990 E0.8315
G1 X41.990 Y31.010 E1.1380
G1 X41.990 Y30.010 F600
G92 E0
G1 X38.077 Y30.010 E-6.0000 F3000
G1 X36.990 Y30.010 F3000
G1 Z0.550 F1200
; inner perimeter
G1 X15.105 Y-27.200 F9000
G1 Z0.050 F1200
G1 E0.0000 F4600
G92 E0
G1 X0.800 Y-27.200 E0.6280 F1000
G1 X0.800 Y-12.895 E1.2561
G1 X3.937 Y-13.308 E1.3950
G1 X7.605 Y-14.827 E1.5693
G1 X10.755 Y-17.245 E1.7436
G1 X13.173 Y-20.395 E1.9180
G1 X14.692 Y-24.063 E2.0923
G1 X14.974 Y-26.209 E2.1873
G1 X15.105 Y-27.200 F1000
; inner perimeter
G1 X14.558 Y-26.720 F9000
G92 E0
G1 X11.105 Y-26.720 E0.1516 F800
G1 X10.890 Y-25.082 E0.2241
G1 X9.763 Y-22.363 E0.3533
G1 X7.972 Y-20.028 E0.4825
G1 X5.637 Y-18.237 E0.6117
G1 X2.918 Y-17.110 E0.7409
G1 X1.280 Y-16.895 E0.8135
G1 X1.280 Y-13.442 E0.9650
G1 X3.811 Y-13.776 E1.0771
G1 X7.363 Y-15.247 E1.2459
G1 X10.413 Y-17.587 E1.4147
G1 X12.753 Y-20.637 E1.5835
G1 X14.224 Y-24.189 E1.7523
G1 X14.427 Y-25.729 E1.8204
G1 X14.558 Y-26.720 F800
; outer perimeter
G1 X14.010 Y-26.240 F9000
G92 E0
G1 X11.526 Y-26.240 E0.1091 F600
G1 X11.357 Y-24.957 E0.1659
G1 X10.183 Y-22.121 E0.3006
G1 X8.314 Y-19.686 E0.4354
G1 X5.879 Y-17.817 E0.5702
G1 X3.043 Y-16.643 E0.7049
G1 X1.760 Y-16.474 E0.7617
G1 X1.760 Y-13.990 E0.8708
G1 X3.686 Y-14.243 E0.9561
G1 X7.121 Y-15.666 E1.1193
G1 X10.071 Y-17.929 E1.2826
G1 X12.334 Y-20.879 E1.4458
G1 X13.757 Y-24.314 E1.6090
G1 X13.880 Y-25.249 E1.6504
G1 X14.010 Y-26.240 F600
G1 X11.526 Y-26.240 F3000
G1 X11.357 Y-24.957 F3000
G1 X10.890 Y-23.828 F3000
; inner perimeter
; inner perimeter
G1 X10.558 Y-26.720 F9000
G92 E0
G1 X7.105 Y-26.720 E0.1516 F800
G1 X7.026 Y-26.117 E0.1783
G1 X6.299 Y-24.363 E0.2616
G1 X5.143 Y-22.857 E0.3450
G1 X3.637 Y-21.701 E0.4284
G1 X1.882 Y-20.974 E0.5117
G1 X1.280 Y-20.895 E0.5384
G1 X1.280 Y-17.442 E0.6900
G1 X2.776 Y-17.639 E0.7562
G1 X5.363 Y-18.711 E0.8792
G1 X7.585 Y-20.415 E1.0021
G1 X9.289 Y-22.637 E1.1250
G1 X10.361 Y-25.224 E1.2480
G1 X10.427 Y-25.729 E1.2703
G1 X10.558 Y-26.720 F800
; outer perimeter
G1 X10.010 Y-26.240 F9000
G92 E0
G1 X7.526 Y-26.240 E0.1091 F600
G1 X7.494 Y-25.992 E0.1200
G1 X6.719 Y-24.121 E0.2090
G1 X5.486 Y-22.514 E0.2979
G1 X3.879 Y-21.281 E0.3868
G1 X2.007 Y-20.506 E0.4757
G1 X1.760 Y-20.474 E0.4867
G1 X1.760 Y-17.990 E0.5957
G1 X2.651 Y-18.107 E0.6352
G1 X5.121 Y-19.130 E0.7526
G1 X7.242 Y-20.758 E0.8700
G1 X8.870 Y-22.879 E0.9873
G1 X9.854 Y-25.255 E1.1003
G1 X9.893 Y-25.349 F600
G1 X10.010 Y-26.240 F600
G1 X7.526 Y-26.240 F3000
G1 X7.494 Y-25.992 F3000
G1 X6.719 Y-24.121 F3000
G1 X6.572 Y-23.930 F3000
; inner perimeter
; inner perimeter
G1 X6.688 Y-26.720 F9000
G92 E0
G1 X1.280 Y-26.720 E0.2374 F800
G1 X1.280 Y-21.312 E0.4749
G1 X3.363 Y-22.175 E0.5738
G1 X4.756 Y-23.244 E0.6509
G1 X5.825 Y-24.637 E0.7280
G1 X6.305 Y-25.796 E0.7831
G1 X6.688 Y-26.720 F800
; outer perimeter
G1 X5.970 Y-26.240 F9000
G92 E0
G1 X1.760 Y-26.240 E0.1848 F600
G1 X1.760 Y-22.030 E0.3696
G1 X3.121 Y-22.594 E0.4343
G1 X4.414 Y-23.586 E0.5058
G1 X5.406 Y-24.879 E0.5774
G1 X5.587 Y-25.316 E0.5982
G1 X5.970 Y-26.240 F600
G1 X1.760 Y-26.240 F3000
G1 X1.760 Y-25.450 F3000
; inner perimeter
; inner perimeter
G1 X-1.280 Y-26.720 F9000
G92 E0
G1 X-6.688 Y-26.720 E0.2374 F800
G1 X-5.825 Y-24.637 E0.3364
G1 X-4.756 Y-23.244 E0.4135
G1 X-3.363 Y-22.175 E0.4905
G1 X-1.280 Y-21.312 E0.5895
G1 X-1.280 Y-25.721 E0.7831
G1 X-1.280 Y-26.720 F800
; outer perimeter
G1 X-1.760 Y-26.240 F9000
G92 E0
G1 X-5.970 Y-26.240 E0.1848 F600
G1 X-5.406 Y-24.879 E0.2495
G1 X-4.414 Y-23.586 E0.3210
G1 X-3.121 Y-22.594 E0.3926
G1 X-1.760 Y-22.030 E0.4572
G1 X-1.760 Y-25.240 E0.5982
G1 X-1.760 Y-26.240 F600
G92 E0
G1 X-5.673 Y-26.240 E-6.0000 F3000
G1 X-5.970 Y-26.240 F3000
G1 X-5.667 Y-25.510 F3000
G1 Z0.550 F1200
; inner perimeter
; inner perimeter
G1 X-1.280 Y-20.895 F9000
G1 Z0.050 F1200
G1 E0.0000 F4600
G92 E0
G1 X-1.883 Y-20.974 E0.0267 F800
G1 X-3.637 Y-21.701 E0.1101
G1 X-5.143 Y-22.857 E0.1934
G1 X-6.299 Y-24.363 E0.2768
G1 X-7.026 Y-26.117 E0.3601
G1 X-7.105 Y-26.719 E0.3868
G1 X-10.558 Y-26.720 E0.5384
G1 X-10.361 Y-25.224 E0.6046
G1 X-9.289 Y-22.637 E0.7276
G1 X-7.585 Y-20.415 E0.8505
G1 X-5.363 Y-18.711 E0.9734
G1 X-2.776 Y-17.639 E1.0964
G1 X-1.280 Y-17.442 E1.1626
G1 X-1.280 Y-19.895 E1.2703
G1 X-1.280 Y-20.895 F800
; outer perimeter
G1 X-1.760 Y-20.474 F9000
G92 E0
G1 X-2.008 Y-20.506 E0.0110 F600
G1 X-3.879 Y-21.281 E0.0999
G1 X-5.486 Y-22.514 E0.1888
G1 X-6.719 Y-24.121 E0.2777
G1 X-7.494 Y-25.992 E0.3666
G1 X-7.526 Y-26.239 E0.3776
G1 X-10.010 Y-26.240 E0.4866
G1 X-9.893 Y-25.349 E0.5261
G1 X-8.870 Y-22.879 E0.6435
G1 X-7.242 Y-20.758 E0.7609
G1 X-5.121 Y-19.130 E0.8783
G1 X-2.651 Y-18.107 E0.9956
G1 X-1.760 Y-17.990 E1.0351
G1 X-1.760 Y-19.474 E1.1002
G1 X-1.760 Y-20.474 F600
G92 E0
G1 X-2.008 Y-20.506 E-0.3834 F3000
G1 X-3.879 Y-21.281 E-3.4888
G1 X-5.178 Y-22.278 E-6.0000
G1 X-5.486 Y-22.514 F3000
G1 X-5.912 Y-23.069 F3000
G1 Z0.550 F1200
; inner perimeter
G1 X-0.800 Y-27.200 F9000
G1 Z0.050 F1200
G1 E0.0000 F4600
G92 E0
G1 X-7.406 Y-27.200 E0.2900 F1000
G1 X-11.106 Y-27.200 E0.4525
G1 X-15.105 Y-27.200 E0.6281
G1 X-14.692 Y-24.063 E0.7670
G1 X-13.173 Y-20.395 E0.9413
G1 X-10.755 Y-17.245 E1.1156
G1 X-7.605 Y-14.827 E1.2899
G1 X-3.937 Y-13.308 E1.4643
G1 X-0.800 Y-12.895 E1.6032
G1 X-0.800 Y-26.201 E2.1874
G1 X-0.800 Y-27.200 F1000
; inner perimeter
G1 X-1.280 Y-16.895 F9000
G92 E0
G1 X-2.918 Y-17.110 E0.0725 F800
G1 X-5.637 Y-18.237 E0.2017
G1 X-7.972 Y-20.028 E0.3309
G1 X-9.763 Y-22.363 E0.4602
G1 X-10.890 Y-25.082 E0.5894
G1 X-11.105 Y-26.720 E0.6619
G1 X-14.558 Y-26.720 E0.8135
G1 X-14.224 Y-24.189 E0.9256
G1 X-12.753 Y-20.637 E1.0943
G1 X-10.413 Y-17.587 E1.2631
G1 X-7.363 Y-15.247 E1.4319
G1 X-3.811 Y-13.776 E1.6007
G1 X-1.280 Y-13.442 E1.7128
G1 X-1.280 Y-15.895 E1.8204
G1 X-1.280 Y-16.895 F800
; outer perimeter
G1 X-1.760 Y-16.474 F9000
G92 E0
G1 X-3.043 Y-16.643 E0.0568 F600
