; G-Code generated by Simplify3D(R) Version 3.1.0
; Jul 28, 2016 at 11:11:59 PM
; Settings Summary
;   processName,Process1
;   applyToModels,Pi Case Bottom
;   profileName,Rostock MAX v2 (modified)
;   profileVersion,2015-05-01 08:00:00
;   baseProfile,
;   printMaterial,PLA
;   printQuality,Medium
;   printExtruders,
;   extruderName,Primary Extruder
;   extruderToolheadNumber,0
;   extruderDiameter,0.4
;   extruderAutoWidth,1
;   extruderWidth,0.48
;   extrusionMultiplier,1.1
;   extruderUseRetract,1
;   extruderRetractionDistance,6
;   extruderExtraRestartDistance,0
;   extruderRetractionZLift,0.5
;   extruderRetractionSpeed,4600
;   extruderUseCoasting,1
;   extruderCoastingDistance,1
;   extruderUseWipe,1
;   extruderWipeDistance,5
;   primaryExtruder,0
;   layerHeight,0.2
;   topSolidLayers,3
;   bottomSolidLayers,3
;   perimeterOutlines,3
;   printPerimetersInsideOut,1
;   startPointOption,2
;   startPointOriginX,0
;   startPointOriginY,0
;   startPointOriginZ,300
;   sequentialIslands,0
;   spiralVaseMode,0
;   firstLayerHeightPercentage,25
;   firstLayerWidthPercentage,100
;   firstLayerUnderspeed,0.4
;   useRaft,0
;   raftExtruder,0
;   raftLayers,3
;   raftOffset,15
;   raftSeparationDistance,0.14
;   raftInfill,85
;   disableRaftBaseLayers,0
;   useSkirt,1
;   skirtExtruder,0
;   skirtLayers,1
;   skirtOutlines,3
;   skirtOffset,10
;   usePrimePillar,0
;   primePillarExtruder,999
;   primePillarWidth,12
;   primePillarLocation,7
;   primePillarSpeedMultiplier,1
;   useOozeShield,0
;   oozeShieldExtruder,999
;   oozeShieldOffset,2
;   oozeShieldOutlines,1
;   oozeShieldSidewallShape,1
;   oozeShieldSidewallAngle,30
;   oozeShieldSpeedMultiplier,1
;   infillExtruder,0
;   internalInfillPattern,Rectilinear
;   externalInfillPattern,Rectilinear
;   infillPercentage,33
;   outlineOverlapPercentage,25
;   infillExtrusionWidthPercentage,150
;   minInfillLength,5
;   infillLayerInterval,1
;   infillAngles,45,-45
;   overlapInfillAngles,0
;   generateSupport,0
;   supportExtruder,0
;   supportInfillPercentage,30
;   supportExtraInflation,0
;   denseSupportLayers,0
;   denseSupportInfillPercentage,70
;   supportLayerInterval,1
;   supportHorizontalPartOffset,0.3
;   supportUpperSeparationLayers,1
;   supportLowerSeparationLayers,1
;   supportType,1
;   supportGridSpacing,4
;   maxOverhangAngle,45
;   supportAngles,0
;   temperatureName,Primary Extruder,Heated Bed
;   temperatureNumber,0,1
;   temperatureSetpointCount,1,1
;   temperatureSetpointLayers,1,1
;   temperatureSetpointTemperatures,205,60
;   temperatureStabilizeAtStartup,1,1
;   temperatureHeatedBed,0,1
;   temperatureRelayBetweenLayers,0,0
;   temperatureRelayBetweenLoops,0,0
;   fanLayers,1,2
;   fanSpeeds,0,100
;   blipFanToFullPower,1
;   adjustSpeedForCooling,1
;   minSpeedLayerTime,15
;   minCoolingSpeedSlowdown,20
;   increaseFanForCooling,0
;   minFanLayerTime,60
;   maxCoolingFanSpeed,100
;   increaseFanForBridging,0
;   bridgingFanSpeed,100
;   use5D,1
;   relativeEdistances,0
;   allowEaxisZeroing,1
;   independentExtruderAxes,0
;   includeM10123,0
;   stickySupport,1
;   applyToolheadOffsets,0
;   gcodeXoffset,0
;   gcodeYoffset,0
;   gcodeZoffset,0
;   overrideMachineDefinition,1
;   machineTypeOverride,1
;   strokeXoverride,197
;   strokeYoverride,197
;   strokeZoverride,375
;   originOffsetXoverride,98.5
;   originOffsetYoverride,98.5
;   originOffsetZoverride,0
;   homeXdirOverride,0
;   homeYdirOverride,0
;   homeZdirOverride,1
;   flipXoverride,1
;   flipYoverride,-1
;   flipZoverride,1
;   toolheadOffsets,0,0|0,0|0,0|0,0|0,0|0,0
;   overrideFirmwareConfiguration,1
;   firmwareTypeOverride,RepRap (Marlin/Repetier/Sprinter)
;   GPXconfigOverride,r2
;   baudRateOverride,115200
;   overridePrinterModels,1
;   printerModelsOverride
;   startingGcode,G28 ; home all axes
;   layerChangeGcode,
;   retractionGcode,
;   toolChangeGcode,
;   endingGcode,M104 S0 ; turn off extruder,M140 S0 ; turn off bed,G28 ; home axes,M84 ; disable motors
;   exportFileFormat,gcode
;   celebration,0
;   celebrationSong,Random Song
;   postProcessing,
;   defaultSpeed,3000
;   outlineUnderspeed,0.5
;   solidInfillUnderspeed,0.8
;   supportUnderspeed,0.8
;   rapidXYspeed,9000
;   rapidZspeed,1200
;   minBridgingArea,50
;   bridgingExtraInflation,0
;   bridgingExtrusionMultiplier,0.95
;   bridgingSpeedMultiplier,0.7
;   filamentDiameter,1.75
;   filamentPricePerKg,22
;   filamentDensity,1.25
;   useMinPrintHeight,0
;   minPrintHeight,0.05
;   useMaxPrintHeight,0
;   maxPrintHeight,0
;   useDiaphragm,0
;   diaphragmLayerInterval,20
;   robustSlicing,1
;   mergeAllIntoSolid,0
;   onlyRetractWhenCrossingOutline,1
;   retractBetweenLayers,1
;   useRetractionMinTravel,0
;   retractionMinTravel,3
;   retractWhileWiping,1
;   onlyWipeOutlines,1
;   avoidCrossingOutline,1
;   maxMovementDetourFactor,1
;   toolChangeRetractionDistance,12
;   toolChangeExtraRestartDistance,-0.5
;   toolChangeRetractionSpeed,600
;   allowThinWallGapFill,0
;   thinWallAllowedOverlapPercentage,10
;   horizontalSizeCompensation,0
G90
M82
M106 S0
M140 S60
M190 S60
M104 S205 T0
M109 S205 T0
G28 ; home all axes
G92 E0
G1 E-6.0000 F4600
G1 Z0.550 F1200
; layer 1, Z = 0.05
T0
; tool H0.200 W0.480
; skirt
G1 X56.700 Y-52.381 F9000
G1 Z0.050 F1200
G1 E0.0000 F1380
G92 E0
G1 X56.700 Y52.381 E4.5994 F1200
G1 X56.517 Y52.822 E4.6204
G1 X50.322 Y59.017 E5.0050
G1 X49.881 Y59.200 E5.0260
G1 X-49.881 Y59.200 E9.4058
G1 X-50.322 Y59.017 E9.4268
G1 X-56.517 Y52.822 E9.8115
G1 X-56.700 Y52.381 E9.8324
G1 X-56.700 Y-52.381 E14.4318
G1 X-56.517 Y-52.822 E14.4528
G1 X-50.322 Y-59.017 E14.8374
G1 X-49.881 Y-59.200 E14.8584
G1 X49.881 Y-59.200 E19.2383
G1 X50.322 Y-59.017 E19.2592
G1 X56.148 Y-53.191 E19.6210
G1 X56.517 Y-52.822 F1200
G1 X56.700 Y-52.381 F1200
G1 X56.220 Y-52.285 F9000
G92 E0
G1 X56.220 Y52.285 E4.5910 F1200
G1 X56.110 Y52.550 E4.6036
G1 X50.050 Y58.610 E4.9799
G1 X49.785 Y58.720 E4.9924
G1 X-49.785 Y58.720 E9.3639
G1 X-50.050 Y58.610 E9.3765
G1 X-56.110 Y52.550 E9.7528
G1 X-56.220 Y52.285 E9.7654
G1 X-56.220 Y-52.285 E14.3564
G1 X-56.110 Y-52.550 E14.3689
G1 X-50.050 Y-58.610 E14.7452
G1 X-49.785 Y-58.720 E14.7578
G1 X49.785 Y-58.720 E19.1293
G1 X50.050 Y-58.610 E19.1419
G1 X55.606 Y-53.055 E19.4868
G1 X56.110 Y-52.550 F1200
G1 X56.220 Y-52.285 F1200
G1 X55.740 Y-52.190 F9000
G92 E0
G1 X55.740 Y52.190 E4.5826 F1200
G1 X55.703 Y52.278 E4.5868
G1 X49.778 Y58.203 E4.9547
G1 X49.690 Y58.240 E4.9589
G1 X-49.690 Y58.240 E9.3220
G1 X-49.778 Y58.203 E9.3262
G1 X-55.703 Y52.278 E9.6941
G1 X-55.740 Y52.190 E9.6983
G1 X-55.740 Y-52.190 E14.2809
G1 X-55.703 Y-52.278 E14.2851
G1 X-49.778 Y-58.203 E14.6530
G1 X-49.690 Y-58.240 E14.6572
G1 X49.690 Y-58.240 E19.0203
G1 X49.778 Y-58.203 E19.0245
G1 X55.064 Y-52.918 E19.3527
G1 X55.703 Y-52.278 F1200
G1 X55.740 Y-52.190 F1200
; inner perimeter
G1 X44.300 Y-46.800 F9000
G92 E0
G1 X44.300 Y46.800 E4.1094 F1000
G1 X-44.300 Y46.800 E7.9992
G1 X-44.300 Y-46.800 E12.1086
G1 X43.300 Y-46.800 E15.9545
G1 X44.300 Y-46.800 F1000
; inner perimeter
G1 X44.780 Y-47.280 F9000
G92 E0
G1 X44.780 Y47.280 E4.1515 F800
G1 X-44.780 Y47.280 E8.0835
G1 X-44.780 Y-47.280 E12.2350
G1 X43.780 Y-47.280 E16.1231
G1 X44.780 Y-47.280 F800
; outer perimeter
G1 X45.260 Y-47.760 F9000
G92 E0
G1 X45.260 Y47.760 E4.1937 F600
G1 X-45.260 Y47.760 E8.1678
G1 X-45.260 Y-47.760 E12.3614
G1 X44.260 Y-47.760 E16.2917
G1 X45.260 Y-47.760 F600
G1 X45.260 Y-42.760 F3000
; solid layer
G1 X43.843 Y-46.440 F9000
G92 E0
G1 X43.940 Y-46.343 E0.0060 F960
G1 X43.940 Y-45.665 E0.0358
G1 X43.165 Y-46.440 E0.0839
G1 X42.486 Y-46.440 E0.1137
G1 X43.940 Y-44.986 E0.2040
G1 X43.940 Y-44.307 E0.2338
G1 X41.807 Y-46.440 E0.3663
G1 X41.128 Y-46.440 E0.3961
G1 X43.940 Y-43.628 E0.5707
G1 X43.940 Y-42.949 E0.6005
G1 X40.449 Y-46.440 E0.8172
G1 X39.770 Y-46.440 E0.8470
G1 X43.940 Y-42.270 E1.1059
G1 X43.940 Y-41.592 E1.1357
G1 X39.092 Y-46.440 E1.4367
G1 X38.413 Y-46.440 E1.4665
G1 X43.940 Y-40.913 E1.8097
G1 X43.940 Y-40.234 E1.8395
G1 X37.734 Y-46.440 E2.2248
G1 X37.055 Y-46.440 E2.2546
G1 X43.940 Y-39.555 E2.6821
G1 X43.940 Y-38.876 E2.7119
G1 X36.376 Y-46.440 E3.1815
G1 X35.698 Y-46.440 E3.2113
G1 X43.940 Y-38.198 E3.7231
G1 X43.940 Y-37.519 E3.7529
G1 X35.019 Y-46.440 E4.3068
G1 X34.340 Y-46.440 E4.3366
G1 X43.940 Y-36.840 E4.9327
G1 X43.940 Y-36.161 E4.9625
G1 X33.661 Y-46.440 E5.6007
G1 X32.982 Y-46.440 E5.6305
G1 X43.940 Y-35.482 E6.3108
G1 X43.940 Y-34.803 E6.3406
G1 X32.303 Y-46.440 E7.0631
G1 X31.625 Y-46.440 E7.0929
G1 X43.940 Y-34.125 E7.8576
G1 X43.940 Y-33.446 E7.8874
G1 X30.946 Y-46.440 E8.6942
G1 X30.267 Y-46.440 E8.7240
G1 X43.940 Y-32.767 E9.5729
G1 X43.940 Y-32.088 E9.6027
G1 X29.588 Y-46.440 E10.4938
G1 X28.909 Y-46.440 E10.5236
G1 X43.940 Y-31.409 E11.4569
G1 X43.940 Y-30.730 E11.4867
G1 X28.230 Y-46.440 E12.4620
G1 X27.552 Y-46.440 E12.4918
G1 X43.940 Y-30.052 E13.5094
G1 X43.940 Y-29.373 E13.5392
G1 X26.873 Y-46.440 E14.5989
G1 X26.194 Y-46.440 E14.6287
G1 X43.940 Y-28.694 E15.7305
G1 X43.940 Y-28.015 E15.7603
G1 X25.515 Y-46.440 E16.9043
G1 X24.836 Y-46.440 E16.9341
G1 X43.940 Y-27.336 E18.1202
G1 X43.940 Y-26.658 E18.1500
G1 X24.158 Y-46.440 E19.3783
G1 X23.479 Y-46.440 E19.4081
G1 X43.940 Y-25.979 E20.6785
G1 X43.940 Y-25.300 E20.7083
G1 X22.800 Y-46.440 E22.0208
G1 X22.121 Y-46.440 E22.0506
G1 X43.940 Y-24.621 E23.4053
G1 X43.940 Y-23.942 E23.4351
G1 X21.442 Y-46.440 E24.8320
G1 X20.763 Y-46.440 E24.8618
G1 X43.940 Y-23.263 E26.3008
G1 X43.940 Y-22.585 E26.3306
G1 X20.085 Y-46.440 E27.8118
G1 X19.406 Y-46.440 E27.8416
G1 X43.940 Y-21.906 E29.3649
G1 X43.940 Y-21.227 E29.3947
G1 X18.727 Y-46.440 E30.9601
G1 X18.048 Y-46.440 E30.9899
G1 X43.940 Y-20.548 E32.5975
G1 X43.940 Y-19.869 E32.6273
G1 X17.369 Y-46.440 E34.2771
G1 X16.691 Y-46.440 E34.3069
G1 X43.940 Y-19.191 E35.9987
G1 X43.940 Y-18.512 E36.0285
G1 X16.012 Y-46.440 E37.7626
G1 X15.333 Y-46.440 E37.7924
G1 X43.940 Y-17.833 E39.5686
G1 X43.940 Y-17.154 E39.5984
G1 X14.654 Y-46.440 E41.4167
G1 X13.975 Y-46.440 E41.4465
G1 X43.940 Y-16.475 E43.3070
G1 X43.940 Y-15.796 E43.3368
G1 X13.296 Y-46.440 E45.2394
G1 X12.618 Y-46.440 E45.2692
G1 X43.940 Y-15.118 E47.2140
G1 X43.940 Y-14.439 E47.2438
G1 X11.939 Y-46.440 E49.2307
G1 X11.260 Y-46.440 E49.2605
G1 X43.940 Y-13.760 E51.2896
G1 X43.940 Y-13.081 E51.3194
G1 X10.581 Y-46.440 E53.3906
G1 X9.902 Y-46.440 E53.4204
G1 X43.940 Y-12.402 E55.5337
G1 X43.940 Y-11.723 E55.5635
G1 X9.223 Y-46.440 E57.7190
G1 X8.545 Y-46.440 E57.7488
G1 X43.940 Y-11.045 E59.9465
G1 X43.940 Y-10.366 E59.9763
G1 X7.866 Y-46.440 E62.2161
G1 X7.187 Y-46.440 E62.2459
G1 X43.940 Y-9.687 E64.5279
G1 X43.940 Y-9.008 E64.5577
G1 X6.508 Y-46.440 E66.8818
G1 X5.829 Y-46.440 E66.9116
G1 X43.940 Y-8.329 E69.2778
G1 X43.940 Y-7.651 E69.3076
G1 X5.151 Y-46.440 E71.7160
G1 X4.472 Y-46.440 E71.7458
G1 X43.940 Y-6.972 E74.1963
G1 X43.940 Y-6.293 E74.2261
G1 X3.793 Y-46.440 E76.7188
G1 X3.114 Y-46.440 E76.7486
G1 X43.940 Y-5.614 E79.2835
G1 X43.940 Y-4.935 E79.3133
G1 X2.435 Y-46.440 E81.8902
G1 X1.756 Y-46.440 E81.9200
G1 X43.940 Y-4.256 E84.5392
G1 X43.940 Y-3.578 E84.5690
G1 X1.078 Y-46.440 E87.2302
G1 X0.399 Y-46.440 E87.2600
G1 X43.940 Y-2.899 E89.9635
G1 X43.940 Y-2.220 E89.9933
G1 X-0.280 Y-46.440 E92.7388
G1 X-0.959 Y-46.440 E92.7686
G1 X43.940 Y-1.541 E95.5564
G1 X43.940 Y-0.862 E95.5862
G1 X-1.638 Y-46.440 E98.4160
G1 X-2.317 Y-46.440 E98.4458
G1 X43.940 Y-0.183 E101.3178
G1 X43.940 Y0.495 E101.3476
G1 X-2.995 Y-46.440 E104.2618
G1 X-3.674 Y-46.440 E104.2916
G1 X43.940 Y1.174 E107.2479
G1 X43.940 Y1.853 E107.2777
G1 X-4.353 Y-46.440 E110.2762
G1 X-5.032 Y-46.440 E110.3060
G1 X43.940 Y2.532 E113.3466
G1 X43.940 Y3.211 E113.3764
G1 X-5.711 Y-46.440 E116.4591
G1 X-6.389 Y-46.440 E116.4889
G1 X43.940 Y3.889 E119.6138
G1 X43.940 Y4.568 E119.6436
G1 X-7.068 Y-46.440 E122.8106
G1 X-7.747 Y-46.440 E122.8405
G1 X43.940 Y5.247 E126.0496
G1 X43.940 Y5.926 E126.0794
G1 X-8.426 Y-46.440 E129.3308
G1 X-9.105 Y-46.440 E129.3606
G1 X43.940 Y6.605 E132.6541
G1 X43.940 Y7.284 E132.6839
G1 X-9.784 Y-46.440 E136.0195
G1 X-10.462 Y-46.440 E136.0493
G1 X43.940 Y7.962 E139.4271
G1 X43.940 Y8.641 E139.4569
G1 X-11.141 Y-46.440 E142.8768
G1 X-11.820 Y-46.440 E142.9066
G1 X43.940 Y9.320 E146.3687
G1 X43.940 Y9.999 E146.3985
G1 X-12.499 Y-46.440 E149.9027
G1 X-13.178 Y-46.440 E149.9325
G1 X43.940 Y10.678 E153.4789
G1 X43.940 Y11.357 E153.5087
G1 X-13.857 Y-46.440 E157.0972
G1 X-14.535 Y-46.440 E157.1270
G1 X43.940 Y12.035 E160.7576
G1 X43.940 Y12.714 E160.7874
G1 X-15.214 Y-46.440 E164.4603
G1 X-15.893 Y-46.440 E164.4901
G1 X43.940 Y13.393 E168.2050
G1 X43.940 Y14.072 E168.2348
G1 X-16.572 Y-46.440 E171.9919
G1 X-17.251 Y-46.440 E172.0217
G1 X43.940 Y14.751 E175.8210
G1 X43.940 Y15.429 E175.8508
G1 X-17.929 Y-46.440 E179.6922
G1 X-18.608 Y-46.440 E179.7220
G1 X43.940 Y16.108 E183.6055
G1 X43.940 Y16.787 E183.6353
G1 X-19.287 Y-46.440 E187.5610
G1 X-19.966 Y-46.440 E187.5908
G1 X43.940 Y17.466 E191.5586
G1 X43.940 Y18.145 E191.5885
G1 X-20.645 Y-46.440 E195.5984
G1 X-21.324 Y-46.440 E195.6282
G1 X43.940 Y18.824 E199.6804
G1 X43.940 Y19.502 E199.7102
G1 X-22.002 Y-46.440 E203.8045
G1 X-22.681 Y-46.440 E203.8343
G1 X43.940 Y20.181 E207.9707
G1 X43.940 Y20.860 E208.0005
G1 X-23.360 Y-46.440 E212.1791
G1 X-24.039 Y-46.440 E212.2089
G1 X43.940 Y21.539 E216.4296
G1 X43.940 Y22.218 E216.4594
G1 X-24.718 Y-46.440 E220.7223
G1 X-25.396 Y-46.440 E220.7521
G1 X43.940 Y22.896 E225.0571
G1 X43.940 Y23.575 E225.0869
G1 X-26.075 Y-46.440 E229.4340
G1 X-26.754 Y-46.440 E229.4638
G1 X43.940 Y24.254 E233.8532
G1 X43.940 Y24.933 E233.8830
G1 X-27.433 Y-46.440 E238.3144
G1 X-28.112 Y-46.440 E238.3442
G1 X43.940 Y25.612 E242.8178
G1 X43.940 Y26.291 E242.8476
G1 X-28.791 Y-46.440 E247.3634
G1 X-29.469 Y-46.440 E247.3932
G1 X43.940 Y26.969 E251.9511
G1 X43.940 Y27.648 E251.9809
G1 X-30.148 Y-46.440 E256.5809
G1 X-30.827 Y-46.440 E256.6107
G1 X43.940 Y28.327 E261.2529
G1 X43.940 Y29.006 E261.2827
G1 X-31.506 Y-46.440 E265.9671
G1 X-32.185 Y-46.440 E265.9969
G1 X43.940 Y29.685 E270.7234
G1 X43.940 Y30.364 E270.7532
G1 X-32.864 Y-46.440 E275.5218
G1 X-33.542 Y-46.440 E275.5516
G1 X43.940 Y31.042 E280.3624
G1 X43.940 Y31.721 E280.3922
G1 X-34.221 Y-46.440 E285.2451
G1 X-34.900 Y-46.440 E285.2749
G1 X43.940 Y32.400 E290.1700
G1 X43.940 Y33.079 E290.1998
G1 X-35.579 Y-46.440 E295.1370
G1 X-36.258 Y-46.440 E295.1668
G1 X43.940 Y33.758 E300.1462
G1 X43.940 Y34.436 E300.1760
G1 X-36.936 Y-46.440 E305.1975
G1 X-37.615 Y-46.440 E305.2273
G1 X43.940 Y35.115 E310.2910
G1 X43.940 Y35.794 E310.3208
G1 X-38.294 Y-46.440 E315.4266
G1 X-38.973 Y-46.440 E315.4564
G1 X43.940 Y36.473 E320.6044
G1 X43.940 Y37.152 E320.6342
G1 X-39.652 Y-46.440 E325.8243
G1 X-40.331 Y-46.440 E325.8541
G1 X43.940 Y37.831 E331.0863
G1 X43.940 Y38.509 E331.1161
G1 X-41.009 Y-46.440 E336.3905
G1 X-41.688 Y-46.440 E336.4204
G1 X43.940 Y39.188 E341.7369
G1 X43.940 Y39.867 E341.7667
G1 X-42.367 Y-46.440 E347.1254
G1 X-43.046 Y-46.440 E347.1552
G1 X43.940 Y40.546 E352.5560
G1 X43.940 Y41.225 E352.5859
G1 X-43.725 Y-46.440 E358.0288
G1 X-43.940 Y-46.440 E358.0383
G1 X-43.940 Y-45.976 E358.0586
G1 X43.940 Y41.904 E363.5150
G1 X43.940 Y42.582 E363.5448
G1 X-43.940 Y-45.298 E369.0012
G1 X-43.940 Y-44.619 E369.0310
G1 X43.940 Y43.261 E374.4873
G1 X43.940 Y43.940 E374.5171
G1 X-43.940 Y-43.940 E379.9735
G1 X-43.940 Y-43.261 E380.0033
G1 X43.940 Y44.619 E385.4597
G1 X43.940 Y45.298 E385.4895
G1 X-43.940 Y-42.582 E390.9458
G1 X-43.940 Y-41.904 E390.9756
G1 X43.940 Y45.976 E396.4320
G1 X43.940 Y46.440 E396.4523
G1 X43.725 Y46.440 E396.4618
G1 X-43.940 Y-41.225 E401.9048
G1 X-43.940 Y-40.546 E401.9346
G1 X43.046 Y46.440 E407.3354
G1 X42.367 Y46.440 E407.3652
G1 X-43.940 Y-39.867 E412.7239
G1 X-43.940 Y-39.188 E412.7537
G1 X41.688 Y46.440 E418.0703
G1 X41.009 Y46.440 E418.1001
G1 X-43.940 Y-38.509 E423.3745
G1 X-43.940 Y-37.831 E423.4043
G1 X40.331 Y46.440 E428.6365
G1 X39.652 Y46.440 E428.6663
G1 X-43.940 Y-37.152 E433.8565
G1 X-43.940 Y-36.473 E433.8863
G1 X38.973 Y46.440 E439.0342
G1 X38.294 Y46.440 E439.0640
