; G-Code generated by Simplify3D(R) Version 3.1.1
; Dec 10, 2016 at 3:41:57 AM
; Settings Summary
;   processName,Process1
;   applyToModels,cube
;   profileName,Rostock MAX v2 (modified)
;   profileVersion,2015-05-01 08:00:00
;   baseProfile,
;   printMaterial,Iron PLA
;   printQuality,Medium
;   printExtruders,
;   extruderName,Primary Extruder
;   extruderToolheadNumber,0
;   extruderDiameter,0.6
;   extruderAutoWidth,1
;   extruderWidth,0.72
;   extrusionMultiplier,1.1
;   extruderUseRetract,1
;   extruderRetractionDistance,2
;   extruderExtraRestartDistance,-0.2
;   extruderRetractionZLift,0
;   extruderRetractionSpeed,1800
;   extruderUseCoasting,1
;   extruderCoastingDistance,1
;   extruderUseWipe,0
;   extruderWipeDistance,5
;   primaryExtruder,0
;   layerHeight,0.3
;   topSolidLayers,3
;   bottomSolidLayers,3
;   perimeterOutlines,3
;   printPerimetersInsideOut,1
;   startPointOption,2
;   startPointOriginX,0
;   startPointOriginY,0
;   startPointOriginZ,300
;   sequentialIslands,0
;   spiralVaseMode,0
;   firstLayerHeightPercentage,25
;   firstLayerWidthPercentage,100
;   firstLayerUnderspeed,0.4
;   useRaft,0
;   raftExtruder,0
;   raftLayers,3
;   raftOffset,15
;   raftSeparationDistance,0.14
;   raftInfill,85
;   disableRaftBaseLayers,0
;   useSkirt,1
;   skirtExtruder,0
;   skirtLayers,1
;   skirtOutlines,2
;   skirtOffset,5
;   usePrimePillar,0
;   primePillarExtruder,999
;   primePillarWidth,12
;   primePillarLocation,7
;   primePillarSpeedMultiplier,1
;   useOozeShield,0
;   oozeShieldExtruder,999
;   oozeShieldOffset,2
;   oozeShieldOutlines,1
;   oozeShieldSidewallShape,1
;   oozeShieldSidewallAngle,30
;   oozeShieldSpeedMultiplier,1
;   infillExtruder,0
;   internalInfillPattern,Fast Honeycomb
;   externalInfillPattern,Rectilinear
;   infillPercentage,25
;   outlineOverlapPercentage,40
;   infillExtrusionWidthPercentage,100
;   minInfillLength,3
;   infillLayerInterval,1
;   infillAngles,0
;   overlapInfillAngles,0
;   generateSupport,0
;   supportExtruder,0
;   supportInfillPercentage,30
;   supportExtraInflation,0
;   denseSupportLayers,0
;   denseSupportInfillPercentage,70
;   supportLayerInterval,1
;   supportHorizontalPartOffset,0.3
;   supportUpperSeparationLayers,1
;   supportLowerSeparationLayers,1
;   supportType,0
;   supportGridSpacing,4
;   maxOverhangAngle,70
;   supportAngles,0
;   temperatureName,Primary Extruder,Heated Bed
;   temperatureNumber,0,1
;   temperatureSetpointCount,1,1
;   temperatureSetpointLayers,1,1
;   temperatureSetpointTemperatures,210,60
;   temperatureStabilizeAtStartup,1,1
;   temperatureHeatedBed,0,1
;   temperatureRelayBetweenLayers,0,0
;   temperatureRelayBetweenLoops,0,0
;   fanLayers,1,2
;   fanSpeeds,0,100
;   blipFanToFullPower,1
;   adjustSpeedForCooling,1
;   minSpeedLayerTime,5
;   minCoolingSpeedSlowdown,80
;   increaseFanForCooling,0
;   minFanLayerTime,60
;   maxCoolingFanSpeed,100
;   increaseFanForBridging,0
;   bridgingFanSpeed,100
;   use5D,1
;   relativeEdistances,0
;   allowEaxisZeroing,1
;   independentExtruderAxes,0
;   includeM10123,0
;   stickySupport,1
;   applyToolheadOffsets,0
;   gcodeXoffset,0
;   gcodeYoffset,0
;   gcodeZoffset,0
;   overrideMachineDefinition,1
;   machineTypeOverride,1
;   strokeXoverride,197
;   strokeYoverride,197
;   strokeZoverride,375
;   originOffsetXoverride,98.5
;   originOffsetYoverride,98.5
;   originOffsetZoverride,0
;   homeXdirOverride,0
;   homeYdirOverride,0
;   homeZdirOverride,1
;   flipXoverride,1
;   flipYoverride,-1
;   flipZoverride,1
;   toolheadOffsets,0,0|0,0|0,0|0,0|0,0|0,0
;   overrideFirmwareConfiguration,1
;   firmwareTypeOverride,RepRap (Marlin/Repetier/Sprinter)
;   GPXconfigOverride,r2
;   baudRateOverride,115200
;   overridePrinterModels,1
;   printerModelsOverride
;   startingGcode,G28 ; home all axes
;   layerChangeGcode,
;   retractionGcode,
;   toolChangeGcode,
;   endingGcode,M104 S0 ; turn off extruder,M140 S0 ; turn off bed,G28 ; home axes,M84 ; disable motors
;   exportFileFormat,gcode
;   celebration,0
;   celebrationSong,Random Song
;   postProcessing,
;   defaultSpeed,1000
;   outlineUnderspeed,0.5
;   solidInfillUnderspeed,0.8
;   supportUnderspeed,0.8
;   rapidXYspeed,9000
;   rapidZspeed,1200
;   minBridgingArea,50
;   bridgingExtraInflation,0
;   bridgingExtrusionMultiplier,0.8
;   bridgingSpeedMultiplier,1.25
;   filamentDiameter,1.75
;   filamentPricePerKg,22
;   filamentDensity,1.25
;   useMinPrintHeight,0
;   minPrintHeight,0.05
;   useMaxPrintHeight,0
;   maxPrintHeight,0
;   useDiaphragm,0
;   diaphragmLayerInterval,20
;   robustSlicing,1
;   mergeAllIntoSolid,0
;   onlyRetractWhenCrossingOutline,0
;   retractBetweenLayers,0
;   useRetractionMinTravel,0
;   retractionMinTravel,3
;   retractWhileWiping,1
;   onlyWipeOutlines,1
;   avoidCrossingOutline,1
;   maxMovementDetourFactor,1.5
;   toolChangeRetractionDistance,12
;   toolChangeExtraRestartDistance,-0.5
;   toolChangeRetractionSpeed,600
;   allowThinWallGapFill,1
;   thinWallAllowedOverlapPercentage,10
;   horizontalSizeCompensation,0
G90
M82
M106 S0
M140 S60
M190 S60
M104 S210 T0
M109 S210 T0
G28 ; home all axes
G92 E0
G1 E-2.0000 F1800
G1 Z0.075 F1200
; layer 1, Z = 0.075
T0
; tool H0.300 W0.720
; skirt
G1 X-2.482 Y14.907 F9000
G1 E-0.2000 F540
G92 E0
G1 X-21.285 Y14.907 E1.8573 F400
G1 X-22.735 Y15.508 E2.0124
G1 X-23.212 Y15.488 E2.0596
G1 X-26.158 Y13.964 E2.3873
G1 X-26.273 Y13.884 E2.4011
G1 X-27.341 Y12.916 E2.5435
G1 X-27.432 Y12.809 E2.5573
G1 X-28.490 Y11.179 E2.7493
G1 X-28.555 Y11.038 E2.7647
G1 X-29.011 Y9.499 E2.9232
G1 X-29.033 Y9.345 E2.9386
G1 X-29.033 Y-10.975 E4.9458
G1 X-29.013 Y-11.122 E4.9605
G1 X-28.596 Y-12.599 E5.1121
G1 X-28.536 Y-12.736 E5.1268
G1 X-27.790 Y-13.950 E5.2676
G1 X-27.754 Y-14.002 E5.2739
G1 X-27.351 Y-14.513 E5.3382
G1 X-27.308 Y-14.560 E5.3444
G1 X-24.806 Y-17.062 E5.6939
G1 X-24.262 Y-17.215 E5.7498
G1 X-21.624 Y-16.573 E6.0180
G1 X-2.007 Y-16.573 E7.9558
G1 X-1.611 Y-16.408 E7.9982
G1 X-0.421 Y-15.218 E8.1644
G1 X-0.374 Y-15.250 E8.1700
G1 X0.255 Y-15.613 E8.2418
G1 X0.319 Y-15.644 E8.2488
G1 X1.442 Y-16.110 E8.3688
G1 X1.509 Y-16.132 E8.3758
G1 X2.210 Y-16.320 E8.4475
G1 X2.279 Y-16.334 E8.4545
G1 X3.304 Y-16.469 E8.5566
G1 X3.340 Y-16.472 E8.5601
G1 X3.702 Y-16.496 E8.5960
G1 X3.737 Y-16.497 E8.5995
G1 X22.850 Y-16.497 E10.4875
G1 X22.885 Y-16.496 E10.4910
G1 X23.247 Y-16.472 E10.5268
G1 X23.282 Y-16.469 E10.5303
G1 X24.307 Y-16.334 E10.6324
G1 X24.377 Y-16.320 E10.6394
G1 X25.078 Y-16.132 E10.7111
G1 X25.145 Y-16.110 E10.7181
G1 X26.268 Y-15.644 E10.8382
G1 X26.331 Y-15.613 E10.8452
G1 X26.961 Y-15.250 E10.9169
G1 X27.019 Y-15.210 E10.9239
G1 X27.984 Y-14.470 E11.0440
G1 X28.037 Y-14.424 E11.0510
G1 X28.550 Y-13.911 E11.1227
G1 X28.597 Y-13.858 E11.1297
G1 X29.337 Y-12.893 E11.2497
G1 X29.376 Y-12.834 E11.2567
G1 X29.739 Y-12.205 E11.3285
G1 X29.770 Y-12.142 E11.3355
G1 X30.236 Y-11.019 E11.4556
G1 X30.258 Y-10.952 E11.4626
G1 X30.446 Y-10.251 E11.5343
G1 X30.460 Y-10.181 E11.5412
G1 X30.595 Y-9.156 E11.6434
G1 X30.598 Y-9.121 E11.6469
G1 X30.622 Y-8.759 E11.6827
G1 X30.623 Y-8.724 E11.6862
G1 X30.623 Y10.389 E13.5742
G1 X30.622 Y10.424 E13.5777
G1 X30.598 Y10.787 E13.6135
G1 X30.595 Y10.822 E13.6170
G1 X30.460 Y11.847 E13.7191
G1 X30.446 Y11.916 E13.7261
G1 X30.258 Y12.617 E13.7978
G1 X30.236 Y12.684 E13.8048
G1 X29.771 Y13.807 E13.9249
G1 X29.739 Y13.870 E13.9318
G1 X29.376 Y14.499 E14.0036
G1 X29.337 Y14.558 E14.0106
G1 X28.597 Y15.523 E14.1307
G1 X28.550 Y15.576 E14.1377
G1 X28.037 Y16.089 E14.2094
G1 X27.984 Y16.136 E14.2164
G1 X27.019 Y16.876 E14.3365
G1 X26.960 Y16.915 E14.3435
G1 X26.331 Y17.279 E14.4153
G1 X26.267 Y17.310 E14.4223
G1 X25.144 Y17.775 E14.5424
G1 X25.077 Y17.798 E14.5493
G1 X24.376 Y17.986 E14.6210
G1 X24.307 Y18.000 E14.6280
G1 X23.282 Y18.134 E14.7301
G1 X23.247 Y18.138 E14.7336
G1 X22.885 Y18.162 E14.7694
G1 X22.850 Y18.163 E14.7729
G1 X3.737 Y18.163 E16.6609
G1 X3.702 Y18.162 E16.6644
G1 X3.340 Y18.138 E16.7002
G1 X3.305 Y18.134 E16.7037
G1 X2.280 Y18.000 E16.8058
G1 X2.211 Y17.986 E16.8128
G1 X1.510 Y17.798 E16.8845
G1 X1.443 Y17.775 E16.8915
G1 X0.319 Y17.310 E17.0116
G1 X0.256 Y17.279 E17.0186
G1 X-0.374 Y16.915 E17.0904
G1 X-0.433 Y16.876 E17.0974
G1 X-1.397 Y16.136 E17.2175
G1 X-1.450 Y16.089 E17.2245
G1 X-1.855 Y15.684 E17.2810
G1 X-1.964 Y15.576 F400
G1 X-2.010 Y15.523 F400
G1 X-2.482 Y14.907 F400
G92 E0
G1 E-2.0000 F1800
G1 X-2.151 Y14.187 F9000
G1 E-0.2000 F1800
G92 E0
G1 X-21.428 Y14.187 E1.9043 F400
G1 X-22.864 Y14.782 E2.0578
G1 X-23.023 Y14.775 E2.0735
G1 X-25.786 Y13.346 E2.3808
G1 X-25.824 Y13.319 E2.3854
G1 X-26.823 Y12.414 E2.5186
G1 X-26.854 Y12.378 E2.5232
G1 X-27.858 Y10.831 E2.7055
G1 X-27.880 Y10.784 E2.7106
G1 X-28.306 Y9.344 E2.8589
G1 X-28.313 Y9.293 E2.8640
G1 X-28.313 Y-10.925 E4.8612
G1 X-28.306 Y-10.974 E4.8661
G1 X-27.916 Y-12.356 E5.0079
G1 X-27.896 Y-12.401 E5.0128
G1 X-27.187 Y-13.555 E5.1466
G1 X-27.175 Y-13.573 E5.1487
G1 X-26.798 Y-14.050 E5.2088
G1 X-26.784 Y-14.066 E5.2109
G1 X-24.431 Y-16.420 E5.5397
G1 X-24.249 Y-16.471 E5.5583
G1 X-21.711 Y-15.853 E5.8164
G1 X-2.151 Y-15.853 E7.7486
G1 X-2.018 Y-15.798 E7.7627
G1 X-0.484 Y-14.263 E7.9771
G1 X-0.013 Y-14.625 E8.0357
G1 X0.007 Y-14.638 E8.0381
G1 X0.595 Y-14.978 E8.1052
G1 X0.616 Y-14.988 E8.1075
G1 X1.696 Y-15.435 E8.2229
G1 X1.718 Y-15.443 E8.2253
G1 X2.374 Y-15.619 E8.2923
G1 X2.397 Y-15.623 E8.2946
G1 X3.387 Y-15.754 E8.3933
G1 X3.398 Y-15.755 E8.3944
G1 X3.737 Y-15.777 E8.4279
G1 X3.749 Y-15.777 E8.4291
G1 X22.838 Y-15.777 E10.3148
G1 X22.850 Y-15.777 E10.3160
G1 X23.188 Y-15.755 E10.3495
G1 X23.200 Y-15.754 E10.3506
G1 X24.190 Y-15.623 E10.4493
G1 X24.213 Y-15.619 E10.4516
G1 X24.869 Y-15.443 E10.5186
G1 X24.891 Y-15.435 E10.5210
G1 X25.971 Y-14.988 E10.6364
G1 X25.992 Y-14.978 E10.6387
G1 X26.580 Y-14.638 E10.7058
G1 X26.600 Y-14.625 E10.7082
G1 X27.527 Y-13.914 E10.8236
G1 X27.544 Y-13.898 E10.8259
G1 X28.024 Y-13.418 E10.8929
G1 X28.040 Y-13.401 E10.8953
G1 X28.751 Y-12.474 E11.0107
G1 X28.764 Y-12.454 E11.0130
G1 X29.104 Y-11.866 E11.0801
G1 X29.114 Y-11.844 E11.0825
G1 X29.561 Y-10.765 E11.1979
G1 X29.569 Y-10.743 E11.2002
G1 X29.745 Y-10.087 E11.2673
G1 X29.749 Y-10.064 E11.2696
G1 X29.880 Y-9.074 E11.3682
G1 X29.881 Y-9.062 E11.3694
G1 X29.903 Y-8.724 E11.4029
G1 X29.903 Y-8.712 E11.4041
G1 X29.903 Y10.377 E13.2898
G1 X29.903 Y10.389 E13.2909
G1 X29.881 Y10.728 E13.3244
G1 X29.880 Y10.739 E13.3256
G1 X29.749 Y11.729 E13.4242
G1 X29.745 Y11.752 E13.4265
G1 X29.569 Y12.408 E13.4936
G1 X29.561 Y12.430 E13.4959
G1 X29.114 Y13.510 E13.6113
G1 X29.104 Y13.531 E13.6136
G1 X28.765 Y14.119 E13.6807
G1 X28.751 Y14.139 E13.6831
G1 X28.040 Y15.066 E13.7985
G1 X28.025 Y15.083 E13.8008
G1 X27.545 Y15.563 E13.8679
G1 X27.527 Y15.579 E13.8702
G1 X26.600 Y16.291 E13.9857
G1 X26.580 Y16.304 E13.9880
G1 X25.991 Y16.644 E14.0551
G1 X25.970 Y16.654 E14.0575
G1 X24.890 Y17.101 E14.1729
G1 X24.868 Y17.109 E14.1752
G1 X24.213 Y17.284 E14.2423
G1 X24.189 Y17.289 E14.2446
G1 X23.200 Y17.419 E14.3432
G1 X23.188 Y17.420 E14.3444
G1 X22.850 Y17.442 E14.3779
G1 X22.838 Y17.443 E14.3790
G1 X3.749 Y17.443 E16.2647
G1 X3.737 Y17.442 E16.2659
G1 X3.399 Y17.420 E16.2994
G1 X3.387 Y17.419 E16.3005
G1 X2.397 Y17.289 E16.3991
G1 X2.374 Y17.284 E16.4015
G1 X1.719 Y17.109 E16.4685
G1 X1.696 Y17.101 E16.4708
G1 X0.617 Y16.654 E16.5863
G1 X0.595 Y16.644 E16.5886
G1 X0.007 Y16.304 E16.6558
G1 X-0.013 Y16.291 E16.6581
G1 X-0.940 Y15.579 E16.7735
G1 X-0.958 Y15.563 E16.7759
G1 X-1.438 Y15.083 E16.8429
G1 X-1.453 Y15.066 E16.8453
G1 X-1.536 Y14.958 E16.8587
G1 X-2.133 Y14.180 F400
G1 X-2.151 Y14.187 F400
G92 E0
G1 E-2.0000 F1800
; inner perimeter
G1 X3.843 Y10.283 F9000
G1 E-0.2000 F1800
G92 E0
G1 X3.843 Y8.782 E0.1483 F333
G1 X5.233 Y9.357 E0.2968
G1 X6.143 Y9.477 E0.3875
G1 X13.418 Y9.476 E1.1062
G1 X14.324 Y9.357 E1.1964
G1 X15.282 Y8.960 E1.2988
G1 X16.104 Y8.329 E1.4012
G1 X16.811 Y7.408 E1.5159
G1 X17.518 Y8.329 E1.6306
G1 X18.341 Y8.960 E1.7331
G1 X19.299 Y9.357 E1.8355
G1 X20.327 Y9.492 E1.9379
G1 X21.355 Y9.357 E2.0404
G1 X22.743 Y8.782 E2.1888
G1 X22.743 Y10.283 E2.3371
G1 X4.843 Y10.283 E4.1053
G1 X3.843 Y10.283 F333
G92 E0
G1 E-2.0000 F1800
G1 X9.762 Y-5.719 F9000
G1 E-0.2000 F1800
G92 E0
G1 X9.235 Y-6.484 E0.0917 F333
G1 X8.514 Y-7.123 E0.1869
G1 X7.664 Y-7.568 E0.2817
G1 X6.734 Y-7.797 E0.3763
G1 X5.775 Y-7.795 E0.4710
G1 X4.846 Y-7.565 E0.5656
G1 X3.843 Y-7.037 E0.6775
G1 X3.843 Y-8.617 E0.8337
G1 X22.743 Y-8.617 E2.7007
G1 X22.743 Y-7.116 E2.8489
G1 X21.355 Y-7.692 E2.9974
G1 X20.445 Y-7.811 E3.0881
G1 X13.173 Y-7.811 E3.8064
G1 X12.267 Y-7.692 E3.8966
G1 X11.309 Y-7.295 E3.9991
G1 X10.487 Y-6.664 E4.1015
G1 X10.371 Y-6.513 E4.1203
G1 X9.762 Y-5.719 F333
G92 E0
G1 E-2.0000 F1800
; inner perimeter
G1 X3.238 Y10.601 F9000
G1 E-0.2000 F1800
G92 E0
G1 X3.159 Y10.411 E0.0203 F267
G1 X3.123 Y10.137 E0.0476
G1 X3.123 Y6.719 E0.3853
G1 X3.966 Y7.816 E0.5219
G1 X4.638 Y8.332 E0.6056
G1 X5.421 Y8.656 E0.6893
G1 X6.190 Y8.757 E0.7659
G1 X13.371 Y8.756 E1.4753
G1 X14.136 Y8.656 E1.5515
G1 X14.919 Y8.331 E1.6352
G1 X15.591 Y7.816 E1.7189
G1 X16.107 Y7.143 E1.8026
G1 X16.431 Y6.360 E1.8863
G1 X16.559 Y5.391 E1.9829
G1 X17.064 Y5.391 E2.0328
G1 X17.191 Y6.360 E2.1294
G1 X17.516 Y7.143 E2.2131
G1 X18.032 Y7.816 E2.2968
G1 X18.704 Y8.331 E2.3805
G1 X19.487 Y8.656 E2.4643
G1 X20.327 Y8.766 E2.5480
G1 X21.167 Y8.656 E2.6317
G1 X21.950 Y8.331 E2.7154
G1 X22.622 Y7.816 E2.7991
G1 X23.463 Y6.719 E2.9356
G1 X23.463 Y10.137 E3.2732
G1 X23.427 Y10.411 E3.3005
G1 X23.349 Y10.601 E3.3208
G1 X23.224 Y10.763 E3.3411
G1 X23.061 Y10.888 E3.3613
G1 X22.872 Y10.967 E3.3815
G1 X22.598 Y11.003 E3.4089
G1 X4.097 Y11.003 E5.2364
G1 X3.989 Y11.003 F267
G1 X3.715 Y10.967 F267
G1 X3.526 Y10.888 F267
G1 X3.363 Y10.763 F267
G1 X3.238 Y10.601 F267
G92 E0
G1 E-2.0000 F1800
G1 X3.123 Y-4.983 F9000
G1 E-0.2000 F1800
G92 E0
G1 X3.123 Y-8.471 E0.3446 F267
G1 X3.159 Y-8.746 E0.3720
G1 X3.238 Y-8.935 E0.3922
G1 X3.363 Y-9.098 E0.4125
G1 X3.526 Y-9.223 E0.4327
G1 X3.715 Y-9.301 E0.4530
G1 X3.989 Y-9.337 E0.4803
G1 X22.598 Y-9.337 E2.3185
G1 X22.872 Y-9.301 E2.3458
G1 X23.061 Y-9.223 E2.3661
G1 X23.224 Y-9.098 E2.3863
G1 X23.349 Y-8.935 E2.4066
G1 X23.427 Y-8.746 E2.4268
G1 X23.463 Y-8.471 E2.4542
G1 X23.463 Y-5.054 E2.7918
G1 X22.622 Y-6.150 E2.9283
G1 X21.950 Y-6.666 E3.0120
G1 X21.167 Y-6.990 E3.0957
G1 X20.398 Y-7.091 E3.1724
G1 X13.220 Y-7.091 E3.8814
G1 X12.455 Y-6.990 E3.9576
G1 X11.673 Y-6.666 E4.0413
G1 X11.000 Y-6.150 E4.1250
G1 X10.484 Y-5.478 E4.2087
G1 X10.160 Y-4.695 E4.2924
G1 X10.030 Y-3.708 E4.3907
G1 X9.523 Y-3.711 E4.4408
G1 X9.411 Y-4.631 E4.5324
G1 X9.133 Y-5.363 E4.6097
G1 X8.692 Y-6.003 E4.6865
G1 X8.102 Y-6.526 E4.7644
G1 X7.408 Y-6.890 E4.8418
G1 X6.647 Y-7.077 E4.9192
G1 X5.864 Y-7.076 E4.9965
G1 X5.104 Y-6.887 E5.0739
G1 X4.411 Y-6.522 E5.1512
G1 X3.827 Y-6.002 E5.2285
G1 X3.691 Y-5.806 E5.2521
G1 X3.123 Y-4.983 F267
G92 E0
G1 E-2.0000 F1800
; outer perimeter
G1 X2.609 Y10.964 F9000
G1 E-0.2000 F1800
G92 E0
G1 X2.458 Y10.599 E0.0390 F200
G1 X2.403 Y10.184 E0.0803
G1 X2.403 Y-8.519 E1.9278
G1 X2.458 Y-8.934 E1.9692
G1 X2.609 Y-9.298 E2.0082
G1 X2.849 Y-9.611 E2.0471
G1 X3.162 Y-9.852 E2.0861
G1 X3.527 Y-10.003 E2.1251
G1 X3.942 Y-10.057 E2.1665
G1 X22.645 Y-10.057 E4.0140
G1 X23.060 Y-10.003 E4.0553
G1 X23.424 Y-9.852 E4.0943
G1 X23.737 Y-9.611 E4.1333
G1 X23.978 Y-9.298 E4.1723
G1 X24.129 Y-8.934 E4.2113
G1 X24.183 Y-8.519 E4.2526
G1 X24.183 Y10.184 E6.1001
G1 X24.129 Y10.599 E6.1414
G1 X23.978 Y10.964 E6.1804
G1 X23.737 Y11.277 E6.2194
G1 X23.424 Y11.517 E6.2584
G1 X23.060 Y11.668 E6.2974
G1 X22.645 Y11.723 E6.3387
G1 X3.942 Y11.723 E8.1863
G1 X3.527 Y11.668 E8.2276
G1 X3.357 Y11.598 E8.2458
G1 X3.162 Y11.517 F200
G1 X2.849 Y11.277 F200
G1 X2.609 Y10.964 F200
G92 E0
G1 E-2.0000 F1800
; inner perimeter
; inner perimeter
; outer perimeter
G1 X4.479 Y7.302 F9000
G1 E-0.2000 F1800
G92 E0
G1 X5.001 Y7.703 E0.0650 F200
G1 X5.609 Y7.954 E0.1300
G1 X6.237 Y8.037 E0.1926
G1 X13.324 Y8.036 E0.8926
G1 X13.948 Y7.954 E0.9548
G1 X14.555 Y7.702 E1.0198
