; G-Code generated by Simplify3D(R) Version 3.1.1
; Dec 10, 2016 at 1:14:08 PM
; Settings Summary
;   processName,Process1
;   applyToModels,pieces
;   profileName,Rostock MAX v2 (modified)
;   profileVersion,2015-05-01 08:00:00
;   baseProfile,
;   printMaterial,PLA
;   printQuality,Medium
;   printExtruders,
;   extruderName,Primary Extruder
;   extruderToolheadNumber,0
;   extruderDiameter,0.4
;   extruderAutoWidth,1
;   extruderWidth,0.48
;   extrusionMultiplier,1.1
;   extruderUseRetract,1
;   extruderRetractionDistance,5
;   extruderExtraRestartDistance,0
;   extruderRetractionZLift,1
;   extruderRetractionSpeed,1600
;   extruderUseCoasting,1
;   extruderCoastingDistance,0.2
;   extruderUseWipe,1
;   extruderWipeDistance,5
;   primaryExtruder,0
;   layerHeight,0.2
;   topSolidLayers,3
;   bottomSolidLayers,3
;   perimeterOutlines,3
;   printPerimetersInsideOut,1
;   startPointOption,2
;   startPointOriginX,0
;   startPointOriginY,0
;   startPointOriginZ,300
;   sequentialIslands,0
;   spiralVaseMode,0
;   firstLayerHeightPercentage,25
;   firstLayerWidthPercentage,100
;   firstLayerUnderspeed,0.25
;   useRaft,0
;   raftExtruder,0
;   raftLayers,3
;   raftOffset,15
;   raftSeparationDistance,0.14
;   raftInfill,85
;   disableRaftBaseLayers,0
;   useSkirt,1
;   skirtExtruder,0
;   skirtLayers,1
;   skirtOutlines,2
;   skirtOffset,5
;   usePrimePillar,0
;   primePillarExtruder,999
;   primePillarWidth,12
;   primePillarLocation,7
;   primePillarSpeedMultiplier,1
;   useOozeShield,0
;   oozeShieldExtruder,999
;   oozeShieldOffset,2
;   oozeShieldOutlines,1
;   oozeShieldSidewallShape,1
;   oozeShieldSidewallAngle,30
;   oozeShieldSpeedMultiplier,1
;   infillExtruder,0
;   internalInfillPattern,Fast Honeycomb
;   externalInfillPattern,Rectilinear
;   infillPercentage,100
;   outlineOverlapPercentage,40
;   infillExtrusionWidthPercentage,100
;   minInfillLength,3
;   infillLayerInterval,1
;   infillAngles,0
;   overlapInfillAngles,0
;   generateSupport,0
;   supportExtruder,0
;   supportInfillPercentage,30
;   supportExtraInflation,0
;   denseSupportLayers,0
;   denseSupportInfillPercentage,70
;   supportLayerInterval,1
;   supportHorizontalPartOffset,0.3
;   supportUpperSeparationLayers,1
;   supportLowerSeparationLayers,1
;   supportType,1
;   supportGridSpacing,4
;   maxOverhangAngle,45
;   supportAngles,0
;   temperatureName,Primary Extruder,Heated Bed
;   temperatureNumber,0,1
;   temperatureSetpointCount,1,1
;   temperatureSetpointLayers,1,1
;   temperatureSetpointTemperatures,205,60
;   temperatureStabilizeAtStartup,1,1
;   temperatureHeatedBed,0,1
;   temperatureRelayBetweenLayers,0,0
;   temperatureRelayBetweenLoops,0,0
;   fanLayers,1,2
;   fanSpeeds,0,100
;   blipFanToFullPower,1
;   adjustSpeedForCooling,1
;   minSpeedLayerTime,15
;   minCoolingSpeedSlowdown,20
;   increaseFanForCooling,0
;   minFanLayerTime,60
;   maxCoolingFanSpeed,100
;   increaseFanForBridging,0
;   bridgingFanSpeed,100
;   use5D,1
;   relativeEdistances,0
;   allowEaxisZeroing,1
;   independentExtruderAxes,0
;   includeM10123,0
;   stickySupport,1
;   applyToolheadOffsets,0
;   gcodeXoffset,0
;   gcodeYoffset,0
;   gcodeZoffset,0
;   overrideMachineDefinition,1
;   machineTypeOverride,1
;   strokeXoverride,197
;   strokeYoverride,197
;   strokeZoverride,375
;   originOffsetXoverride,98.5
;   originOffsetYoverride,98.5
;   originOffsetZoverride,0
;   homeXdirOverride,0
;   homeYdirOverride,0
;   homeZdirOverride,1
;   flipXoverride,1
;   flipYoverride,-1
;   flipZoverride,1
;   toolheadOffsets,0,0|0,0|0,0|0,0|0,0|0,0
;   overrideFirmwareConfiguration,1
;   firmwareTypeOverride,RepRap (Marlin/Repetier/Sprinter)
;   GPXconfigOverride,r2
;   baudRateOverride,115200
;   overridePrinterModels,1
;   printerModelsOverride
;   startingGcode,G28 ; home all axes
;   layerChangeGcode,
;   retractionGcode,
;   toolChangeGcode,
;   endingGcode,M104 S0 ; turn off extruder,M140 S0 ; turn off bed,G28 ; home axes,M84 ; disable motors
;   exportFileFormat,gcode
;   celebration,0
;   celebrationSong,Random Song
;   postProcessing,
;   defaultSpeed,3000
;   outlineUnderspeed,0.5
;   solidInfillUnderspeed,0.8
;   supportUnderspeed,0.8
;   rapidXYspeed,9000
;   rapidZspeed,1200
;   minBridgingArea,50
;   bridgingExtraInflation,0
;   bridgingExtrusionMultiplier,0.8
;   bridgingSpeedMultiplier,0.7
;   filamentDiameter,1.75
;   filamentPricePerKg,22
;   filamentDensity,1.25
;   useMinPrintHeight,0
;   minPrintHeight,0.05
;   useMaxPrintHeight,0
;   maxPrintHeight,0
;   useDiaphragm,0
;   diaphragmLayerInterval,20
;   robustSlicing,1
;   mergeAllIntoSolid,0
;   onlyRetractWhenCrossingOutline,0
;   retractBetweenLayers,0
;   useRetractionMinTravel,0
;   retractionMinTravel,3
;   retractWhileWiping,1
;   onlyWipeOutlines,1
;   avoidCrossingOutline,1
;   maxMovementDetourFactor,2
;   toolChangeRetractionDistance,12
;   toolChangeExtraRestartDistance,-0.5
;   toolChangeRetractionSpeed,600
;   allowThinWallGapFill,1
;   thinWallAllowedOverlapPercentage,10
;   horizontalSizeCompensation,0
G90
M82
M106 S0
M140 S60
M190 S60
M104 S205 T0
M109 S205 T0
G28 ; home all axes
G92 E0
G1 E-5.0000 F1600
G1 Z1.050 F1200
; layer 1, Z = 0.05
T0
; tool H0.200 W0.480
; skirt
G1 X-4.410 Y8.828 F9000
G1 Z0.050 F1200
G1 E0.0000 F480
G92 E0
G1 X-4.490 Y8.932 E0.0057 F750
G1 X-4.521 Y8.967 E0.0078
G1 X-5.017 Y9.464 E0.0387
G1 X-5.053 Y9.495 E0.0407
G1 X-7.125 Y11.085 E0.1554
G1 X-7.164 Y11.111 E0.1574
G1 X-7.772 Y11.462 E0.1883
G1 X-7.815 Y11.483 E0.1904
G1 X-10.227 Y12.482 E0.3050
G1 X-10.272 Y12.498 E0.3071
G1 X-10.951 Y12.680 E0.3379
G1 X-10.997 Y12.689 E0.3400
G1 X-13.586 Y13.030 E0.4547
G1 X-13.633 Y13.033 E0.4567
G1 X-14.336 Y13.033 E0.4876
G1 X-14.383 Y13.030 E0.4896
G1 X-16.972 Y12.689 E0.6043
G1 X-17.018 Y12.680 E0.6064
G1 X-17.697 Y12.498 E0.6372
G1 X-17.741 Y12.482 E0.6393
G1 X-20.154 Y11.483 E0.7539
G1 X-20.197 Y11.462 E0.7560
G1 X-20.805 Y11.111 E0.7869
G1 X-20.844 Y11.085 E0.7889
G1 X-22.916 Y9.495 E0.9036
G1 X-22.951 Y9.464 E0.9056
G1 X-23.448 Y8.967 E0.9365
G1 X-23.479 Y8.932 E0.9386
G1 X-25.069 Y6.860 E1.0532
G1 X-25.095 Y6.821 E1.0553
G1 X-25.447 Y6.212 E1.0861
G1 X-25.467 Y6.170 E1.0882
G1 X-26.467 Y3.757 E1.2029
G1 X-26.482 Y3.713 E1.2049
G1 X-26.664 Y3.034 E1.2358
G1 X-26.673 Y2.988 E1.2378
G1 X-27.014 Y0.398 E1.3525
G1 X-27.017 Y0.351 E1.3546
G1 X-27.017 Y-0.351 E1.3854
G1 X-27.014 Y-0.398 E1.3875
G1 X-26.673 Y-2.987 E1.5021
G1 X-26.664 Y-3.034 E1.5042
G1 X-26.482 Y-3.712 E1.5350
G1 X-26.467 Y-3.757 E1.5371
G1 X-25.467 Y-6.170 E1.6518
G1 X-25.447 Y-6.212 E1.6538
G1 X-25.095 Y-6.820 E1.6847
G1 X-25.069 Y-6.859 E1.6868
G1 X-23.479 Y-8.931 E1.8014
G1 X-23.448 Y-8.967 E1.8035
G1 X-22.951 Y-9.464 E1.8343
G1 X-22.916 Y-9.495 E1.8364
G1 X-20.844 Y-11.085 E1.9510
G1 X-20.805 Y-11.111 E1.9531
G1 X-20.197 Y-11.462 E1.9840
G1 X-20.154 Y-11.483 E1.9860
G1 X-17.741 Y-12.482 E2.1007
G1 X-17.697 Y-12.497 E2.1028
G1 X-17.018 Y-12.679 E2.1336
G1 X-16.972 Y-12.688 E2.1357
G1 X-14.383 Y-13.029 E2.2503
G1 X-14.336 Y-13.032 E2.2524
G1 X-13.633 Y-13.032 E2.2832
G1 X-13.586 Y-13.029 E2.2853
G1 X-10.997 Y-12.688 E2.4000
G1 X-10.951 Y-12.679 E2.4020
G1 X-10.272 Y-12.497 E2.4329
G1 X-10.227 Y-12.482 E2.4350
G1 X-7.815 Y-11.483 E2.5496
G1 X-7.772 Y-11.462 E2.5517
G1 X-7.164 Y-11.111 E2.5825
G1 X-7.125 Y-11.085 E2.5846
G1 X-5.053 Y-9.495 E2.6993
G1 X-5.017 Y-9.464 E2.7013
G1 X-4.521 Y-8.967 E2.7322
G1 X-4.489 Y-8.931 E2.7342
G1 X-4.478 Y-8.917 E2.7351
G1 X-3.206 Y-10.189 E2.8140
G1 X-2.941 Y-10.298 E2.8266
G1 X11.060 Y-10.298 E3.4413
G1 X11.325 Y-10.189 E3.4539
G1 X14.456 Y-7.057 E3.6483
G1 X14.566 Y-6.793 E3.6609
G1 X14.566 Y-4.337 E3.7687
G1 X14.866 Y-4.567 E3.7853
G1 X14.905 Y-4.593 E3.7874
G1 X15.513 Y-4.945 E3.8182
G1 X15.555 Y-4.965 E3.8203
G1 X16.722 Y-5.449 E3.8757
G1 X16.766 Y-5.464 E3.8778
G1 X17.446 Y-5.646 E3.9087
G1 X17.492 Y-5.655 E3.9107
G1 X18.743 Y-5.820 E3.9661
G1 X18.790 Y-5.823 E3.9682
G1 X19.492 Y-5.823 E3.9990
G1 X19.539 Y-5.820 E4.0011
G1 X20.791 Y-5.655 E4.0565
G1 X20.837 Y-5.646 E4.0586
G1 X21.516 Y-5.464 E4.0894
G1 X21.561 Y-5.449 E4.0915
G1 X22.727 Y-4.965 E4.1469
G1 X22.769 Y-4.945 E4.1490
G1 X23.378 Y-4.593 E4.1799
G1 X23.417 Y-4.567 E4.1819
G1 X24.418 Y-3.799 E4.2373
G1 X24.453 Y-3.768 E4.2394
G1 X24.950 Y-3.271 E4.2702
G1 X24.981 Y-3.236 E4.2723
G1 X25.749 Y-2.234 E4.3277
G1 X25.776 Y-2.195 E4.3298
G1 X26.127 Y-1.586 E4.3607
G1 X26.148 Y-1.544 E4.3627
G1 X26.631 Y-0.378 E4.4181
G1 X26.646 Y-0.333 E4.4202
G1 X26.828 Y0.345 E4.4510
G1 X26.837 Y0.391 E4.4531
G1 X27.002 Y1.643 E4.5085
G1 X27.005 Y1.690 E4.5106
G1 X27.005 Y2.393 E4.5415
G1 X27.002 Y2.440 E4.5435
G1 X26.837 Y3.691 E4.5989
G1 X26.828 Y3.737 E4.6010
G1 X26.646 Y4.416 E4.6318
G1 X26.631 Y4.460 E4.6339
G1 X26.148 Y5.626 E4.6893
G1 X26.127 Y5.669 E4.6914
G1 X25.776 Y6.277 E4.7223
G1 X25.749 Y6.317 E4.7243
G1 X24.981 Y7.318 E4.7797
G1 X24.950 Y7.353 E4.7818
G1 X24.453 Y7.850 E4.8126
G1 X24.418 Y7.881 E4.8147
G1 X23.417 Y8.649 E4.8701
G1 X23.378 Y8.676 E4.8722
G1 X22.769 Y9.027 E4.9031
G1 X22.727 Y9.048 E4.9051
G1 X21.560 Y9.531 E4.9605
G1 X21.516 Y9.546 E4.9626
G1 X20.837 Y9.728 E4.9934
G1 X20.791 Y9.737 E4.9955
G1 X19.540 Y9.902 E5.0509
G1 X19.493 Y9.905 E5.0530
G1 X18.790 Y9.905 E5.0839
G1 X18.743 Y9.902 E5.0859
G1 X17.491 Y9.737 E5.1413
G1 X17.445 Y9.728 E5.1434
G1 X16.767 Y9.546 E5.1742
G1 X16.722 Y9.531 E5.1763
G1 X15.556 Y9.048 E5.2317
G1 X15.514 Y9.027 E5.2338
G1 X14.905 Y8.676 E5.2647
G1 X14.866 Y8.649 E5.2667
G1 X13.864 Y7.881 E5.3221
G1 X13.829 Y7.850 E5.3242
G1 X13.668 Y7.689 E5.3342
G1 X11.325 Y10.032 E5.4797
G1 X11.060 Y10.142 E5.4923
G1 X-2.941 Y10.142 E6.1070
G1 X-3.206 Y10.032 E6.1196
G1 X-4.269 Y8.969 E6.1855
G1 X-4.410 Y8.828 F750
G92 E0
G1 E-5.0000 F1600
G1 Z1.050 F1200
G1 X-4.861 Y8.627 F9000
G1 Z0.050 F1200
G1 E0.0000 F1600
G92 E0
G1 X-4.871 Y8.639 E0.0007 F750
G1 X-5.346 Y9.113 E0.0302
G1 X-5.357 Y9.124 E0.0308
G1 X-7.404 Y10.694 E0.1441
G1 X-7.417 Y10.703 E0.1448
G1 X-7.999 Y11.039 E0.1743
G1 X-8.013 Y11.046 E0.1750
G1 X-10.397 Y12.033 E0.2882
G1 X-10.411 Y12.038 E0.2889
G1 X-11.060 Y12.212 E0.3184
G1 X-11.075 Y12.215 E0.3191
G1 X-13.633 Y12.552 E0.4324
G1 X-13.649 Y12.553 E0.4331
G1 X-14.320 Y12.553 E0.4625
G1 X-14.336 Y12.552 E0.4632
G1 X-16.894 Y12.215 E0.5765
G1 X-16.909 Y12.212 E0.5772
G1 X-17.557 Y12.038 E0.6066
G1 X-17.572 Y12.033 E0.6073
G1 X-19.956 Y11.046 E0.7206
G1 X-19.970 Y11.039 E0.7213
G1 X-20.551 Y10.703 E0.7508
G1 X-20.564 Y10.694 E0.7515
G1 X-22.611 Y9.124 E0.8647
G1 X-22.623 Y9.113 E0.8654
G1 X-23.098 Y8.639 E0.8949
G1 X-23.108 Y8.627 E0.8956
G1 X-24.679 Y6.580 E1.0088
G1 X-24.687 Y6.567 E1.0095
G1 X-25.023 Y5.986 E1.0390
G1 X-25.030 Y5.972 E1.0397
G1 X-26.017 Y3.588 E1.1530
G1 X-26.022 Y3.573 E1.1537
G1 X-26.196 Y2.925 E1.1831
G1 X-26.199 Y2.909 E1.1838
G1 X-26.536 Y0.351 E1.2971
G1 X-26.537 Y0.336 E1.2978
G1 X-26.537 Y-0.335 E1.3272
G1 X-26.536 Y-0.351 E1.3279
G1 X-26.199 Y-2.909 E1.4412
G1 X-26.196 Y-2.925 E1.4419
G1 X-26.022 Y-3.573 E1.4714
G1 X-26.017 Y-3.588 E1.4721
G1 X-25.030 Y-5.971 E1.5853
G1 X-25.023 Y-5.986 E1.5860
G1 X-24.687 Y-6.567 E1.6155
G1 X-24.679 Y-6.580 E1.6162
G1 X-23.108 Y-8.627 E1.7294
G1 X-23.098 Y-8.639 E1.7301
G1 X-22.623 Y-9.113 E1.7596
G1 X-22.611 Y-9.123 E1.7603
G1 X-20.564 Y-10.694 E1.8736
G1 X-20.551 Y-10.703 E1.8743
G1 X-19.970 Y-11.038 E1.9037
G1 X-19.956 Y-11.045 E1.9044
G1 X-17.572 Y-12.033 E2.0177
G1 X-17.557 Y-12.038 E2.0184
G1 X-16.909 Y-12.212 E2.0478
G1 X-16.894 Y-12.215 E2.0485
G1 X-14.336 Y-12.551 E2.1618
G1 X-14.320 Y-12.552 E2.1625
G1 X-13.649 Y-12.552 E2.1920
G1 X-13.633 Y-12.551 E2.1927
G1 X-11.075 Y-12.215 E2.3059
G1 X-11.060 Y-12.212 E2.3066
G1 X-10.411 Y-12.038 E2.3361
G1 X-10.397 Y-12.033 E2.3368
G1 X-8.013 Y-11.045 E2.4501
G1 X-7.999 Y-11.038 E2.4507
G1 X-7.417 Y-10.703 E2.4802
G1 X-7.404 Y-10.694 E2.4809
G1 X-5.357 Y-9.123 E2.5942
G1 X-5.346 Y-9.113 E2.5949
G1 X-4.871 Y-8.639 E2.6243
G1 X-4.861 Y-8.627 E2.6250
G1 X-4.526 Y-8.190 E2.6492
G1 X-2.934 Y-9.782 E2.7480
G1 X-2.846 Y-9.818 E2.7522
G1 X10.964 Y-9.818 E3.3585
G1 X11.053 Y-9.782 E3.3627
G1 X14.049 Y-6.785 E3.5487
G1 X14.086 Y-6.697 E3.5529
G1 X14.086 Y-3.345 E3.7001
G1 X14.157 Y-3.417 E3.7045
G1 X14.169 Y-3.427 E3.7052
G1 X15.145 Y-4.177 E3.7593
G1 X15.158 Y-4.185 E3.7599
G1 X15.740 Y-4.521 E3.7894
G1 X15.754 Y-4.528 E3.7901
G1 X16.891 Y-4.999 E3.8441
G1 X16.906 Y-5.004 E3.8448
G1 X17.555 Y-5.178 E3.8743
G1 X17.570 Y-5.181 E3.8750
G1 X18.790 Y-5.342 E3.9290
G1 X18.806 Y-5.343 E3.9297
G1 X19.477 Y-5.343 E3.9592
G1 X19.492 Y-5.342 E3.9599
G1 X20.712 Y-5.181 E4.0139
G1 X20.728 Y-5.178 E4.0146
G1 X21.377 Y-5.004 E4.0441
G1 X21.391 Y-4.999 E4.0448
G1 X22.529 Y-4.528 E4.0988
G1 X22.543 Y-4.521 E4.0995
G1 X23.124 Y-4.185 E4.1290
G1 X23.137 Y-4.177 E4.1297
G1 X24.113 Y-3.427 E4.1837
G1 X24.125 Y-3.417 E4.1844
G1 X24.599 Y-2.943 E4.2138
G1 X24.610 Y-2.931 E4.2145
G1 X25.359 Y-1.955 E4.2685
G1 X25.368 Y-1.942 E4.2692
G1 X25.704 Y-1.360 E4.2987
G1 X25.711 Y-1.346 E4.2994
G1 X26.182 Y-0.209 E4.3534
G1 X26.187 Y-0.194 E4.3541
G1 X26.360 Y0.454 E4.3836
G1 X26.363 Y0.470 E4.3843
G1 X26.524 Y1.690 E4.4383
G1 X26.525 Y1.705 E4.4390
G1 X26.525 Y2.377 E4.4685
G1 X26.524 Y2.392 E4.4692
G1 X26.363 Y3.613 E4.5232
G1 X26.360 Y3.628 E4.5239
G1 X26.187 Y4.276 E4.5534
G1 X26.182 Y4.291 E4.5540
G1 X25.711 Y5.428 E4.6081
G1 X25.704 Y5.442 E4.6088
G1 X25.368 Y6.024 E4.6382
G1 X25.359 Y6.037 E4.6389
G1 X24.610 Y7.013 E4.6930
G1 X24.599 Y7.025 E4.6937
G1 X24.125 Y7.499 E4.7231
G1 X24.113 Y7.510 E4.7238
G1 X23.137 Y8.259 E4.7778
G1 X23.124 Y8.268 E4.7785
G1 X22.542 Y8.604 E4.8080
G1 X22.528 Y8.610 E4.8087
G1 X21.391 Y9.081 E4.8627
G1 X21.376 Y9.086 E4.8634
G1 X20.728 Y9.260 E4.8929
G1 X20.713 Y9.263 E4.8936
G1 X19.493 Y9.424 E4.9476
G1 X19.477 Y9.425 E4.9483
G1 X18.806 Y9.425 E4.9778
G1 X18.790 Y9.424 E4.9785
G1 X17.570 Y9.263 E5.0325
G1 X17.554 Y9.260 E5.0332
G1 X16.906 Y9.086 E5.0626
G1 X16.891 Y9.081 E5.0633
G1 X15.754 Y8.610 E5.1174
G1 X15.740 Y8.604 E5.1181
G1 X15.159 Y8.268 E5.1475
G1 X15.145 Y8.259 E5.1482
G1 X14.169 Y7.510 E5.2023
G1 X14.157 Y7.499 E5.2029
G1 X13.683 Y7.025 E5.2324
G1 X13.673 Y7.013 E5.2331
G1 X13.669 Y7.009 E5.2333
G1 X11.053 Y9.625 E5.3958
G1 X10.964 Y9.662 E5.4000
G1 X-2.846 Y9.662 E6.0063
G1 X-2.934 Y9.625 E6.0105
G1 X-4.458 Y8.102 E6.1051
G1 X-4.739 Y8.468 E6.1254
G1 X-4.861 Y8.627 F750
G92 E0
G1 E-5.0000 F1600
G1 Z1.050 F1200
; inner perimeter
G1 X-9.670 Y4.315 F9000
G1 Z0.050 F1200
G1 E0.0000 F1600
G92 E0
G1 X-10.933 Y5.285 E0.0699 F625
G1 X-12.405 Y5.894 E0.1399
G1 X-13.984 Y6.102 E0.2098
G1 X-15.564 Y5.894 E0.2797
G1 X-17.036 Y5.285 E0.3497
G1 X-18.299 Y4.315 E0.4196
G1 X-19.269 Y3.051 E0.4896
G1 X-19.879 Y1.580 E0.5595
G1 X-20.087 Y0.000 E0.6294
G1 X-19.879 Y-1.579 E0.6994
G1 X-19.269 Y-3.051 E0.7693
G1 X-18.299 Y-4.315 E0.8392
G1 X-17.036 Y-5.285 E0.9092
G1 X-15.564 Y-5.894 E0.9791
G1 X-13.984 Y-6.102 E1.0491
G1 X-12.405 Y-5.894 E1.1190
G1 X-10.933 Y-5.284 E1.1889
G1 X-9.669 Y-4.315 E1.2589
G1 X-8.700 Y-3.051 E1.3288
G1 X-8.090 Y-1.579 E1.3988
G1 X-7.882 Y0.000 E1.4687
G1 X-8.090 Y1.579 E1.5386
G1 X-8.700 Y3.051 E1.6086
G1 X-9.548 Y4.156 E1.6697
G1 X-9.670 Y4.315 F625
G92 E0
G1 E-5.0000 F1600
G1 Z1.050 F1200
; inner perimeter
G1 X-9.327 Y4.657 F9000
G1 Z0.050 F1200
G1 E0.0000 F1600
G92 E0
G1 X-10.691 Y5.704 E0.0755 F500
G1 X-12.280 Y6.362 E0.1510
G1 X-13.984 Y6.586 E0.2265
G1 X-15.689 Y6.362 E0.3019
G1 X-17.278 Y5.704 E0.3774
G1 X-18.642 Y4.657 E0.4529
G1 X-19.688 Y3.293 E0.5284
G1 X-20.346 Y1.705 E0.6039
G1 X-20.571 Y0.000 E0.6794
G1 X-20.346 Y-1.705 E0.7549
G1 X-19.688 Y-3.293 E0.8303
G1 X-18.642 Y-4.657 E0.9058
G1 X-17.278 Y-5.704 E0.9813
G1 X-15.689 Y-6.362 E1.0568
G1 X-13.984 Y-6.586 E1.1323
G1 X-12.280 Y-6.362 E1.2078
G1 X-10.691 Y-5.704 E1.2833
G1 X-9.327 Y-4.657 E1.3588
G1 X-8.280 Y-3.293 E1.4342
G1 X-7.623 Y-1.704 E1.5097
G1 X-7.398 Y0.000 E1.5852
G1 X-7.623 Y1.705 E1.6607
G1 X-8.280 Y3.293 E1.7362
G1 X-9.205 Y4.499 E1.8029
G1 X-9.327 Y4.657 F500
G92 E0
G1 E-5.0000 F1600
G1 Z1.050 F1200
; outer perimeter
G1 X-8.985 Y5.000 F9000
G1 Z0.050 F1200
G1 E0.0000 F1600
G92 E0
G1 X-10.449 Y6.123 E0.0810 F375
