; G-Code generated by Simplify3D(R) Version 3.1.0
; Sep 16, 2016 at 5:58:58 PM
; Settings Summary
;   processName,Process1
;   applyToModels,test
;   profileName,Rostock MAX v2 (modified)
;   profileVersion,2015-05-01 08:00:00
;   baseProfile,
;   printMaterial,PLA
;   printQuality,Medium
;   printExtruders,
;   extruderName,Primary Extruder
;   extruderToolheadNumber,0
;   extruderDiameter,0.4
;   extruderAutoWidth,1
;   extruderWidth,0.48
;   extrusionMultiplier,1.1
;   extruderUseRetract,1
;   extruderRetractionDistance,3
;   extruderExtraRestartDistance,0
;   extruderRetractionZLift,0
;   extruderRetractionSpeed,1800
;   extruderUseCoasting,1
;   extruderCoastingDistance,1
;   extruderUseWipe,0
;   extruderWipeDistance,5
;   primaryExtruder,0
;   layerHeight,0.2
;   topSolidLayers,3
;   bottomSolidLayers,3
;   perimeterOutlines,3
;   printPerimetersInsideOut,1
;   startPointOption,2
;   startPointOriginX,0
;   startPointOriginY,0
;   startPointOriginZ,300
;   sequentialIslands,0
;   spiralVaseMode,0
;   firstLayerHeightPercentage,25
;   firstLayerWidthPercentage,100
;   firstLayerUnderspeed,0.4
;   useRaft,0
;   raftExtruder,0
;   raftLayers,3
;   raftOffset,15
;   raftSeparationDistance,0.14
;   raftInfill,85
;   disableRaftBaseLayers,0
;   useSkirt,1
;   skirtExtruder,0
;   skirtLayers,1
;   skirtOutlines,2
;   skirtOffset,5
;   usePrimePillar,0
;   primePillarExtruder,999
;   primePillarWidth,12
;   primePillarLocation,7
;   primePillarSpeedMultiplier,1
;   useOozeShield,0
;   oozeShieldExtruder,999
;   oozeShieldOffset,2
;   oozeShieldOutlines,1
;   oozeShieldSidewallShape,1
;   oozeShieldSidewallAngle,30
;   oozeShieldSpeedMultiplier,1
;   infillExtruder,0
;   internalInfillPattern,Fast Honeycomb
;   externalInfillPattern,Concentric
;   infillPercentage,60
;   outlineOverlapPercentage,40
;   infillExtrusionWidthPercentage,100
;   minInfillLength,3
;   infillLayerInterval,1
;   infillAngles,0
;   overlapInfillAngles,0
;   generateSupport,0
;   supportExtruder,0
;   supportInfillPercentage,30
;   supportExtraInflation,0
;   denseSupportLayers,0
;   denseSupportInfillPercentage,70
;   supportLayerInterval,1
;   supportHorizontalPartOffset,0.3
;   supportUpperSeparationLayers,1
;   supportLowerSeparationLayers,1
;   supportType,1
;   supportGridSpacing,4
;   maxOverhangAngle,45
;   supportAngles,0
;   temperatureName,Primary Extruder,Heated Bed
;   temperatureNumber,0,1
;   temperatureSetpointCount,1,1
;   temperatureSetpointLayers,1,1
;   temperatureSetpointTemperatures,205,60
;   temperatureStabilizeAtStartup,1,1
;   temperatureHeatedBed,0,1
;   temperatureRelayBetweenLayers,0,0
;   temperatureRelayBetweenLoops,0,0
;   fanLayers,1,2
;   fanSpeeds,0,100
;   blipFanToFullPower,1
;   adjustSpeedForCooling,1
;   minSpeedLayerTime,15
;   minCoolingSpeedSlowdown,20
;   increaseFanForCooling,0
;   minFanLayerTime,60
;   maxCoolingFanSpeed,100
;   increaseFanForBridging,0
;   bridgingFanSpeed,100
;   use5D,1
;   relativeEdistances,0
;   allowEaxisZeroing,1
;   independentExtruderAxes,0
;   includeM10123,0
;   stickySupport,1
;   applyToolheadOffsets,0
;   gcodeXoffset,0
;   gcodeYoffset,0
;   gcodeZoffset,0
;   overrideMachineDefinition,1
;   machineTypeOverride,1
;   strokeXoverride,197
;   strokeYoverride,197
;   strokeZoverride,375
;   originOffsetXoverride,98.5
;   originOffsetYoverride,98.5
;   originOffsetZoverride,0
;   homeXdirOverride,0
;   homeYdirOverride,0
;   homeZdirOverride,1
;   flipXoverride,1
;   flipYoverride,-1
;   flipZoverride,1
;   toolheadOffsets,0,0|0,0|0,0|0,0|0,0|0,0
;   overrideFirmwareConfiguration,1
;   firmwareTypeOverride,RepRap (Marlin/Repetier/Sprinter)
;   GPXconfigOverride,r2
;   baudRateOverride,115200
;   overridePrinterModels,1
;   printerModelsOverride
;   startingGcode,G28 ; home all axes
;   layerChangeGcode,
;   retractionGcode,
;   toolChangeGcode,
;   endingGcode,M104 S0 ; turn off extruder,M140 S0 ; turn off bed,G28 ; home axes,M84 ; disable motors
;   exportFileFormat,gcode
;   celebration,0
;   celebrationSong,Random Song
;   postProcessing,
;   defaultSpeed,2000
;   outlineUnderspeed,0.5
;   solidInfillUnderspeed,0.8
;   supportUnderspeed,0.8
;   rapidXYspeed,9000
;   rapidZspeed,1200
;   minBridgingArea,50
;   bridgingExtraInflation,0
;   bridgingExtrusionMultiplier,0.8
;   bridgingSpeedMultiplier,0.7
;   filamentDiameter,1.75
;   filamentPricePerKg,22
;   filamentDensity,1.25
;   useMinPrintHeight,0
;   minPrintHeight,0.05
;   useMaxPrintHeight,0
;   maxPrintHeight,0
;   useDiaphragm,0
;   diaphragmLayerInterval,20
;   robustSlicing,1
;   mergeAllIntoSolid,0
;   onlyRetractWhenCrossingOutline,0
;   retractBetweenLayers,0
;   useRetractionMinTravel,0
;   retractionMinTravel,3
;   retractWhileWiping,1
;   onlyWipeOutlines,1
;   avoidCrossingOutline,1
;   maxMovementDetourFactor,2
;   toolChangeRetractionDistance,12
;   toolChangeExtraRestartDistance,-0.5
;   toolChangeRetractionSpeed,600
;   allowThinWallGapFill,1
;   thinWallAllowedOverlapPercentage,10
;   horizontalSizeCompensation,0
G90
M82
M106 S0
M140 S60
M190 S60
M104 S205 T0
M109 S205 T0
G28 ; home all axes
G92 E0
G1 E-3.0000 F1800
G1 Z0.050 F1200
; layer 1, Z = 0.05
T0
; tool H0.200 W0.480
; skirt
G1 X-10.340 Y-49.679 F9000
G1 E0.0000 F540
G92 E0
G1 X-10.127 Y-49.792 E0.0106 F800
G1 X-9.710 Y-50.066 E0.0325
G1 X-9.316 Y-50.392 E0.0549
G1 X-8.143 Y-51.591 E0.1286
G1 X-7.232 Y-52.760 E0.1936
G1 X-7.166 Y-52.826 E0.1977
G1 X-6.059 Y-53.668 E0.2588
G1 X-5.979 Y-53.715 E0.2629
G1 X-1.205 Y-55.692 E0.4897
G1 X-1.065 Y-55.720 E0.4960
G1 X1.065 Y-55.720 E0.5895
G1 X1.205 Y-55.692 E0.5957
G1 X11.093 Y-51.596 E1.0657
G1 X12.383 Y-51.062 E1.1269
G1 X13.573 Y-50.569 E1.1835
G1 X15.706 Y-49.686 E1.2848
G1 X16.640 Y-49.299 E1.3292
G1 X17.533 Y-48.929 E1.3716
G1 X17.832 Y-48.805 E1.3858
G1 X19.524 Y-48.104 E1.4663
G1 X38.529 Y-40.232 E2.3694
G1 X38.647 Y-40.153 E2.3756
G1 X40.153 Y-38.647 E2.4691
G1 X40.232 Y-38.529 E2.4754
G1 X55.692 Y-1.205 E4.2490
G1 X55.720 Y-1.065 E4.2553
G1 X55.720 Y1.065 E4.3488
G1 X55.692 Y1.205 E4.3550
G1 X40.232 Y38.529 E6.1287
G1 X40.153 Y38.647 E6.1349
G1 X38.647 Y40.153 E6.2285
G1 X38.529 Y40.232 E6.2347
G1 X1.205 Y55.692 E8.0084
G1 X1.065 Y55.720 E8.0146
G1 X-1.065 Y55.720 E8.1082
G1 X-1.205 Y55.692 E8.1144
G1 X-38.529 Y40.232 E9.8881
G1 X-38.647 Y40.153 E9.8943
G1 X-40.153 Y38.647 E9.9878
G1 X-40.232 Y38.529 E9.9941
G1 X-55.692 Y1.205 E11.7677
G1 X-55.720 Y1.065 E11.7740
G1 X-55.720 Y-1.065 E11.8675
G1 X-55.692 Y-1.205 E11.8737
G1 X-40.232 Y-38.529 E13.6474
G1 X-40.153 Y-38.646 E13.6536
G1 X-38.647 Y-40.153 E13.7472
G1 X-38.529 Y-40.232 E13.7534
G1 X-34.359 Y-41.959 E13.9516
G1 X-34.156 Y-41.982 E13.9605
G1 X-33.867 Y-41.932 E13.9734
G1 X-33.354 Y-42.357 E14.0027
G1 X-33.261 Y-42.413 E14.0074
G1 X-31.039 Y-43.335 E14.1130
G1 X-30.908 Y-43.363 E14.1189
G1 X-29.730 Y-43.389 E14.1706
G1 X-29.317 Y-43.985 E14.2025
G1 X-29.156 Y-44.115 E14.2116
G1 X-25.805 Y-45.502 E14.3708
G1 X-25.654 Y-45.530 E14.3775
G1 X-25.052 Y-45.511 E14.4040
G1 X-24.503 Y-46.018 E14.4368
G1 X-24.396 Y-46.086 E14.4424
G1 X-21.274 Y-47.379 E14.5907
G1 X-21.202 Y-47.401 E14.5940
G1 X-20.094 Y-47.606 E14.6435
G1 X-20.019 Y-47.612 E14.6468
G1 X-19.006 Y-47.585 E14.6913
G1 X-18.983 Y-47.584 E14.6923
G1 X-18.869 Y-47.574 E14.6973
G1 X-18.045 Y-48.663 E14.7573
G1 X-17.893 Y-48.780 E14.7657
G1 X-14.011 Y-50.388 E14.9502
G1 X-13.842 Y-50.414 E14.9577
G1 X-11.266 Y-50.206 E15.0711
G1 X-11.199 Y-50.184 E15.0742
G1 X-11.104 Y-50.152 F800
G1 X-10.339 Y-49.679 F800
G92 E0
G1 E-3.0000 F1800
G1 X-9.882 Y-49.379 F9000
G1 E0.0000 F1800
G92 E0
G1 X-9.425 Y-49.680 E0.0240 F800
G1 X-8.991 Y-50.038 E0.0487
G1 X-7.781 Y-51.275 E0.1247
G1 X-6.873 Y-52.441 E0.1896
G1 X-6.851 Y-52.462 E0.1909
G1 X-5.793 Y-53.268 E0.2493
G1 X-5.766 Y-53.283 E0.2507
G1 X-1.065 Y-55.231 E0.4741
G1 X-1.018 Y-55.240 E0.4762
G1 X1.018 Y-55.240 E0.5656
G1 X1.065 Y-55.231 E0.5676
G1 X10.996 Y-51.117 E1.0396
G1 X12.288 Y-50.582 E1.1010
G1 X13.486 Y-50.086 E1.1579
G1 X15.614 Y-49.204 E1.2590
G1 X16.541 Y-48.820 E1.3031
G1 X17.393 Y-48.467 E1.3435
G1 X17.648 Y-48.362 E1.3557
G1 X19.253 Y-47.697 E1.4319
G1 X38.301 Y-39.807 E2.3371
G1 X38.341 Y-39.781 E2.3392
G1 X39.781 Y-38.341 E2.4286
G1 X39.807 Y-38.301 E2.4307
G1 X55.231 Y-1.065 E4.2002
G1 X55.240 Y-1.018 E4.2022
G1 X55.240 Y1.018 E4.2917
G1 X55.231 Y1.065 E4.2937
G1 X39.807 Y38.301 E6.0632
G1 X39.781 Y38.341 E6.0653
G1 X38.341 Y39.781 E6.1547
G1 X38.301 Y39.807 E6.1568
G1 X1.065 Y55.231 E7.9263
G1 X1.018 Y55.240 E7.9284
G1 X-1.018 Y55.240 E8.0178
G1 X-1.065 Y55.231 E8.0199
G1 X-38.301 Y39.807 E9.7894
G1 X-38.341 Y39.781 E9.7915
G1 X-39.781 Y38.341 E9.8809
G1 X-39.807 Y38.301 E9.8829
G1 X-55.231 Y1.065 E11.6525
G1 X-55.240 Y1.018 E11.6545
G1 X-55.240 Y-1.018 E11.7439
G1 X-55.231 Y-1.065 E11.7460
G1 X-39.807 Y-38.301 E13.5155
G1 X-39.781 Y-38.341 E13.5176
G1 X-38.341 Y-39.780 E13.6070
G1 X-38.301 Y-39.807 E13.6091
G1 X-34.238 Y-41.490 E13.8022
G1 X-34.170 Y-41.497 E13.8051
G1 X-33.731 Y-41.421 E13.8248
G1 X-33.075 Y-41.965 E13.8621
G1 X-33.044 Y-41.984 E13.8637
G1 X-30.896 Y-42.875 E13.9658
G1 X-30.853 Y-42.884 E13.9678
G1 X-29.475 Y-42.915 E14.0282
G1 X-28.962 Y-43.654 E14.0678
G1 X-28.908 Y-43.698 E14.0708
G1 X-25.669 Y-45.039 E14.2248
G1 X-25.618 Y-45.049 E14.2270
G1 X-24.871 Y-45.024 E14.2598
G1 X-24.209 Y-45.636 E14.2994
G1 X-24.173 Y-45.659 E14.3013
G1 X-21.114 Y-46.926 E14.4466
G1 X-21.090 Y-46.933 E14.4477
G1 X-20.031 Y-47.129 E14.4950
G1 X-20.006 Y-47.131 E14.4961
G1 X-19.026 Y-47.105 E14.5392
G1 X-19.018 Y-47.105 E14.5395
G1 X-18.698 Y-47.076 E14.5536
G1 X-18.691 Y-47.075 E14.5539
G1 X-18.649 Y-47.069 E14.5558
G1 X-17.701 Y-48.322 E14.6248
G1 X-17.650 Y-48.361 E14.6276
G1 X-13.880 Y-49.922 E14.8067
G1 X-13.824 Y-49.931 E14.8092
G1 X-11.362 Y-49.732 E14.9177
G1 X-11.308 Y-49.714 E14.9202
G1 X-10.749 Y-49.368 E14.9490
G1 X-10.358 Y-49.126 F800
G1 X-9.882 Y-49.379 F800
G92 E0
G1 E-3.0000 F1800
; inner perimeter
G1 X-6.595 Y-43.832 F9000
G1 E0.0000 F1800
G92 E0
G1 X-5.592 Y-44.493 E0.0527 F667
G1 X-4.627 Y-45.290 E0.1077
G1 X-2.923 Y-47.030 E0.2146
G1 X-2.395 Y-47.709 E0.2524
G1 X0.000 Y-48.701 E0.3662
G1 X8.712 Y-45.093 E0.7802
G1 X7.105 Y-41.308 E0.9607
G1 X7.735 Y-41.040 E0.9908
G1 X5.239 Y-38.129 E1.1591
G1 X0.000 Y-40.299 E1.4081
G1 X-28.496 Y-28.496 E2.7622
G1 X-40.299 Y0.000 E4.1164
G1 X-31.150 Y22.087 E5.1660
G1 X-31.049 Y22.904 E5.2021
G1 X-30.855 Y24.026 E5.2521
G1 X-30.605 Y25.137 E5.3021
G1 X-30.301 Y26.235 E5.3521
G1 X-29.944 Y27.316 E5.4021
G1 X-29.534 Y28.378 E5.4521
G1 X-29.073 Y29.419 E5.5021
G1 X-28.561 Y30.437 E5.5521
G1 X-28.000 Y31.427 E5.6020
G1 X-27.390 Y32.389 E5.6520
G1 X-26.735 Y33.321 E5.7020
G1 X-26.034 Y34.218 E5.7520
G1 X-25.290 Y35.081 E5.8020
G1 X-24.495 Y35.915 E5.8526
G1 X-23.670 Y36.700 E5.9026
G1 X-22.807 Y37.443 E5.9526
G1 X-21.909 Y38.143 E6.0026
G1 X-20.977 Y38.798 E6.0526
G1 X-20.015 Y39.407 E6.1026
G1 X-19.024 Y39.967 E6.1526
G1 X-18.006 Y40.479 E6.2026
G1 X-16.965 Y40.939 E6.2526
G1 X-15.903 Y41.349 E6.3026
G1 X-14.821 Y41.705 E6.3526
G1 X-13.723 Y42.008 E6.4026
G1 X-12.612 Y42.257 E6.4526
G1 X-11.490 Y42.451 E6.5026
G1 X-10.360 Y42.590 E6.5525
G1 X-9.224 Y42.673 E6.6025
G1 X-8.086 Y42.700 E6.6525
G1 X-6.947 Y42.671 E6.7025
G1 X-5.812 Y42.587 E6.7525
G1 X-4.682 Y42.447 E6.8025
G1 X-3.560 Y42.252 E6.8525
G1 X-2.449 Y42.001 E6.9025
G1 X-1.352 Y41.697 E6.9525
G1 X-0.271 Y41.339 E7.0025
G1 X0.791 Y40.929 E7.0525
G1 X1.832 Y40.467 E7.1025
G1 X2.849 Y39.954 E7.1525
G1 X3.839 Y39.392 E7.2025
G1 X4.801 Y38.782 E7.2525
G1 X5.729 Y38.128 E7.3023
G1 X6.281 Y37.697 E7.3330
G1 X28.496 Y28.496 E8.3887
G1 X40.299 Y0.000 E9.7428
G1 X38.820 Y-3.569 E9.9124
G1 X43.911 Y-3.034 E10.1372
G1 X46.161 Y-6.132 E10.3052
G1 X48.701 Y0.000 E10.5966
G1 X34.437 Y34.437 E12.2331
G1 X0.000 Y48.701 E13.8696
G1 X-34.437 Y34.437 E15.5060
G1 X-48.701 Y0.000 E17.1425
G1 X-34.437 Y-34.437 E18.7789
G1 X-33.844 Y-34.683 E18.8071
G1 X-33.570 Y-34.435 E18.8234
G1 X-32.657 Y-33.766 E18.8730
G1 X-32.025 Y-33.414 E18.9048
G1 X-31.181 Y-33.170 E18.9434
G1 X-30.201 Y-33.515 E18.9890
G1 X-29.700 Y-34.276 E19.0290
G1 X-29.491 Y-35.144 E19.0682
G1 X-29.408 Y-35.833 E19.0986
G1 X-27.516 Y-33.881 E19.2180
G1 X-26.339 Y-33.018 E19.2821
G1 X-25.080 Y-32.944 E19.3374
G1 X-24.300 Y-33.927 E19.3925
G1 X-24.151 Y-35.379 E19.4566
G1 X-24.344 Y-38.196 E19.5806
G1 X-23.590 Y-37.696 E19.6203
G1 X-22.529 Y-37.245 E19.6709
G1 X-21.589 Y-37.341 E19.7124
G1 X-20.862 Y-37.959 E19.7543
G1 X-20.512 Y-38.997 E19.8024
G1 X-20.378 Y-40.109 E19.8516
G1 X-20.348 Y-40.273 E19.8589
G1 X-19.394 Y-40.668 E19.9042
G1 X-16.831 Y-40.276 E20.0180
G1 X-15.503 Y-40.240 E20.0764
G1 X-14.719 Y-40.439 E20.1119
G1 X-14.004 Y-40.945 E20.1503
G1 X-13.446 Y-42.037 E20.2042
G1 X-13.226 Y-43.327 E20.2616
G1 X-12.377 Y-42.802 E20.3055
G1 X-11.800 Y-42.544 E20.3332
G1 X-10.921 Y-42.378 E20.3725
G1 X-10.037 Y-42.455 E20.4114
G1 X-8.720 Y-42.827 E20.4715
G1 X-7.646 Y-43.275 E20.5226
G1 X-7.478 Y-43.364 E20.5309
G1 X-6.595 Y-43.832 F667
G92 E0
G1 E-3.0000 F1800
G1 X6.337 Y-37.927 F9000
G1 X6.037 Y-37.577 F9000
G1 X6.979 Y-37.187 F9000
G1 X7.250 Y-37.510 F9000
G1 X8.586 Y-36.899 F9000
G1 X8.563 Y-36.531 F9000
G1 X9.505 Y-36.141 F9000
G1 X9.521 Y-36.473 F9000
G1 X9.589 Y-36.442 F9000
G1 X9.643 Y-36.371 F9000
G1 X9.896 Y-36.139 F9000
G1 X10.213 Y-35.937 F9000
G1 X10.487 Y-35.822 F9000
G1 X10.568 Y-35.797 F9000
G1 X10.877 Y-35.742 F9000
G1 X11.094 Y-35.754 F9000
G1 X12.288 Y-35.209 F9000
G1 E0.0000 F1800
G92 E0
G1 X12.682 Y-35.703 E0.0277 F667
G1 X12.900 Y-36.160 E0.0500
G1 X12.993 Y-36.612 E0.0702
G1 X12.993 Y-36.751 E0.0763
G1 X13.165 Y-36.889 E0.0860
G1 X13.426 Y-37.192 E0.1036
G1 X13.651 Y-37.601 E0.1241
G1 X13.787 Y-38.046 E0.1445
G1 X13.817 Y-38.459 E0.1627
G1 X14.085 Y-38.345 E0.1755
G1 X15.467 Y-37.758 E0.2414
G1 X16.402 Y-37.361 E0.2860
G1 X16.479 Y-36.817 E0.3101
G1 X16.521 Y-36.661 E0.3171
G1 X16.651 Y-36.301 E0.3340
G1 X16.944 Y-35.806 E0.3592
G1 X17.338 Y-35.387 E0.3845
G1 X17.694 Y-35.126 E0.4039
G1 X18.192 Y-34.886 E0.4281
G1 X18.619 Y-34.771 E0.4475
G1 X19.192 Y-34.725 E0.4728
G1 X19.914 Y-34.827 E0.5048
G1 X19.968 Y-34.592 E0.5154
G1 X20.226 Y-34.018 E0.5430
G1 X20.591 Y-33.507 E0.5706
G1 X21.049 Y-33.075 E0.5982
G1 X21.582 Y-32.742 E0.6258
G1 X22.169 Y-32.519 E0.6534
G1 X22.789 Y-32.415 E0.6810
G1 X23.417 Y-32.434 E0.7086
G1 X24.191 Y-32.613 E0.7435
G1 X24.248 Y-32.367 E0.7545
G1 X24.364 Y-32.023 E0.7705
G1 X24.513 Y-31.691 E0.7864
G1 X24.694 Y-31.377 E0.8024
G1 X24.904 Y-31.081 E0.8183
G1 X25.143 Y-30.807 E0.8343
G1 X25.408 Y-30.557 E0.8503
G1 X25.696 Y-30.335 E0.8662
G1 X26.004 Y-30.143 E0.8821
G1 X26.330 Y-29.981 E0.8981
G1 X26.669 Y-29.853 E0.9141
G1 X27.020 Y-29.758 E0.9300
G1 X27.378 Y-29.698 E0.9459
G1 X27.741 Y-29.673 E0.9619
G1 X28.104 Y-29.684 E0.9778
G1 X28.464 Y-29.731 E0.9938
G1 X28.818 Y-29.812 E1.0097
G1 X29.162 Y-29.928 E1.0257
G1 X29.493 Y-30.077 E1.0416
G1 X29.808 Y-30.258 E1.0576
G1 X30.197 Y-30.535 E1.0785
G1 X30.306 Y-30.030 E1.1012
G1 X30.503 Y-29.525 E1.1250
G1 X30.751 Y-29.056 E1.1483
G1 X30.283 Y-28.847 E1.1708
G1 X30.822 Y-25.764 E1.3082
G1 X32.013 Y-26.294 E1.3654
G1 X32.195 Y-25.884 E1.3851
G1 X32.391 Y-25.444 E1.4063
G1 X32.661 Y-24.839 E1.4354
G1 X31.229 Y-24.201 E1.5042
G1 X32.469 Y-21.414 E1.6382
G1 X32.703 Y-21.518 E1.6494
G1 X33.069 Y-20.696 E1.6889
G1 X34.615 Y-20.841 E1.7571
G1 X33.489 Y-19.753 E1.8258
G1 X34.818 Y-16.767 E1.9694
G1 X35.359 Y-17.304 E2.0028
G1 X36.044 Y-16.000 E2.0675
G1 X34.717 Y-13.476 E2.1927
G1 X28.496 Y-28.496 E2.9065
G1 X13.212 Y-34.826 E3.6328
G1 X12.288 Y-35.209 F667
G92 E0
G1 E-3.0000 F1800
G1 X17.181 Y-39.452 F9000
G1 E0.0000 F1800
G92 E0
G1 X17.951 Y-41.266 E0.0865 F667
G1 X23.144 Y-39.115 E0.3332
G1 X23.079 Y-38.803 E0.3472
G1 X22.752 Y-38.809 E0.3615
G1 X22.134 Y-38.699 E0.3891
G1 X21.617 Y-38.496 E0.4135
G1 X21.246 Y-39.089 E0.4442
G1 X20.947 Y-39.416 E0.4637
G1 X20.488 Y-39.761 E0.4889
G1 X19.964 Y-39.997 E0.5141
G1 X19.535 Y-40.102 E0.5335
G1 X18.983 Y-40.133 E0.5578
G1 X18.545 Y-40.076 E0.5772
G1 X18.064 Y-39.921 E0.5994
G1 X18.019 Y-39.907 F667
