; G-Code generated by Simplify3D(R) Version 3.1.0
; Sep 14, 2016 at 7:08:06 PM
; Settings Summary
;   processName,Process1
;   applyToModels,Galactop
;   profileName,Rostock MAX v2 (modified)
;   profileVersion,2015-05-01 08:00:00
;   baseProfile,
;   printMaterial,PLA
;   printQuality,Medium
;   printExtruders,
;   extruderName,Primary Extruder
;   extruderToolheadNumber,0
;   extruderDiameter,0.4
;   extruderAutoWidth,1
;   extruderWidth,0.48
;   extrusionMultiplier,1.1
;   extruderUseRetract,1
;   extruderRetractionDistance,2
;   extruderExtraRestartDistance,0
;   extruderRetractionZLift,0
;   extruderRetractionSpeed,1800
;   extruderUseCoasting,1
;   extruderCoastingDistance,1
;   extruderUseWipe,0
;   extruderWipeDistance,5
;   primaryExtruder,0
;   layerHeight,0.2
;   topSolidLayers,3
;   bottomSolidLayers,3
;   perimeterOutlines,3
;   printPerimetersInsideOut,1
;   startPointOption,2
;   startPointOriginX,0
;   startPointOriginY,0
;   startPointOriginZ,300
;   sequentialIslands,0
;   spiralVaseMode,0
;   firstLayerHeightPercentage,25
;   firstLayerWidthPercentage,100
;   firstLayerUnderspeed,0.4
;   useRaft,0
;   raftExtruder,0
;   raftLayers,3
;   raftOffset,15
;   raftSeparationDistance,0.14
;   raftInfill,85
;   disableRaftBaseLayers,0
;   useSkirt,1
;   skirtExtruder,0
;   skirtLayers,1
;   skirtOutlines,2
;   skirtOffset,5
;   usePrimePillar,0
;   primePillarExtruder,999
;   primePillarWidth,12
;   primePillarLocation,7
;   primePillarSpeedMultiplier,1
;   useOozeShield,0
;   oozeShieldExtruder,999
;   oozeShieldOffset,2
;   oozeShieldOutlines,1
;   oozeShieldSidewallShape,1
;   oozeShieldSidewallAngle,30
;   oozeShieldSpeedMultiplier,1
;   infillExtruder,0
;   internalInfillPattern,Rectilinear
;   externalInfillPattern,Rectilinear
;   infillPercentage,100
;   outlineOverlapPercentage,40
;   infillExtrusionWidthPercentage,100
;   minInfillLength,3
;   infillLayerInterval,1
;   infillAngles,45,-45
;   overlapInfillAngles,0
;   generateSupport,0
;   supportExtruder,0
;   supportInfillPercentage,30
;   supportExtraInflation,0
;   denseSupportLayers,0
;   denseSupportInfillPercentage,70
;   supportLayerInterval,1
;   supportHorizontalPartOffset,0.3
;   supportUpperSeparationLayers,1
;   supportLowerSeparationLayers,1
;   supportType,1
;   supportGridSpacing,4
;   maxOverhangAngle,45
;   supportAngles,0
;   temperatureName,Primary Extruder,Heated Bed
;   temperatureNumber,0,1
;   temperatureSetpointCount,1,1
;   temperatureSetpointLayers,1,1
;   temperatureSetpointTemperatures,205,60
;   temperatureStabilizeAtStartup,1,1
;   temperatureHeatedBed,0,1
;   temperatureRelayBetweenLayers,0,0
;   temperatureRelayBetweenLoops,0,0
;   fanLayers,1,2
;   fanSpeeds,0,100
;   blipFanToFullPower,1
;   adjustSpeedForCooling,1
;   minSpeedLayerTime,15
;   minCoolingSpeedSlowdown,20
;   increaseFanForCooling,0
;   minFanLayerTime,60
;   maxCoolingFanSpeed,100
;   increaseFanForBridging,0
;   bridgingFanSpeed,100
;   use5D,1
;   relativeEdistances,0
;   allowEaxisZeroing,1
;   independentExtruderAxes,0
;   includeM10123,0
;   stickySupport,1
;   applyToolheadOffsets,0
;   gcodeXoffset,0
;   gcodeYoffset,0
;   gcodeZoffset,0
;   overrideMachineDefinition,1
;   machineTypeOverride,1
;   strokeXoverride,197
;   strokeYoverride,197
;   strokeZoverride,375
;   originOffsetXoverride,98.5
;   originOffsetYoverride,98.5
;   originOffsetZoverride,0
;   homeXdirOverride,0
;   homeYdirOverride,0
;   homeZdirOverride,1
;   flipXoverride,1
;   flipYoverride,-1
;   flipZoverride,1
;   toolheadOffsets,0,0|0,0|0,0|0,0|0,0|0,0
;   overrideFirmwareConfiguration,1
;   firmwareTypeOverride,RepRap (Marlin/Repetier/Sprinter)
;   GPXconfigOverride,r2
;   baudRateOverride,115200
;   overridePrinterModels,1
;   printerModelsOverride
;   startingGcode,G28 ; home all axes
;   layerChangeGcode,
;   retractionGcode,
;   toolChangeGcode,
;   endingGcode,M104 S0 ; turn off extruder,M140 S0 ; turn off bed,G28 ; home axes,M84 ; disable motors
;   exportFileFormat,gcode
;   celebration,0
;   celebrationSong,Random Song
;   postProcessing,
;   defaultSpeed,3000
;   outlineUnderspeed,0.5
;   solidInfillUnderspeed,0.8
;   supportUnderspeed,0.8
;   rapidXYspeed,9000
;   rapidZspeed,1200
;   minBridgingArea,50
;   bridgingExtraInflation,0
;   bridgingExtrusionMultiplier,0.8
;   bridgingSpeedMultiplier,0.7
;   filamentDiameter,1.75
;   filamentPricePerKg,22
;   filamentDensity,1.25
;   useMinPrintHeight,0
;   minPrintHeight,0.05
;   useMaxPrintHeight,0
;   maxPrintHeight,0
;   useDiaphragm,0
;   diaphragmLayerInterval,20
;   robustSlicing,1
;   mergeAllIntoSolid,0
;   onlyRetractWhenCrossingOutline,0
;   retractBetweenLayers,0
;   useRetractionMinTravel,0
;   retractionMinTravel,3
;   retractWhileWiping,1
;   onlyWipeOutlines,1
;   avoidCrossingOutline,1
;   maxMovementDetourFactor,1.5
;   toolChangeRetractionDistance,12
;   toolChangeExtraRestartDistance,-0.5
;   toolChangeRetractionSpeed,600
;   allowThinWallGapFill,1
;   thinWallAllowedOverlapPercentage,10
;   horizontalSizeCompensation,0
G90
M82
M106 S0
M140 S60
M190 S60
M104 S205 T0
M109 S205 T0
G28 ; home all axes
G92 E0
G1 E-2.0000 F1800
G1 Z0.050 F1200
; layer 1, Z = 0.05
T0
; tool H0.200 W0.480
; skirt
G1 X-0.178 Y-24.462 F9000
G1 E0.0000 F540
G92 E0
G1 X-0.167 Y-24.462 E0.0005 F1200
G1 X-0.005 Y-24.465 E0.0076
G1 X0.005 Y-24.465 E0.0081
G1 X0.713 Y-24.454 E0.0391
G1 X0.721 Y-24.454 E0.0395
G1 X0.843 Y-24.449 E0.0448
G1 X0.851 Y-24.449 E0.0452
G1 X2.123 Y-24.372 E0.1011
G1 X2.133 Y-24.371 E0.1016
G1 X2.295 Y-24.356 E0.1087
G1 X2.305 Y-24.355 E0.1092
G1 X3.610 Y-24.197 E0.1669
G1 X3.624 Y-24.195 E0.1675
G1 X3.824 Y-24.163 E0.1764
G1 X3.837 Y-24.161 E0.1770
G1 X5.721 Y-23.786 E0.2613
G1 X5.737 Y-23.782 E0.2620
G1 X5.973 Y-23.724 E0.2727
G1 X5.988 Y-23.720 E0.2734
G1 X7.831 Y-23.176 E0.3577
G1 X7.843 Y-23.172 E0.3583
G1 X8.035 Y-23.108 E0.3672
G1 X8.048 Y-23.103 E0.3678
G1 X9.277 Y-22.637 E0.4255
G1 X9.287 Y-22.633 E0.4260
G1 X9.437 Y-22.571 E0.4331
G1 X9.447 Y-22.567 E0.4336
G1 X10.645 Y-22.027 E0.4913
G1 X10.658 Y-22.021 E0.4919
G1 X10.839 Y-21.931 E0.5008
G1 X10.851 Y-21.925 E0.5014
G1 X12.520 Y-21.017 E0.5848
G1 X12.532 Y-21.010 E0.5854
G1 X12.706 Y-20.907 E0.5943
G1 X12.718 Y-20.899 E0.5949
G1 X13.822 Y-20.186 E0.6526
G1 X13.831 Y-20.180 E0.6531
G1 X13.964 Y-20.088 E0.6602
G1 X13.973 Y-20.081 E0.6607
G1 X15.031 Y-19.302 E0.7184
G1 X15.042 Y-19.294 E0.7190
G1 X15.201 Y-19.168 E0.7278
G1 X15.211 Y-19.159 E0.7284
G1 X16.654 Y-17.920 E0.8120
G1 X16.664 Y-17.910 E0.8126
G1 X16.815 Y-17.770 E0.8216
G1 X16.825 Y-17.761 E0.8222
G1 X17.792 Y-16.792 E0.8823
G1 X17.801 Y-16.782 E0.8829
G1 X17.937 Y-16.635 E0.8917
G1 X17.946 Y-16.625 E0.8923
G1 X19.161 Y-15.209 E0.9742
G1 X19.170 Y-15.199 E0.9748
G1 X19.295 Y-15.041 E0.9836
G1 X19.303 Y-15.031 E0.9842
G1 X20.081 Y-13.973 E1.0419
G1 X20.088 Y-13.964 E1.0423
G1 X20.180 Y-13.831 E1.0494
G1 X20.186 Y-13.822 E1.0499
G1 X20.888 Y-12.735 E1.1067
G1 X20.894 Y-12.726 E1.1072
G1 X20.978 Y-12.587 E1.1143
G1 X20.983 Y-12.578 E1.1148
G1 X21.619 Y-11.450 E1.1716
G1 X21.624 Y-11.441 E1.1721
G1 X21.700 Y-11.297 E1.1792
G1 X21.704 Y-11.288 E1.1797
G1 X22.271 Y-10.124 E1.2365
G1 X22.276 Y-10.114 E1.2370
G1 X22.342 Y-9.967 E1.2441
G1 X22.346 Y-9.957 E1.2446
G1 X22.842 Y-8.761 E1.3014
G1 X22.846 Y-8.751 E1.3019
G1 X22.903 Y-8.599 E1.3090
G1 X22.907 Y-8.589 E1.3095
G1 X23.329 Y-7.366 E1.3663
G1 X23.332 Y-7.355 E1.3668
G1 X23.381 Y-7.201 E1.3739
G1 X23.384 Y-7.190 E1.3743
G1 X23.731 Y-5.944 E1.4312
G1 X23.734 Y-5.933 E1.4316
G1 X23.773 Y-5.776 E1.4387
G1 X23.775 Y-5.765 E1.4392
G1 X24.047 Y-4.500 E1.4960
G1 X24.049 Y-4.489 E1.4965
G1 X24.078 Y-4.330 E1.5036
G1 X24.080 Y-4.319 E1.5041
G1 X24.275 Y-3.040 E1.5609
G1 X24.276 Y-3.029 E1.5614
G1 X24.296 Y-2.868 E1.5685
G1 X24.297 Y-2.858 E1.5690
G1 X24.414 Y-1.569 E1.6258
G1 X24.415 Y-1.558 E1.6263
G1 X24.424 Y-1.396 E1.6334
G1 X24.425 Y-1.385 E1.6339
G1 X24.465 Y-0.072 E1.6916
G1 X24.465 Y-0.058 E1.6922
G1 X24.463 Y0.144 E1.7011
G1 X24.463 Y0.158 E1.7017
G1 X24.376 Y2.077 E1.7860
G1 X24.375 Y2.093 E1.7867
G1 X24.353 Y2.335 E1.7974
G1 X24.351 Y2.351 E1.7981
G1 X24.091 Y4.254 E1.8824
G1 X24.089 Y4.268 E1.8830
G1 X24.054 Y4.467 E1.8919
G1 X24.051 Y4.480 E1.8925
G1 X23.775 Y5.765 E1.9502
G1 X23.773 Y5.776 E1.9507
G1 X23.734 Y5.933 E1.9578
G1 X23.731 Y5.944 E1.9583
G1 X23.378 Y7.210 E2.0160
G1 X23.374 Y7.223 E2.0166
G1 X23.313 Y7.416 E2.0255
G1 X23.308 Y7.429 E2.0261
G1 X22.661 Y9.216 E2.1095
G1 X22.656 Y9.228 E2.1101
G1 X22.580 Y9.416 E2.1190
G1 X22.575 Y9.428 E2.1196
G1 X22.027 Y10.645 E2.1782
G1 X22.021 Y10.658 E2.1788
G1 X21.931 Y10.839 E2.1876
G1 X21.925 Y10.851 E2.1882
G1 X21.017 Y12.520 E2.2717
G1 X21.010 Y12.532 E2.2723
G1 X20.906 Y12.706 E2.2812
G1 X20.899 Y12.718 E2.2818
G1 X20.186 Y13.822 E2.3395
G1 X20.180 Y13.831 E2.3400
G1 X20.088 Y13.964 E2.3471
G1 X20.081 Y13.973 E2.3475
G1 X19.302 Y15.031 E2.4052
G1 X19.294 Y15.042 E2.4058
G1 X19.168 Y15.201 E2.4147
G1 X19.159 Y15.211 E2.4153
G1 X17.908 Y16.668 E2.4997
G1 X17.897 Y16.680 E2.5004
G1 X17.730 Y16.857 E2.5110
G1 X17.719 Y16.868 E2.5117
G1 X16.326 Y18.220 E2.5970
G1 X16.314 Y18.231 E2.5977
G1 X16.132 Y18.392 E2.6083
G1 X16.119 Y18.403 E2.6091
G1 X14.625 Y19.610 E2.6934
G1 X14.615 Y19.618 E2.6940
G1 X14.453 Y19.740 E2.7029
G1 X14.442 Y19.747 E2.7035
G1 X13.360 Y20.494 E2.7612
G1 X13.351 Y20.500 E2.7617
G1 X13.215 Y20.588 E2.7688
G1 X13.206 Y20.594 E2.7692
G1 X12.098 Y21.263 E2.8261
G1 X12.089 Y21.269 E2.8265
G1 X11.948 Y21.348 E2.8336
G1 X11.938 Y21.354 E2.8341
G1 X10.792 Y21.955 E2.8909
G1 X10.782 Y21.960 E2.8914
G1 X10.637 Y22.031 E2.8985
G1 X10.627 Y22.035 E2.8990
G1 X9.428 Y22.575 E2.9567
G1 X9.415 Y22.581 E2.9573
G1 X9.226 Y22.657 E2.9663
G1 X9.214 Y22.662 E2.9669
G1 X7.394 Y23.320 E3.0518
G1 X7.379 Y23.325 E3.0525
G1 X7.148 Y23.397 E3.0632
G1 X7.132 Y23.401 E3.0639
G1 X5.288 Y23.885 E3.1476
G1 X5.275 Y23.888 E3.1482
G1 X5.078 Y23.932 E3.1570
G1 X5.064 Y23.935 E3.1576
G1 X3.772 Y24.172 E3.2153
G1 X3.761 Y24.173 E3.2158
G1 X3.601 Y24.198 E3.2229
G1 X3.590 Y24.199 E3.2234
G1 X2.285 Y24.358 E3.2811
G1 X2.272 Y24.359 E3.2817
G1 X2.070 Y24.376 E3.2906
G1 X2.057 Y24.377 E3.2912
G1 X0.138 Y24.464 E3.3755
G1 X0.121 Y24.464 E3.3762
G1 X-0.121 Y24.464 E3.3869
G1 X-0.138 Y24.464 E3.3876
G1 X-2.077 Y24.376 E3.4728
G1 X-2.093 Y24.375 E3.4735
G1 X-2.335 Y24.353 E3.4842
G1 X-2.351 Y24.351 E3.4849
G1 X-4.254 Y24.091 E3.5692
G1 X-4.268 Y24.089 E3.5698
G1 X-4.467 Y24.054 E3.5787
G1 X-4.480 Y24.051 E3.5793
G1 X-5.765 Y23.775 E3.6370
G1 X-5.776 Y23.773 E3.6375
G1 X-5.933 Y23.734 E3.6446
G1 X-5.944 Y23.731 E3.6451
G1 X-7.210 Y23.378 E3.7028
G1 X-7.223 Y23.374 E3.7034
G1 X-7.416 Y23.313 E3.7123
G1 X-7.429 Y23.308 E3.7129
G1 X-9.216 Y22.661 E3.7963
G1 X-9.228 Y22.656 E3.7969
G1 X-9.416 Y22.580 E3.8058
G1 X-9.428 Y22.575 E3.8064
G1 X-10.627 Y22.036 E3.8641
G1 X-10.637 Y22.031 E3.8646
G1 X-10.782 Y21.960 E3.8717
G1 X-10.792 Y21.955 E3.8722
G1 X-11.938 Y21.354 E3.9290
G1 X-11.948 Y21.348 E3.9295
G1 X-12.089 Y21.269 E3.9366
G1 X-12.098 Y21.263 E3.9371
G1 X-13.206 Y20.594 E3.9939
G1 X-13.215 Y20.588 E3.9944
G1 X-13.351 Y20.500 E4.0015
G1 X-13.360 Y20.494 E4.0019
G1 X-14.425 Y19.759 E4.0588
G1 X-14.434 Y19.753 E4.0592
G1 X-14.564 Y19.657 E4.0664
G1 X-14.573 Y19.650 E4.0668
G1 X-15.592 Y18.852 E4.1236
G1 X-15.600 Y18.845 E4.1241
G1 X-15.724 Y18.741 E4.1312
G1 X-15.733 Y18.734 E4.1317
G1 X-16.717 Y17.863 E4.1894
G1 X-16.727 Y17.854 E4.1900
G1 X-16.873 Y17.714 E4.1989
G1 X-16.883 Y17.704 E4.1995
G1 X-18.220 Y16.326 E4.2838
G1 X-18.231 Y16.314 E4.2845
G1 X-18.392 Y16.132 E4.2952
G1 X-18.403 Y16.119 E4.2959
G1 X-19.623 Y14.610 E4.3811
G1 X-19.633 Y14.597 E4.3819
G1 X-19.777 Y14.401 E4.3925
G1 X-19.786 Y14.388 E4.3932
G1 X-20.865 Y12.773 E4.4785
G1 X-20.874 Y12.759 E4.4792
G1 X-21.000 Y12.550 E4.4900
G1 X-21.009 Y12.535 E4.4907
G1 X-21.935 Y10.830 E4.5759
G1 X-21.941 Y10.818 E4.5765
G1 X-22.031 Y10.638 E4.5853
G1 X-22.037 Y10.625 E4.5859
G1 X-22.567 Y9.446 E4.6427
G1 X-22.571 Y9.436 E4.6432
G1 X-22.633 Y9.287 E4.6503
G1 X-22.637 Y9.277 E4.6507
G1 X-23.103 Y8.048 E4.7084
G1 X-23.108 Y8.035 E4.7090
G1 X-23.172 Y7.843 E4.7179
G1 X-23.176 Y7.831 E4.7185
G1 X-23.720 Y5.988 E4.8029
G1 X-23.724 Y5.972 E4.8036
G1 X-23.783 Y5.736 E4.8143
G1 X-23.786 Y5.720 E4.8150
G1 X-24.162 Y3.829 E4.8996
G1 X-24.164 Y3.816 E4.9002
G1 X-24.196 Y3.616 E4.9091
G1 X-24.198 Y3.603 E4.9097
G1 X-24.355 Y2.305 E4.9671
G1 X-24.357 Y2.294 E4.9675
G1 X-24.371 Y2.133 E4.9746
G1 X-24.372 Y2.122 E4.9751
G1 X-24.451 Y0.810 E5.0328
G1 X-24.452 Y0.797 E5.0334
G1 X-24.456 Y0.595 E5.0423
G1 X-24.457 Y0.581 E5.0429
G1 X-24.427 Y-1.340 E5.1272
G1 X-24.427 Y-1.356 E5.1279
G1 X-24.412 Y-1.598 E5.1386
G1 X-24.411 Y-1.615 E5.1393
G1 X-24.210 Y-3.504 E5.2228
G1 X-24.209 Y-3.515 E5.2232
G1 X-24.187 Y-3.676 E5.2303
G1 X-24.185 Y-3.686 E5.2308
G1 X-24.068 Y-4.385 E5.2619
G1 X-24.067 Y-4.393 E5.2623
G1 X-24.044 Y-4.512 E5.2676
G1 X-24.042 Y-4.520 E5.2680
G1 X-23.775 Y-5.765 E5.3239
G1 X-23.773 Y-5.776 E5.3244
G1 X-23.734 Y-5.933 E5.3315
G1 X-23.731 Y-5.944 E5.3319
G1 X-23.378 Y-7.210 E5.3897
G1 X-23.374 Y-7.223 E5.3903
G1 X-23.313 Y-7.416 E5.3991
G1 X-23.308 Y-7.429 E5.3997
G1 X-22.654 Y-9.235 E5.4841
G1 X-22.648 Y-9.250 E5.4848
G1 X-22.555 Y-9.474 E5.4954
G1 X-22.549 Y-9.489 E5.4962
G1 X-21.734 Y-11.229 E5.5805
G1 X-21.728 Y-11.241 E5.5811
G1 X-21.636 Y-11.421 E5.5900
G1 X-21.629 Y-11.433 E5.5906
G1 X-20.983 Y-12.578 E5.6483
G1 X-20.978 Y-12.587 E5.6487
G1 X-20.894 Y-12.725 E5.6559
G1 X-20.888 Y-12.735 E5.6563
G1 X-20.186 Y-13.822 E5.7132
G1 X-20.180 Y-13.831 E5.7136
G1 X-20.088 Y-13.964 E5.7207
G1 X-20.081 Y-13.973 E5.7212
G1 X-19.314 Y-15.015 E5.7780
G1 X-19.308 Y-15.024 E5.7785
G1 X-19.208 Y-15.151 E5.7856
G1 X-19.201 Y-15.160 E5.7861
G1 X-18.372 Y-16.154 E5.8429
G1 X-18.365 Y-16.162 E5.8434
G1 X-18.258 Y-16.283 E5.8505
G1 X-18.251 Y-16.291 E5.8510
G1 X-17.350 Y-17.248 E5.9087
G1 X-17.340 Y-17.258 E5.9093
G1 X-17.196 Y-17.400 E5.9182
G1 X-17.186 Y-17.410 E5.9188
G1 X-15.767 Y-18.706 E6.0032
G1 X-15.755 Y-18.717 E6.0039
G1 X-15.566 Y-18.874 E6.0147
G1 X-15.553 Y-18.884 E6.0154
G1 X-14.001 Y-20.060 E6.1009
G1 X-13.990 Y-20.068 E6.1015
G1 X-13.825 Y-20.184 E6.1103
G1 X-13.814 Y-20.191 E6.1109
G1 X-12.733 Y-20.889 E6.1674
G1 X-12.724 Y-20.895 E6.1679
G1 X-12.586 Y-20.978 E6.1749
G1 X-12.577 Y-20.984 E6.1754
G1 X-11.433 Y-21.629 E6.2331
G1 X-11.421 Y-21.636 E6.2337
G1 X-11.241 Y-21.728 E6.2426
G1 X-11.229 Y-21.734 E6.2432
G1 X-9.489 Y-22.549 E6.3275
G1 X-9.474 Y-22.556 E6.3282
G1 X-9.248 Y-22.649 E6.3390
G1 X-9.233 Y-22.655 E6.3397
G1 X-7.414 Y-23.313 E6.4246
G1 X-7.401 Y-23.317 E6.4252
G1 X-7.209 Y-23.378 E6.4340
G1 X-7.196 Y-23.382 E6.4346
G1 X-5.943 Y-23.731 E6.4917
G1 X-5.933 Y-23.734 E6.4922
G1 X-5.776 Y-23.773 E6.4993
G1 X-5.765 Y-23.775 E6.4998
G1 X-4.480 Y-24.051 E6.5575
G1 X-4.467 Y-24.054 E6.5581
G1 X-4.268 Y-24.089 E6.5670
G1 X-4.254 Y-24.091 E6.5676
G1 X-2.351 Y-24.351 E6.6519
G1 X-2.335 Y-24.353 E6.6526
G1 X-2.093 Y-24.375 E6.6633
G1 X-2.077 Y-24.376 E6.6640
G1 X-1.177 Y-24.417 E6.7035
G1 X-0.178 Y-24.462 F1200
G92 E0
G1 E-2.0000 F1800
G1 X-0.160 Y-23.982 F9000
G1 E0.0000 F1800
G92 E0
G1 X-0.156 Y-23.982 E0.0002 F1200
G1 X-0.002 Y-23.985 E0.0069
G1 X0.002 Y-23.985 E0.0071
G1 X0.703 Y-23.974 E0.0379
G1 X0.706 Y-23.974 E0.0380
G1 X0.822 Y-23.970 E0.0431
G1 X0.825 Y-23.970 E0.0432
G1 X2.090 Y-23.893 E0.0989
G1 X2.094 Y-23.893 E0.0991
G1 X2.248 Y-23.879 E0.1058
G1 X2.251 Y-23.878 E0.1060
G1 X3.548 Y-23.721 E0.1634
G1 X3.552 Y-23.720 E0.1635
G1 X3.743 Y-23.690 E0.1720
G1 X3.748 Y-23.689 E0.1722
G1 X5.622 Y-23.316 E0.2561
G1 X5.627 Y-23.315 E0.2564
G1 X5.852 Y-23.259 E0.2666
G1 X5.858 Y-23.258 E0.2668
G1 X7.690 Y-22.717 E0.3507
G1 X7.695 Y-22.716 E0.3509
G1 X7.878 Y-22.654 E0.3594
G1 X7.882 Y-22.653 E0.3596
G1 X9.104 Y-22.189 E0.4169
G1 X9.107 Y-22.188 E0.4171
G1 X9.250 Y-22.129 E0.4239
G1 X9.253 Y-22.127 E0.4240
G1 X10.444 Y-21.591 E0.4814
G1 X10.448 Y-21.589 E0.4816
G1 X10.622 Y-21.503 E0.4901
G1 X10.626 Y-21.501 E0.4903
G1 X12.287 Y-20.597 E0.5733
G1 X12.291 Y-20.595 E0.5735
G1 X12.457 Y-20.496 E0.5820
G1 X12.461 Y-20.494 E0.5822
