; G-Code generated by Simplify3D(R) Version 3.1.0
; Sep 14, 2016 at 9:21:11 PM
; Settings Summary
;   processName,Process1
;   applyToModels,Straw
;   profileName,Rostock MAX v2 (modified)
;   profileVersion,2015-05-01 08:00:00
;   baseProfile,
;   printMaterial,PLA
;   printQuality,Medium
;   printExtruders,
;   extruderName,Primary Extruder
;   extruderToolheadNumber,0
;   extruderDiameter,0.4
;   extruderAutoWidth,1
;   extruderWidth,0.48
;   extrusionMultiplier,1.1
;   extruderUseRetract,1
;   extruderRetractionDistance,2
;   extruderExtraRestartDistance,0
;   extruderRetractionZLift,0
;   extruderRetractionSpeed,1800
;   extruderUseCoasting,1
;   extruderCoastingDistance,1
;   extruderUseWipe,0
;   extruderWipeDistance,5
;   primaryExtruder,0
;   layerHeight,0.2
;   topSolidLayers,0
;   bottomSolidLayers,0
;   perimeterOutlines,1
;   printPerimetersInsideOut,1
;   startPointOption,2
;   startPointOriginX,0
;   startPointOriginY,0
;   startPointOriginZ,300
;   sequentialIslands,0
;   spiralVaseMode,1
;   firstLayerHeightPercentage,25
;   firstLayerWidthPercentage,100
;   firstLayerUnderspeed,0.4
;   useRaft,0
;   raftExtruder,0
;   raftLayers,3
;   raftOffset,15
;   raftSeparationDistance,0.14
;   raftInfill,85
;   disableRaftBaseLayers,0
;   useSkirt,1
;   skirtExtruder,0
;   skirtLayers,1
;   skirtOutlines,4
;   skirtOffset,5
;   usePrimePillar,0
;   primePillarExtruder,999
;   primePillarWidth,12
;   primePillarLocation,7
;   primePillarSpeedMultiplier,1
;   useOozeShield,0
;   oozeShieldExtruder,999
;   oozeShieldOffset,2
;   oozeShieldOutlines,1
;   oozeShieldSidewallShape,1
;   oozeShieldSidewallAngle,30
;   oozeShieldSpeedMultiplier,1
;   infillExtruder,0
;   internalInfillPattern,Rectilinear
;   externalInfillPattern,Rectilinear
;   infillPercentage,0
;   outlineOverlapPercentage,40
;   infillExtrusionWidthPercentage,100
;   minInfillLength,3
;   infillLayerInterval,1
;   infillAngles,45,-45
;   overlapInfillAngles,0
;   generateSupport,0
;   supportExtruder,0
;   supportInfillPercentage,30
;   supportExtraInflation,0
;   denseSupportLayers,0
;   denseSupportInfillPercentage,70
;   supportLayerInterval,1
;   supportHorizontalPartOffset,0.3
;   supportUpperSeparationLayers,1
;   supportLowerSeparationLayers,1
;   supportType,1
;   supportGridSpacing,4
;   maxOverhangAngle,45
;   supportAngles,0
;   temperatureName,Primary Extruder,Heated Bed
;   temperatureNumber,0,1
;   temperatureSetpointCount,1,1
;   temperatureSetpointLayers,1,1
;   temperatureSetpointTemperatures,205,60
;   temperatureStabilizeAtStartup,1,1
;   temperatureHeatedBed,0,1
;   temperatureRelayBetweenLayers,0,0
;   temperatureRelayBetweenLoops,0,0
;   fanLayers,1,2
;   fanSpeeds,0,100
;   blipFanToFullPower,1
;   adjustSpeedForCooling,1
;   minSpeedLayerTime,15
;   minCoolingSpeedSlowdown,20
;   increaseFanForCooling,0
;   minFanLayerTime,60
;   maxCoolingFanSpeed,100
;   increaseFanForBridging,0
;   bridgingFanSpeed,100
;   use5D,1
;   relativeEdistances,0
;   allowEaxisZeroing,1
;   independentExtruderAxes,0
;   includeM10123,0
;   stickySupport,1
;   applyToolheadOffsets,0
;   gcodeXoffset,0
;   gcodeYoffset,0
;   gcodeZoffset,0
;   overrideMachineDefinition,1
;   machineTypeOverride,1
;   strokeXoverride,197
;   strokeYoverride,197
;   strokeZoverride,375
;   originOffsetXoverride,98.5
;   originOffsetYoverride,98.5
;   originOffsetZoverride,0
;   homeXdirOverride,0
;   homeYdirOverride,0
;   homeZdirOverride,1
;   flipXoverride,1
;   flipYoverride,-1
;   flipZoverride,1
;   toolheadOffsets,0,0|0,0|0,0|0,0|0,0|0,0
;   overrideFirmwareConfiguration,1
;   firmwareTypeOverride,RepRap (Marlin/Repetier/Sprinter)
;   GPXconfigOverride,r2
;   baudRateOverride,115200
;   overridePrinterModels,1
;   printerModelsOverride
;   startingGcode,G28 ; home all axes
;   layerChangeGcode,
;   retractionGcode,
;   toolChangeGcode,
;   endingGcode,M104 S0 ; turn off extruder,M140 S0 ; turn off bed,G28 ; home axes,M84 ; disable motors
;   exportFileFormat,gcode
;   celebration,0
;   celebrationSong,Random Song
;   postProcessing,
;   defaultSpeed,1500
;   outlineUnderspeed,0.5
;   solidInfillUnderspeed,0.8
;   supportUnderspeed,0.8
;   rapidXYspeed,9000
;   rapidZspeed,1200
;   minBridgingArea,50
;   bridgingExtraInflation,0
;   bridgingExtrusionMultiplier,0.8
;   bridgingSpeedMultiplier,0.7
;   filamentDiameter,1.75
;   filamentPricePerKg,22
;   filamentDensity,1.25
;   useMinPrintHeight,0
;   minPrintHeight,0.05
;   useMaxPrintHeight,0
;   maxPrintHeight,0
;   useDiaphragm,0
;   diaphragmLayerInterval,20
;   robustSlicing,1
;   mergeAllIntoSolid,0
;   onlyRetractWhenCrossingOutline,0
;   retractBetweenLayers,0
;   useRetractionMinTravel,0
;   retractionMinTravel,3
;   retractWhileWiping,1
;   onlyWipeOutlines,1
;   avoidCrossingOutline,1
;   maxMovementDetourFactor,1.5
;   toolChangeRetractionDistance,12
;   toolChangeExtraRestartDistance,-0.5
;   toolChangeRetractionSpeed,600
;   allowThinWallGapFill,1
;   thinWallAllowedOverlapPercentage,10
;   horizontalSizeCompensation,0
G90
M82
M106 S0
M140 S60
M190 S60
M104 S205 T0
M109 S205 T0
G28 ; home all axes
G92 E0
G1 E-2.0000 F1800
G1 Z0.050 F1200
; layer 1, Z = 0.05
T0
; tool H0.200 W0.480
; skirt
G1 X2.788 Y8.223 F9000
G1 E0.0000 F540
G92 E0
G1 X1.806 Y8.493 E0.0447 F300
G1 X1.727 Y8.511 E0.0483
G1 X1.176 Y8.607 E0.0728
G1 X1.096 Y8.617 E0.0764
G1 X0.288 Y8.679 E0.1119
G1 X0.224 Y8.681 E0.1148
G1 X-0.224 Y8.681 E0.1344
G1 X-0.288 Y8.679 E0.1372
G1 X-1.096 Y8.617 E0.1728
G1 X-1.176 Y8.607 E0.1763
G1 X-1.727 Y8.511 E0.2009
G1 X-1.806 Y8.493 E0.2044
G1 X-2.788 Y8.223 E0.2492
G1 X-2.865 Y8.198 E0.2527
G1 X-3.388 Y7.999 E0.2773
G1 X-3.461 Y7.967 E0.2808
G1 X-4.237 Y7.583 E0.3188
G1 X-4.308 Y7.543 E0.3224
G1 X-4.783 Y7.248 E0.3469
G1 X-4.850 Y7.203 E0.3505
G1 X-5.705 Y6.551 E0.3977
G1 X-5.778 Y6.488 E0.4019
G1 X-6.262 Y6.022 E0.4314
G1 X-6.328 Y5.951 E0.4357
G1 X-7.011 Y5.122 E0.4828
G1 X-7.060 Y5.058 E0.4864
G1 X-7.373 Y4.594 E0.5109
G1 X-7.415 Y4.525 E0.5145
G1 X-7.828 Y3.764 E0.5525
G1 X-7.863 Y3.692 E0.5560
G1 X-8.083 Y3.176 E0.5806
G1 X-8.110 Y3.101 E0.5841
G1 X-8.435 Y2.076 E0.6313
G1 X-8.459 Y1.983 E0.6356
G1 X-8.586 Y1.323 E0.6651
G1 X-8.599 Y1.227 E0.6693
G1 X-8.682 Y0.156 E0.7165
G1 X-8.684 Y0.075 E0.7200
G1 X-8.673 Y-0.484 E0.7446
G1 X-8.668 Y-0.565 E0.7481
G1 X-8.575 Y-1.370 E0.7837
G1 X-8.565 Y-1.433 E0.7865
G1 X-8.480 Y-1.873 E0.8062
G1 X-8.465 Y-1.935 E0.8090
G1 X-8.265 Y-2.662 E0.8421
G1 X-8.246 Y-2.724 E0.8450
G1 X-8.095 Y-3.145 E0.8646
G1 X-8.071 Y-3.205 E0.8674
G1 X-7.739 Y-3.944 E0.9030
G1 X-7.703 Y-4.016 E0.9065
G1 X-7.426 Y-4.502 E0.9311
G1 X-7.383 Y-4.570 E0.9346
G1 X-6.797 Y-5.404 E0.9794
G1 X-6.747 Y-5.467 E0.9829
G1 X-6.383 Y-5.892 E1.0075
G1 X-6.328 Y-5.951 E1.0110
G1 X-5.744 Y-6.512 E1.0466
G1 X-5.696 Y-6.555 E1.0494
G1 X-5.351 Y-6.840 E1.0690
G1 X-5.300 Y-6.879 E1.0719
G1 X-4.683 Y-7.313 E1.1050
G1 X-4.629 Y-7.348 E1.1078
G1 X-4.244 Y-7.577 E1.1275
G1 X-4.187 Y-7.607 E1.1303
G1 X-3.512 Y-7.942 E1.1634
G1 X-3.453 Y-7.968 E1.1662
G1 X-3.038 Y-8.136 E1.1859
G1 X-2.977 Y-8.157 E1.1887
G1 X-2.205 Y-8.402 E1.2243
G1 X-2.127 Y-8.422 E1.2278
G1 X-1.579 Y-8.539 E1.2524
G1 X-1.500 Y-8.553 E1.2559
G1 X-0.488 Y-8.669 E1.3006
G1 X-0.408 Y-8.675 E1.3042
G1 X0.152 Y-8.685 E1.3287
G1 X0.232 Y-8.683 E1.3323
G1 X1.096 Y-8.617 E1.3703
G1 X1.176 Y-8.607 E1.3738
G1 X1.727 Y-8.511 E1.3984
G1 X1.806 Y-8.493 E1.4019
G1 X2.788 Y-8.223 E1.4467
G1 X2.864 Y-8.198 E1.4502
G1 X3.388 Y-7.999 E1.4748
G1 X3.461 Y-7.967 E1.4783
G1 X4.187 Y-7.607 E1.5139
G1 X4.244 Y-7.577 E1.5167
G1 X4.629 Y-7.348 E1.5364
G1 X4.683 Y-7.313 E1.5392
G1 X5.300 Y-6.879 E1.5723
G1 X5.351 Y-6.840 E1.5751
G1 X5.696 Y-6.555 E1.5948
G1 X5.744 Y-6.512 E1.5976
G1 X6.287 Y-5.989 E1.6307
G1 X6.332 Y-5.943 E1.6335
G1 X6.630 Y-5.609 E1.6532
G1 X6.671 Y-5.559 E1.6560
G1 X7.162 Y-4.915 E1.6916
G1 X7.208 Y-4.849 E1.6951
G1 X7.503 Y-4.373 E1.7197
G1 X7.542 Y-4.303 E1.7232
G1 X7.994 Y-3.390 E1.7680
G1 X8.026 Y-3.316 E1.7715
G1 X8.226 Y-2.793 E1.7961
G1 X8.251 Y-2.716 E1.7996
G1 X8.480 Y-1.881 E1.8376
G1 X8.498 Y-1.803 E1.8411
G1 X8.594 Y-1.251 E1.8657
G1 X8.604 Y-1.171 E1.8693
G1 X8.682 Y-0.156 E1.9140
G1 X8.684 Y-0.075 E1.9175
G1 X8.673 Y0.484 E1.9421
G1 X8.668 Y0.565 E1.9456
G1 X8.569 Y1.425 E1.9837
G1 X8.555 Y1.505 E1.9872
G1 X8.438 Y2.052 E2.0118
G1 X8.418 Y2.130 E2.0153
G1 X8.110 Y3.101 E2.0600
G1 X8.083 Y3.176 E2.0636
G1 X7.863 Y3.692 E2.0881
G1 X7.828 Y3.764 E2.0917
G1 X7.415 Y4.525 E2.1297
G1 X7.373 Y4.594 E2.1332
G1 X7.060 Y5.058 E2.1578
G1 X7.011 Y5.122 E2.1613
G1 X6.328 Y5.951 E2.2085
G1 X6.262 Y6.022 E2.2128
G1 X5.778 Y6.488 E2.2423
G1 X5.705 Y6.551 E2.2465
G1 X4.850 Y7.203 E2.2937
G1 X4.783 Y7.248 E2.2972
G1 X4.308 Y7.543 E2.3218
G1 X4.237 Y7.583 E2.3253
G1 X3.712 Y7.843 E2.3511
G1 X3.461 Y7.967 F300
G1 X3.388 Y7.999 F300
G1 X2.865 Y8.198 F300
G1 X2.788 Y8.223 F300
G92 E0
G1 E-2.0000 F1800
G1 X2.650 Y7.763 F9000
G1 E0.0000 F1800
G92 E0
G1 X1.690 Y8.027 E0.0437 F300
G1 X1.634 Y8.040 E0.0462
G1 X1.105 Y8.132 E0.0698
G1 X1.048 Y8.139 E0.0723
G1 X0.261 Y8.200 E0.1070
G1 X0.215 Y8.201 E0.1090
G1 X-0.215 Y8.201 E0.1279
G1 X-0.261 Y8.200 E0.1299
G1 X-1.048 Y8.139 E0.1645
G1 X-1.105 Y8.132 E0.1671
G1 X-1.634 Y8.040 E0.1906
G1 X-1.690 Y8.027 E0.1931
G1 X-2.650 Y7.763 E0.2369
G1 X-2.704 Y7.746 E0.2394
G1 X-3.206 Y7.555 E0.2629
G1 X-3.259 Y7.532 E0.2655
G1 X-4.014 Y7.157 E0.3025
G1 X-4.064 Y7.130 E0.3050
G1 X-4.521 Y6.846 E0.3286
G1 X-4.568 Y6.814 E0.3311
G1 X-5.403 Y6.178 E0.3772
G1 X-5.455 Y6.133 E0.3802
G1 X-5.919 Y5.686 E0.4085
G1 X-5.966 Y5.635 E0.4115
G1 X-6.634 Y4.825 E0.4576
G1 X-6.668 Y4.779 E0.4601
G1 X-6.969 Y4.335 E0.4837
G1 X-6.998 Y4.286 E0.4862
G1 X-7.401 Y3.545 E0.5232
G1 X-7.426 Y3.493 E0.5258
G1 X-7.636 Y2.999 E0.5493
G1 X-7.656 Y2.945 E0.5518
G1 X-7.973 Y1.945 E0.5979
G1 X-7.990 Y1.878 E0.6010
G1 X-8.113 Y1.245 E0.6292
G1 X-8.122 Y1.177 E0.6323
G1 X-8.202 Y0.130 E0.6783
G1 X-8.204 Y0.073 E0.6809
G1 X-8.194 Y-0.464 E0.7044
G1 X-8.190 Y-0.521 E0.7070
G1 X-8.099 Y-1.305 E0.7416
G1 X-8.092 Y-1.351 E0.7436
G1 X-8.010 Y-1.772 E0.7625
G1 X-8.000 Y-1.817 E0.7645
G1 X-7.805 Y-2.526 E0.7968
G1 X-7.791 Y-2.570 E0.7988
G1 X-7.646 Y-2.974 E0.8177
G1 X-7.629 Y-3.017 E0.8197
G1 X-7.306 Y-3.737 E0.8543
G1 X-7.280 Y-3.788 E0.8569
G1 X-7.015 Y-4.255 E0.8804
G1 X-6.984 Y-4.304 E0.8830
G1 X-6.411 Y-5.118 E0.9267
G1 X-6.376 Y-5.163 E0.9292
G1 X-6.026 Y-5.571 E0.9528
G1 X-5.987 Y-5.613 E0.9553
G1 X-5.418 Y-6.160 E0.9899
G1 X-5.384 Y-6.191 E0.9920
G1 X-5.052 Y-6.464 E1.0108
G1 X-5.016 Y-6.492 E1.0128
G1 X-4.414 Y-6.915 E1.0451
G1 X-4.376 Y-6.940 E1.0471
G1 X-4.007 Y-7.159 E1.0660
G1 X-3.966 Y-7.181 E1.0680
G1 X-3.307 Y-7.508 E1.1003
G1 X-3.265 Y-7.527 E1.1023
G1 X-2.867 Y-7.687 E1.1212
G1 X-2.823 Y-7.703 E1.1232
G1 X-2.071 Y-7.941 E1.1579
G1 X-2.015 Y-7.955 E1.1604
G1 X-1.490 Y-8.068 E1.1839
G1 X-1.434 Y-8.077 E1.1865
G1 X-0.444 Y-8.191 E1.2302
G1 X-0.387 Y-8.195 E1.2327
G1 X0.150 Y-8.205 E1.2563
G1 X0.207 Y-8.204 E1.2588
G1 X1.048 Y-8.139 E1.2958
G1 X1.105 Y-8.132 E1.2983
G1 X1.633 Y-8.040 E1.3219
G1 X1.690 Y-8.027 E1.3244
G1 X2.650 Y-7.763 E1.3681
G1 X2.704 Y-7.746 E1.3707
G1 X3.206 Y-7.555 E1.3942
G1 X3.259 Y-7.532 E1.3968
G1 X3.966 Y-7.181 E1.4314
G1 X4.007 Y-7.159 E1.4334
G1 X4.376 Y-6.940 E1.4523
G1 X4.414 Y-6.915 E1.4543
G1 X5.016 Y-6.492 E1.4866
G1 X5.052 Y-6.464 E1.4886
G1 X5.384 Y-6.191 E1.5075
G1 X5.418 Y-6.160 E1.5095
G1 X5.948 Y-5.650 E1.5418
G1 X5.980 Y-5.617 E1.5438
G1 X6.266 Y-5.296 E1.5626
G1 X6.295 Y-5.261 E1.5647
G1 X6.773 Y-4.633 E1.5993
G1 X6.806 Y-4.586 E1.6018
G1 X7.089 Y-4.130 E1.6254
G1 X7.117 Y-4.079 E1.6279
G1 X7.559 Y-3.187 E1.6717
G1 X7.582 Y-3.134 E1.6742
G1 X7.773 Y-2.633 E1.6977
G1 X7.791 Y-2.578 E1.7003
G1 X8.014 Y-1.765 E1.7373
G1 X8.027 Y-1.709 E1.7398
G1 X8.119 Y-1.180 E1.7634
G1 X8.126 Y-1.123 E1.7659
G1 X8.202 Y-0.130 E1.8096
G1 X8.204 Y-0.073 E1.8121
G1 X8.194 Y0.464 E1.8357
G1 X8.190 Y0.521 E1.8382
G1 X8.093 Y1.359 E1.8752
G1 X8.084 Y1.415 E1.8778
G1 X7.971 Y1.940 E1.9013
G1 X7.957 Y1.996 E1.9039
G1 X7.656 Y2.945 E1.9476
G1 X7.636 Y2.999 E1.9501
G1 X7.426 Y3.493 E1.9737
G1 X7.401 Y3.545 E1.9762
G1 X6.998 Y4.286 E2.0132
G1 X6.969 Y4.335 E2.0157
G1 X6.668 Y4.779 E2.0393
G1 X6.634 Y4.825 E2.0418
G1 X5.966 Y5.635 E2.0879
G1 X5.919 Y5.686 E2.0909
G1 X5.455 Y6.133 E2.1192
G1 X5.403 Y6.178 E2.1222
G1 X4.568 Y6.814 E2.1683
G1 X4.521 Y6.846 E2.1708
G1 X4.064 Y7.130 E2.1944
G1 X4.014 Y7.157 E2.1969
G1 X3.571 Y7.377 E2.2187
G1 X3.259 Y7.532 F300
G1 X3.206 Y7.555 F300
G1 X2.704 Y7.746 F300
G1 X2.650 Y7.763 F300
G92 E0
G1 E-2.0000 F1800
G1 X2.512 Y7.304 F9000
G1 E0.0000 F1800
G92 E0
G1 X1.574 Y7.561 E0.0427 F300
G1 X1.540 Y7.569 E0.0442
G1 X1.034 Y7.657 E0.0668
G1 X0.999 Y7.661 E0.0683
G1 X0.233 Y7.720 E0.1020
G1 X0.205 Y7.721 E0.1033
G1 X-0.205 Y7.721 E0.1213
G1 X-0.233 Y7.720 E0.1225
G1 X-0.999 Y7.661 E0.1563
G1 X-1.034 Y7.657 E0.1578
G1 X-1.540 Y7.569 E0.1803
G1 X-1.573 Y7.561 E0.1818
G1 X-2.512 Y7.304 E0.2245
G1 X-2.544 Y7.293 E0.2261
G1 X-3.024 Y7.110 E0.2486
G1 X-3.056 Y7.096 E0.2501
G1 X-3.791 Y6.732 E0.2861
G1 X-3.821 Y6.716 E0.2876
G1 X-4.258 Y6.445 E0.3102
G1 X-4.286 Y6.425 E0.3117
G1 X-5.101 Y5.804 E0.3567
G1 X-5.132 Y5.777 E0.3585
G1 X-5.576 Y5.350 E0.3856
G1 X-5.605 Y5.319 E0.3874
G1 X-6.256 Y4.529 E0.4324
G1 X-6.277 Y4.501 E0.4339
G1 X-6.564 Y4.076 E0.4564
G1 X-6.582 Y4.046 E0.4580
G1 X-6.974 Y3.326 E0.4940
G1 X-6.989 Y3.295 E0.4955
G1 X-7.190 Y2.822 E0.5180
G1 X-7.202 Y2.789 E0.5195
G1 X-7.511 Y1.813 E0.5645
G1 X-7.521 Y1.773 E0.5663
G1 X-7.639 Y1.167 E0.5934
G1 X-7.644 Y1.126 E0.5952
G1 X-7.723 Y0.105 E0.6402
G1 X-7.724 Y0.071 E0.6417
G1 X-7.714 Y-0.443 E0.6643
G1 X-7.712 Y-0.477 E0.6658
G1 X-7.623 Y-1.241 E0.6995
G1 X-7.619 Y-1.268 E0.7007
G1 X-7.541 Y-1.672 E0.7188
G1 X-7.535 Y-1.699 E0.7200
G1 X-7.345 Y-2.390 E0.7515
G1 X-7.336 Y-2.417 E0.7527
G1 X-7.197 Y-2.803 E0.7707
G1 X-7.187 Y-2.829 E0.7719
G1 X-6.873 Y-3.530 E0.8057
G1 X-6.857 Y-3.561 E0.8072
G1 X-6.603 Y-4.008 E0.8298
G1 X-6.585 Y-4.037 E0.8313
G1 X-6.025 Y-4.832 E0.8740
G1 X-6.004 Y-4.860 E0.8755
G1 X-5.669 Y-5.250 E0.8981
G1 X-5.646 Y-5.275 E0.8996
G1 X-5.092 Y-5.808 E0.9333
G1 X-5.071 Y-5.826 E0.9345
G1 X-4.754 Y-6.088 E0.9526
G1 X-4.732 Y-6.104 E0.9538
G1 X-4.146 Y-6.517 E0.9853
G1 X-4.122 Y-6.532 E0.9865
G1 X-3.769 Y-6.742 E1.0045
G1 X-3.745 Y-6.755 E1.0057
G1 X-3.102 Y-7.073 E1.0372
G1 X-3.077 Y-7.085 E1.0384
G1 X-2.696 Y-7.238 E1.0565
G1 X-2.670 Y-7.248 E1.0577
G1 X-1.937 Y-7.480 E1.0914
G1 X-1.904 Y-7.488 E1.0930
G1 X-1.401 Y-7.596 E1.1155
G1 X-1.367 Y-7.601 E1.1170
G1 X-0.401 Y-7.713 E1.1597
G1 X-0.366 Y-7.715 E1.1612
G1 X0.147 Y-7.725 E1.1838
G1 X0.182 Y-7.724 E1.1853
G1 X0.999 Y-7.661 E1.2213
G1 X1.034 Y-7.657 E1.2228
G1 X1.540 Y-7.569 E1.2454
G1 X1.573 Y-7.561 E1.2469
G1 X2.511 Y-7.304 E1.2896
G1 X2.544 Y-7.293 E1.2911
G1 X3.024 Y-7.110 E1.3137
G1 X3.056 Y-7.096 E1.3152
G1 X3.745 Y-6.755 E1.3489
G1 X3.769 Y-6.742 E1.3502
G1 X4.122 Y-6.532 E1.3682
G1 X4.146 Y-6.517 E1.3694
G1 X4.732 Y-6.104 E1.4009
G1 X4.754 Y-6.088 E1.4021
G1 X5.071 Y-5.826 E1.4202
G1 X5.092 Y-5.808 E1.4214
G1 X5.609 Y-5.310 E1.4529
G1 X5.628 Y-5.291 E1.4541
G1 X5.901 Y-4.984 E1.4721
G1 X5.919 Y-4.963 E1.4733
G1 X6.385 Y-4.351 E1.5071
G1 X6.404 Y-4.323 E1.5086
G1 X6.675 Y-3.886 E1.5311
G1 X6.692 Y-3.856 E1.5326
G1 X7.124 Y-2.984 E1.5754
G1 X7.137 Y-2.953 E1.5769
G1 X7.320 Y-2.473 E1.5994
G1 X7.331 Y-2.440 E1.6009
G1 X7.548 Y-1.649 E1.6369
G1 X7.556 Y-1.615 E1.6385
G1 X7.644 Y-1.109 E1.6610
G1 X7.648 Y-1.075 E1.6625
G1 X7.723 Y-0.105 E1.7052
G1 X7.724 Y-0.071 E1.7068
G1 X7.714 Y0.443 E1.7293
G1 X7.712 Y0.478 E1.7308
G1 X7.617 Y1.292 E1.7668
G1 X7.612 Y1.326 E1.7683
G1 X7.504 Y1.829 E1.7909
G1 X7.496 Y1.862 E1.7924
G1 X7.202 Y2.789 E1.8351
G1 X7.190 Y2.822 E1.8366
G1 X6.989 Y3.295 E1.8592
G1 X6.974 Y3.326 E1.8607
G1 X6.582 Y4.046 E1.8967
G1 X6.564 Y4.076 E1.8982
G1 X6.277 Y4.501 E1.9208
G1 X6.256 Y4.529 E1.9223
G1 X5.605 Y5.319 E1.9673
G1 X5.576 Y5.350 E1.9691
G1 X5.132 Y5.777 E1.9962
G1 X5.101 Y5.804 E1.9980
G1 X4.286 Y6.425 E2.0429
G1 X4.258 Y6.445 E2.0445
G1 X3.821 Y6.716 E2.0670
G1 X3.791 Y6.732 E2.0685
G1 X3.430 Y6.911 E2.0862
