; G-Code generated by Simplify3D(R) Version 3.1.0
; Jul 2, 2016 at 3:20:46 AM
; Settings Summary
;   processName,Process1
;   applyToModels,Parts_Tray_Holder
;   profileName,Rostock MAX v2 (modified)
;   profileVersion,2015-05-01 08:00:00
;   baseProfile,
;   printMaterial,PLA
;   printQuality,Medium
;   printExtruders,
;   extruderName,Primary Extruder
;   extruderToolheadNumber,0
;   extruderDiameter,0.4
;   extruderAutoWidth,1
;   extruderWidth,0.48
;   extrusionMultiplier,1
;   extruderUseRetract,1
;   extruderRetractionDistance,6
;   extruderExtraRestartDistance,0
;   extruderRetractionZLift,0.3
;   extruderRetractionSpeed,6600
;   extruderUseCoasting,0
;   extruderCoastingDistance,1
;   extruderUseWipe,1
;   extruderWipeDistance,5
;   primaryExtruder,0
;   layerHeight,0.2
;   topSolidLayers,3
;   bottomSolidLayers,3
;   perimeterOutlines,3
;   printPerimetersInsideOut,1
;   startPointOption,2
;   startPointOriginX,0
;   startPointOriginY,0
;   startPointOriginZ,300
;   sequentialIslands,0
;   spiralVaseMode,0
;   firstLayerHeightPercentage,90
;   firstLayerWidthPercentage,150
;   firstLayerUnderspeed,0.4
;   useRaft,0
;   raftExtruder,0
;   raftLayers,3
;   raftOffset,3
;   raftSeparationDistance,0.14
;   raftInfill,85
;   disableRaftBaseLayers,0
;   useSkirt,1
;   skirtExtruder,0
;   skirtLayers,1
;   skirtOutlines,2
;   skirtOffset,4
;   usePrimePillar,0
;   primePillarExtruder,999
;   primePillarWidth,12
;   primePillarLocation,7
;   primePillarSpeedMultiplier,1
;   useOozeShield,0
;   oozeShieldExtruder,999
;   oozeShieldOffset,2
;   oozeShieldOutlines,1
;   oozeShieldSidewallShape,1
;   oozeShieldSidewallAngle,30
;   oozeShieldSpeedMultiplier,1
;   infillExtruder,0
;   internalInfillPattern,Rectilinear
;   externalInfillPattern,Rectilinear
;   infillPercentage,25
;   outlineOverlapPercentage,15
;   infillExtrusionWidthPercentage,150
;   minInfillLength,5
;   infillLayerInterval,1
;   infillAngles,45,-45
;   overlapInfillAngles,0
;   generateSupport,0
;   supportExtruder,0
;   supportInfillPercentage,30
;   supportExtraInflation,0
;   denseSupportLayers,0
;   denseSupportInfillPercentage,70
;   supportLayerInterval,1
;   supportHorizontalPartOffset,0.3
;   supportUpperSeparationLayers,1
;   supportLowerSeparationLayers,1
;   supportType,0
;   supportGridSpacing,4
;   maxOverhangAngle,45
;   supportAngles,0
;   temperatureName,Primary Extruder,Heated Bed
;   temperatureNumber,0,1
;   temperatureSetpointCount,1,1
;   temperatureSetpointLayers,1,1
;   temperatureSetpointTemperatures,205,60
;   temperatureStabilizeAtStartup,1,1
;   temperatureHeatedBed,0,1
;   temperatureRelayBetweenLayers,0,0
;   temperatureRelayBetweenLoops,0,0
;   fanLayers,1,2
;   fanSpeeds,0,100
;   blipFanToFullPower,1
;   adjustSpeedForCooling,1
;   minSpeedLayerTime,15
;   minCoolingSpeedSlowdown,20
;   increaseFanForCooling,0
;   minFanLayerTime,60
;   maxCoolingFanSpeed,100
;   increaseFanForBridging,0
;   bridgingFanSpeed,100
;   use5D,1
;   relativeEdistances,0
;   allowEaxisZeroing,1
;   independentExtruderAxes,0
;   includeM10123,0
;   stickySupport,1
;   applyToolheadOffsets,0
;   gcodeXoffset,0
;   gcodeYoffset,0
;   gcodeZoffset,0
;   overrideMachineDefinition,1
;   machineTypeOverride,1
;   strokeXoverride,197
;   strokeYoverride,197
;   strokeZoverride,375
;   originOffsetXoverride,98.5
;   originOffsetYoverride,98.5
;   originOffsetZoverride,0
;   homeXdirOverride,0
;   homeYdirOverride,0
;   homeZdirOverride,1
;   flipXoverride,1
;   flipYoverride,-1
;   flipZoverride,1
;   toolheadOffsets,0,0|0,0|0,0|0,0|0,0|0,0
;   overrideFirmwareConfiguration,1
;   firmwareTypeOverride,RepRap (Marlin/Repetier/Sprinter)
;   GPXconfigOverride,r2
;   baudRateOverride,115200
;   overridePrinterModels,1
;   printerModelsOverride
;   startingGcode,G28 ; home all axes
;   layerChangeGcode,
;   retractionGcode,
;   toolChangeGcode,
;   endingGcode,M104 S0 ; turn off extruder,M140 S0 ; turn off bed,G28 ; home axes,M84 ; disable motors
;   exportFileFormat,gcode
;   celebration,0
;   celebrationSong,Random Song
;   postProcessing,
;   defaultSpeed,3000
;   outlineUnderspeed,0.5
;   solidInfillUnderspeed,0.8
;   supportUnderspeed,0.8
;   rapidXYspeed,9000
;   rapidZspeed,1200
;   minBridgingArea,50
;   bridgingExtraInflation,0
;   bridgingExtrusionMultiplier,0.95
;   bridgingSpeedMultiplier,0.7
;   filamentDiameter,1.7
;   filamentPricePerKg,33.98
;   filamentDensity,1.25
;   useMinPrintHeight,0
;   minPrintHeight,0
;   useMaxPrintHeight,0
;   maxPrintHeight,0
;   useDiaphragm,0
;   diaphragmLayerInterval,20
;   robustSlicing,1
;   mergeAllIntoSolid,0
;   onlyRetractWhenCrossingOutline,1
;   retractBetweenLayers,1
;   useRetractionMinTravel,0
;   retractionMinTravel,3
;   retractWhileWiping,0
;   onlyWipeOutlines,1
;   avoidCrossingOutline,0
;   maxMovementDetourFactor,1
;   toolChangeRetractionDistance,12
;   toolChangeExtraRestartDistance,-0.5
;   toolChangeRetractionSpeed,600
;   allowThinWallGapFill,0
;   thinWallAllowedOverlapPercentage,10
;   horizontalSizeCompensation,0
G90
M82
M106 S0
M140 S60
M190 S60
M104 S205 T0
M109 S205 T0
G28 ; home all axes
G92 E0
G1 E-6.0000 F6600
G1 Z0.480 F1200
; layer 1, Z = 0.18
T0
; tool H0.200 W0.720
; skirt
G1 X67.420 Y-67.725 F9000
G1 Z0.180 F1200
G1 E0.0000 F1980
G92 E0
G1 X67.420 Y67.725 E8.5932 F1200
G1 X67.310 Y67.990 E8.6114
G1 X64.765 Y70.535 E8.8398
G1 X64.500 Y70.645 E8.8579
G1 X-64.500 Y70.645 E17.0419
G1 X-64.765 Y70.535 E17.0601
G1 X-67.310 Y67.990 E17.2885
G1 X-67.420 Y67.725 E17.3067
G1 X-67.420 Y-67.725 E25.8998
G1 X-67.310 Y-67.990 E25.9180
G1 X-64.765 Y-70.535 E26.1464
G1 X-64.500 Y-70.645 E26.1646
G1 X64.500 Y-70.645 E34.3486
G1 X64.765 Y-70.535 E34.3667
G1 X67.310 Y-67.990 E34.5951
G1 X67.420 Y-67.725 E34.6133
G1 X66.940 Y-67.630 F9000
G92 E0
G1 X66.940 Y67.630 E8.5811 F1200
G1 X66.903 Y67.718 E8.5871
G1 X64.493 Y70.128 E8.8034
G1 X64.405 Y70.165 E8.8095
G1 X-64.405 Y70.165 E16.9813
G1 X-64.493 Y70.128 E16.9874
G1 X-66.903 Y67.718 E17.2037
G1 X-66.940 Y67.630 E17.2097
G1 X-66.940 Y-67.630 E25.7908
G1 X-66.903 Y-67.718 E25.7969
G1 X-64.493 Y-70.128 E26.0132
G1 X-64.405 Y-70.165 E26.0192
G1 X64.405 Y-70.165 E34.1911
G1 X64.493 Y-70.128 E34.1971
G1 X66.903 Y-67.718 E34.4134
G1 X66.940 Y-67.630 E34.4195
G92 E0
G1 E-6.0000 F6600
G1 Z0.480 F1200
; inner perimeter
G1 X60.900 Y-64.125 F9000
G1 Z0.180 F1200
G1 E0.0000 F6600
G92 E0
G1 X60.900 Y64.125 E8.1364 F1000
G1 X-60.900 Y64.125 E15.8636
G1 X-60.900 Y-64.125 E24.0000
G1 X60.900 Y-64.125 E31.7272
; inner perimeter
G1 X61.620 Y-64.845 F9000
G92 E0
G1 X61.620 Y64.845 E8.2278 F800
G1 X-61.620 Y64.845 E16.0463
G1 X-61.620 Y-64.845 E24.2741
G1 X61.620 Y-64.845 E32.0926
; outer perimeter
G1 X62.340 Y-65.565 F9000
G92 E0
G1 X62.340 Y65.565 E8.3191 F600
G1 X-62.340 Y65.565 E16.2290
G1 X-62.340 Y-65.565 E24.5481
G1 X62.340 Y-65.565 E32.4580
G1 X62.340 Y-60.565 F3000
; solid layer
G1 X59.693 Y-63.513 F9000
G92 E0
G1 X60.288 Y-62.918 E0.0534 F960
G1 X60.288 Y-61.900 E0.1180
G1 X58.675 Y-63.513 E0.2627
G1 X57.657 Y-63.513 E0.3273
G1 X60.288 Y-60.882 E0.5633
G1 X60.288 Y-59.864 E0.6279
G1 X56.639 Y-63.513 E0.9554
G1 X55.620 Y-63.513 E1.0200
G1 X60.288 Y-58.845 E1.4387
G1 X60.288 Y-57.827 E1.5033
G1 X54.602 Y-63.513 E2.0135
G1 X53.584 Y-63.513 E2.0781
G1 X60.288 Y-56.809 E2.6796
G1 X60.288 Y-55.791 E2.7442
G1 X52.566 Y-63.513 E3.4370
G1 X51.547 Y-63.513 E3.5016
G1 X60.288 Y-54.772 E4.2858
G1 X60.288 Y-53.754 E4.3504
G1 X50.529 Y-63.513 E5.2260
G1 X49.511 Y-63.513 E5.2906
G1 X60.288 Y-52.736 E6.2575
G1 X60.288 Y-51.718 E6.3221
G1 X48.493 Y-63.513 E7.3804
G1 X47.474 Y-63.513 E7.4450
G1 X60.288 Y-50.700 E8.5946
G1 X60.288 Y-49.681 E8.6592
G1 X46.456 Y-63.513 E9.9002
G1 X45.438 Y-63.513 E9.9648
G1 X60.288 Y-48.663 E11.2971
G1 X60.288 Y-47.645 E11.3617
G1 X44.420 Y-63.513 E12.7854
G1 X43.402 Y-63.513 E12.8500
G1 X60.288 Y-46.627 E14.3650
G1 X60.288 Y-45.608 E14.4296
G1 X42.383 Y-63.513 E16.0361
G1 X41.365 Y-63.513 E16.1007
G1 X60.288 Y-44.590 E17.7984
G1 X60.288 Y-43.572 E17.8630
G1 X40.347 Y-63.513 E19.6521
G1 X39.329 Y-63.513 E19.7167
G1 X60.288 Y-42.554 E21.5972
G1 X60.288 Y-41.535 E21.6618
G1 X38.310 Y-63.513 E23.6336
G1 X37.292 Y-63.513 E23.6982
G1 X60.288 Y-40.517 E25.7614
G1 X60.288 Y-39.499 E25.8260
G1 X36.274 Y-63.513 E27.9806
G1 X35.256 Y-63.513 E28.0452
G1 X60.288 Y-38.481 E30.2911
G1 X60.288 Y-37.462 E30.3557
G1 X34.237 Y-63.513 E32.6929
G1 X33.219 Y-63.513 E32.7575
G1 X60.288 Y-36.444 E35.1861
G1 X60.288 Y-35.426 E35.2507
G1 X32.201 Y-63.513 E37.7707
G1 X31.183 Y-63.513 E37.8353
G1 X60.288 Y-34.408 E40.4466
G1 X60.288 Y-33.390 E40.5112
G1 X30.165 Y-63.513 E43.2139
G1 X29.146 Y-63.513 E43.2785
G1 X60.288 Y-32.371 E46.0725
G1 X60.288 Y-31.353 E46.1371
G1 X28.128 Y-63.513 E49.0225
G1 X27.110 Y-63.513 E49.0871
G1 X60.288 Y-30.335 E52.0639
G1 X60.288 Y-29.317 E52.1285
G1 X26.092 Y-63.513 E55.1966
G1 X25.073 Y-63.513 E55.2612
G1 X60.288 Y-28.298 E58.4207
G1 X60.288 Y-27.280 E58.4853
G1 X24.055 Y-63.513 E61.7361
G1 X23.037 Y-63.513 E61.8007
G1 X60.288 Y-26.262 E65.1428
G1 X60.288 Y-25.244 E65.2074
G1 X22.019 Y-63.513 E68.6410
G1 X21.000 Y-63.513 E68.7056
G1 X60.288 Y-24.225 E72.2305
G1 X60.288 Y-23.207 E72.2951
G1 X19.982 Y-63.513 E75.9113
G1 X18.964 Y-63.513 E75.9759
G1 X60.288 Y-22.189 E79.6835
G1 X60.288 Y-21.171 E79.7481
G1 X17.946 Y-63.513 E83.5470
G1 X16.927 Y-63.513 E83.6116
G1 X60.288 Y-20.152 E87.5019
G1 X60.288 Y-19.134 E87.5665
G1 X15.909 Y-63.513 E91.5482
G1 X14.891 Y-63.513 E91.6128
G1 X60.288 Y-18.116 E95.6858
G1 X60.288 Y-17.098 E95.7504
G1 X13.873 Y-63.513 E99.9148
G1 X12.855 Y-63.513 E99.9794
G1 X60.288 Y-16.080 E104.2351
G1 X60.288 Y-15.061 E104.2997
G1 X11.836 Y-63.513 E108.6468
G1 X10.818 Y-63.513 E108.7114
G1 X60.288 Y-14.043 E113.1499
G1 X60.288 Y-13.025 E113.2145
G1 X9.800 Y-63.513 E117.7443
G1 X8.782 Y-63.513 E117.8089
G1 X60.288 Y-12.007 E122.4300
G1 X60.288 Y-10.988 E122.4946
G1 X7.763 Y-63.513 E127.2071
G1 X6.745 Y-63.513 E127.2717
G1 X60.288 Y-9.970 E132.0756
G1 X60.288 Y-8.952 E132.1402
G1 X5.727 Y-63.513 E137.0354
G1 X4.709 Y-63.513 E137.1000
G1 X60.288 Y-7.934 E142.0866
G1 X60.288 Y-6.915 E142.1512
G1 X3.690 Y-63.513 E147.2292
G1 X2.672 Y-63.513 E147.2938
G1 X60.288 Y-5.897 E152.4630
G1 X60.288 Y-4.879 E152.5276
G1 X1.654 Y-63.513 E157.7883
G1 X0.636 Y-63.513 E157.8529
G1 X60.288 Y-3.861 E163.2049
G1 X60.288 Y-2.843 E163.2695
G1 X-0.382 Y-63.513 E168.7129
G1 X-1.401 Y-63.513 E168.7775
G1 X60.288 Y-1.824 E174.3122
G1 X60.288 Y-0.806 E174.3768
G1 X-2.419 Y-63.513 E180.0029
G1 X-3.437 Y-63.513 E180.0674
G1 X60.288 Y0.212 E185.7849
G1 X60.288 Y1.230 E185.8495
G1 X-4.455 Y-63.513 E191.6583
G1 X-5.474 Y-63.513 E191.7229
G1 X60.288 Y2.249 E197.6230
G1 X60.288 Y3.267 E197.6876
G1 X-6.492 Y-63.513 E203.6791
G1 X-7.510 Y-63.513 E203.7437
G1 X60.288 Y4.285 E209.8266
G1 X60.288 Y5.303 E209.8912
G1 X-8.528 Y-63.513 E216.0654
G1 X-9.547 Y-63.513 E216.1300
G1 X60.288 Y6.322 E222.3955
G1 X60.288 Y7.340 E222.4601
G1 X-10.565 Y-63.513 E228.8171
G1 X-11.583 Y-63.513 E228.8816
G1 X60.288 Y8.358 E235.3299
G1 X60.288 Y9.376 E235.3945
G1 X-12.601 Y-63.513 E241.9342
G1 X-13.620 Y-63.513 E241.9988
G1 X60.288 Y10.395 E248.6298
G1 X60.288 Y11.413 E248.6943
G1 X-14.638 Y-63.513 E255.4167
G1 X-15.656 Y-63.513 E255.4813
G1 X60.288 Y12.431 E262.2950
G1 X60.288 Y13.449 E262.3596
G1 X-16.674 Y-63.513 E269.2647
G1 X-17.692 Y-63.513 E269.3293
G1 X60.288 Y14.467 E276.3257
G1 X60.288 Y15.486 E276.3903
G1 X-18.711 Y-63.513 E283.4780
G1 X-19.729 Y-63.513 E283.5426
G1 X60.288 Y16.504 E290.7218
G1 X60.288 Y17.522 E290.7864
G1 X-20.747 Y-63.513 E298.0568
G1 X-21.765 Y-63.513 E298.1214
G1 X60.288 Y18.540 E305.4833
G1 X60.288 Y19.559 E305.5479
G1 X-22.784 Y-63.513 E313.0011
G1 X-23.802 Y-63.513 E313.0657
G1 X60.288 Y20.577 E320.6102
G1 X60.288 Y21.595 E320.6748
G1 X-24.820 Y-63.513 E328.3107
G1 X-25.838 Y-63.513 E328.3753
G1 X60.288 Y22.613 E336.1026
G1 X60.288 Y23.632 E336.1672
G1 X-26.857 Y-63.513 E343.9858
G1 X-27.875 Y-63.513 E344.0504
G1 X60.288 Y24.650 E351.9604
G1 X60.288 Y25.668 E352.0250
G1 X-28.893 Y-63.513 E360.0263
G1 X-29.911 Y-63.513 E360.0909
G1 X60.288 Y26.686 E368.1836
G1 X60.288 Y27.704 E368.2482
G1 X-30.930 Y-63.513 E376.4322
G1 X-31.948 Y-63.513 E376.4968
G1 X60.288 Y28.723 E384.7722
G1 X60.288 Y29.741 E384.8368
G1 X-32.966 Y-63.513 E393.2036
G1 X-33.984 Y-63.513 E393.2682
G1 X60.288 Y30.759 E401.7263
G1 X60.288 Y31.777 E401.7909
G1 X-35.002 Y-63.513 E410.3404
G1 X-36.021 Y-63.513 E410.4050
G1 X60.288 Y32.796 E419.0458
G1 X60.288 Y33.814 E419.1104
G1 X-37.039 Y-63.513 E427.8426
G1 X-38.057 Y-63.513 E427.9072
G1 X60.288 Y34.832 E436.7307
G1 X60.288 Y35.850 E436.7953
G1 X-39.075 Y-63.513 E445.7102
G1 X-40.094 Y-63.513 E445.7748
G1 X60.288 Y36.869 E454.7810
G1 X60.288 Y37.887 E454.8456
G1 X-41.112 Y-63.513 E463.9432
G1 X-42.130 Y-63.513 E464.0078
G1 X60.288 Y38.905 E473.1968
G1 X60.288 Y39.923 E473.2614
G1 X-43.148 Y-63.513 E482.5417
G1 X-44.167 Y-63.513 E482.6063
G1 X60.288 Y40.942 E491.9780
G1 X60.288 Y41.960 E492.0426
G1 X-45.185 Y-63.513 E501.5056
G1 X-46.203 Y-63.513 E501.5702
G1 X60.288 Y42.978 E511.1246
G1 X60.288 Y43.996 E511.1892
G1 X-47.221 Y-63.513 E520.8349
G1 X-48.239 Y-63.513 E520.8995
G1 X60.288 Y45.014 E530.6366
G1 X60.288 Y46.033 E530.7012
G1 X-49.258 Y-63.513 E540.5297
G1 X-50.276 Y-63.513 E540.5943
G1 X60.288 Y47.051 E550.5141
G1 X60.288 Y48.069 E550.5787
G1 X-51.294 Y-63.513 E560.5899
G1 X-52.312 Y-63.513 E560.6544
G1 X60.288 Y49.087 E570.7570
G1 X60.288 Y50.106 E570.8216
G1 X-53.331 Y-63.513 E581.0154
G1 X-54.349 Y-63.513 E581.0800
G1 X60.288 Y51.124 E591.3653
G1 X60.288 Y52.142 E591.4299
G1 X-55.367 Y-63.513 E601.8065
G1 X-56.385 Y-63.513 E601.8711
G1 X60.288 Y53.160 E612.3390
G1 X60.288 Y54.179 E612.4036
G1 X-57.404 Y-63.513 E622.9629
G1 X-58.422 Y-63.513 E623.0275
G1 X60.288 Y55.197 E633.6782
G1 X60.288 Y56.215 E633.7428
G1 X-59.440 Y-63.513 E644.4848
G1 X-60.288 Y-63.513 E644.5386
G1 X-60.288 Y-63.343 E644.5494
G1 X60.288 Y57.233 E655.3675
G1 X60.288 Y58.252 E655.4321
G1 X-60.288 Y-62.324 E666.2501
G1 X-60.288 Y-61.306 E666.3147
G1 X60.288 Y59.270 E677.1328
G1 X60.288 Y60.288 E677.1974
G1 X-60.288 Y-60.288 E688.0155
G1 X-60.288 Y-59.270 E688.0801
G1 X60.288 Y61.306 E698.8982
G1 X60.288 Y62.324 E698.9628
G1 X-60.288 Y-58.252 E709.7809
G1 X-60.288 Y-57.233 E709.8455
G1 X60.288 Y63.343 E720.6636
G1 X60.288 Y63.513 E720.6744
G1 X59.440 Y63.513 E720.7282
G1 X-60.288 Y-56.215 E731.4702
G1 X-60.288 Y-55.197 E731.5348
G1 X58.422 Y63.513 E742.1855
G1 X57.404 Y63.513 E742.2501
G1 X-60.288 Y-54.179 E752.8094
G1 X-60.288 Y-53.160 E752.8740
G1 X56.385 Y63.513 E763.3419
G1 X55.367 Y63.513 E763.4065
G1 X-60.288 Y-52.142 E773.7831
G1 X-60.288 Y-51.124 E773.8477
G1 X54.349 Y63.513 E784.1329
G1 X53.331 Y63.513 E784.1975
G1 X-60.288 Y-50.106 E794.3914
G1 X-60.288 Y-49.087 E794.4560
G1 X52.312 Y63.513 E804.5585
G1 X51.294 Y63.513 E804.6231
G1 X-60.288 Y-48.069 E814.6343
G1 X-60.288 Y-47.051 E814.6989
G1 X50.276 Y63.513 E824.6187
G1 X49.258 Y63.513 E824.6833
G1 X-60.288 Y-46.033 E834.5117
G1 X-60.288 Y-45.014 E834.5763
G1 X48.240 Y63.513 E844.3134
G1 X47.221 Y63.513 E844.3780
G1 X-60.288 Y-43.996 E854.0238
G1 X-60.288 Y-42.978 E854.0884
G1 X46.203 Y63.513 E863.6428
G1 X45.185 Y63.513 E863.7074
G1 X-60.288 Y-41.960 E873.1704
G1 X-60.288 Y-40.942 E873.2350
G1 X44.167 Y63.513 E882.6067
G1 X43.148 Y63.513 E882.6713
G1 X-60.288 Y-39.923 E891.9516
G1 X-60.288 Y-38.905 E892.0162
G1 X42.130 Y63.513 E901.2051
G1 X41.112 Y63.513 E901.2697
G1 X-60.288 Y-37.887 E910.3673
G1 X-60.288 Y-36.869 E910.4319
G1 X40.094 Y63.513 E919.4382
G1 X39.075 Y63.513 E919.5028
G1 X-60.288 Y-35.850 E928.4177
G1 X-60.288 Y-34.832 E928.4823
G1 X38.057 Y63.513 E937.3058
G1 X37.039 Y63.513 E937.3704
G1 X-60.288 Y-33.814 E946.1026
G1 X-60.288 Y-32.796 E946.1672
G1 X36.021 Y63.513 E954.8080
G1 X35.002 Y63.513 E954.8726
G1 X-60.288 Y-31.777 E963.4221
G1 X-60.288 Y-30.759 E963.4867
G1 X33.984 Y63.513 E971.9448
G1 X32.966 Y63.513 E972.0094
G1 X-60.288 Y-29.741 E980.3762
G1 X-60.288 Y-28.723 E980.4408
G1 X31.948 Y63.513 E988.7162
G1 X30.930 Y63.513 E988.7808
