; G-Code generated by Simplify3D(R) Version 3.1.0
; Nov 2, 2016 at 7:18:32 PM
; Settings Summary
;   processName,Process1
;   applyToModels,Bishop
;   profileName,Rostock MAX v2 (modified)
;   profileVersion,2015-05-01 08:00:00
;   baseProfile,
;   printMaterial,PLA
;   printQuality,Medium
;   printExtruders,
;   extruderName,Primary Extruder
;   extruderToolheadNumber,0
;   extruderDiameter,0.4
;   extruderAutoWidth,1
;   extruderWidth,0.48
;   extrusionMultiplier,1.1
;   extruderUseRetract,1
;   extruderRetractionDistance,5
;   extruderExtraRestartDistance,0
;   extruderRetractionZLift,0
;   extruderRetractionSpeed,1600
;   extruderUseCoasting,1
;   extruderCoastingDistance,0.5
;   extruderUseWipe,1
;   extruderWipeDistance,5
;   primaryExtruder,0
;   layerHeight,0.2
;   topSolidLayers,3
;   bottomSolidLayers,3
;   perimeterOutlines,3
;   printPerimetersInsideOut,1
;   startPointOption,2
;   startPointOriginX,0
;   startPointOriginY,0
;   startPointOriginZ,300
;   sequentialIslands,0
;   spiralVaseMode,0
;   firstLayerHeightPercentage,25
;   firstLayerWidthPercentage,100
;   firstLayerUnderspeed,0.25
;   useRaft,0
;   raftExtruder,0
;   raftLayers,3
;   raftOffset,15
;   raftSeparationDistance,0.14
;   raftInfill,85
;   disableRaftBaseLayers,0
;   useSkirt,1
;   skirtExtruder,0
;   skirtLayers,1
;   skirtOutlines,2
;   skirtOffset,5
;   usePrimePillar,0
;   primePillarExtruder,999
;   primePillarWidth,12
;   primePillarLocation,7
;   primePillarSpeedMultiplier,1
;   useOozeShield,0
;   oozeShieldExtruder,999
;   oozeShieldOffset,2
;   oozeShieldOutlines,1
;   oozeShieldSidewallShape,1
;   oozeShieldSidewallAngle,30
;   oozeShieldSpeedMultiplier,1
;   infillExtruder,0
;   internalInfillPattern,Rectilinear
;   externalInfillPattern,Rectilinear
;   infillPercentage,100
;   outlineOverlapPercentage,40
;   infillExtrusionWidthPercentage,100
;   minInfillLength,3
;   infillLayerInterval,1
;   infillAngles,45,-45
;   overlapInfillAngles,0
;   generateSupport,0
;   supportExtruder,0
;   supportInfillPercentage,30
;   supportExtraInflation,0
;   denseSupportLayers,0
;   denseSupportInfillPercentage,70
;   supportLayerInterval,1
;   supportHorizontalPartOffset,0.3
;   supportUpperSeparationLayers,1
;   supportLowerSeparationLayers,1
;   supportType,1
;   supportGridSpacing,4
;   maxOverhangAngle,45
;   supportAngles,0
;   temperatureName,Primary Extruder,Heated Bed
;   temperatureNumber,0,1
;   temperatureSetpointCount,1,1
;   temperatureSetpointLayers,1,1
;   temperatureSetpointTemperatures,205,60
;   temperatureStabilizeAtStartup,1,1
;   temperatureHeatedBed,0,1
;   temperatureRelayBetweenLayers,0,0
;   temperatureRelayBetweenLoops,0,0
;   fanLayers,1,2
;   fanSpeeds,0,100
;   blipFanToFullPower,1
;   adjustSpeedForCooling,1
;   minSpeedLayerTime,15
;   minCoolingSpeedSlowdown,20
;   increaseFanForCooling,0
;   minFanLayerTime,60
;   maxCoolingFanSpeed,100
;   increaseFanForBridging,0
;   bridgingFanSpeed,100
;   use5D,1
;   relativeEdistances,0
;   allowEaxisZeroing,1
;   independentExtruderAxes,0
;   includeM10123,0
;   stickySupport,1
;   applyToolheadOffsets,0
;   gcodeXoffset,0
;   gcodeYoffset,0
;   gcodeZoffset,0
;   overrideMachineDefinition,1
;   machineTypeOverride,1
;   strokeXoverride,197
;   strokeYoverride,197
;   strokeZoverride,375
;   originOffsetXoverride,98.5
;   originOffsetYoverride,98.5
;   originOffsetZoverride,0
;   homeXdirOverride,0
;   homeYdirOverride,0
;   homeZdirOverride,1
;   flipXoverride,1
;   flipYoverride,-1
;   flipZoverride,1
;   toolheadOffsets,0,0|0,0|0,0|0,0|0,0|0,0
;   overrideFirmwareConfiguration,1
;   firmwareTypeOverride,RepRap (Marlin/Repetier/Sprinter)
;   GPXconfigOverride,r2
;   baudRateOverride,115200
;   overridePrinterModels,1
;   printerModelsOverride
;   startingGcode,G28 ; home all axes
;   layerChangeGcode,
;   retractionGcode,
;   toolChangeGcode,
;   endingGcode,M104 S0 ; turn off extruder,M140 S0 ; turn off bed,G28 ; home axes,M84 ; disable motors
;   exportFileFormat,gcode
;   celebration,0
;   celebrationSong,Random Song
;   postProcessing,
;   defaultSpeed,2000
;   outlineUnderspeed,0.5
;   solidInfillUnderspeed,0.8
;   supportUnderspeed,0.8
;   rapidXYspeed,9000
;   rapidZspeed,1200
;   minBridgingArea,50
;   bridgingExtraInflation,0
;   bridgingExtrusionMultiplier,0.8
;   bridgingSpeedMultiplier,0.7
;   filamentDiameter,1.75
;   filamentPricePerKg,22
;   filamentDensity,1.25
;   useMinPrintHeight,0
;   minPrintHeight,0.05
;   useMaxPrintHeight,0
;   maxPrintHeight,0
;   useDiaphragm,0
;   diaphragmLayerInterval,20
;   robustSlicing,1
;   mergeAllIntoSolid,0
;   onlyRetractWhenCrossingOutline,0
;   retractBetweenLayers,0
;   useRetractionMinTravel,0
;   retractionMinTravel,3
;   retractWhileWiping,1
;   onlyWipeOutlines,1
;   avoidCrossingOutline,1
;   maxMovementDetourFactor,2
;   toolChangeRetractionDistance,12
;   toolChangeExtraRestartDistance,-0.5
;   toolChangeRetractionSpeed,600
;   allowThinWallGapFill,1
;   thinWallAllowedOverlapPercentage,10
;   horizontalSizeCompensation,0
G90
M82
M106 S0
M140 S60
M190 S60
M104 S205 T0
M109 S205 T0
G28 ; home all axes
G92 E0
G1 E-5.0000 F1600
G1 Z0.050 F1200
; layer 1, Z = 0.05
T0
; tool H0.200 W0.480
; skirt
G1 X0.148 Y-21.005 F9000
G1 E0.0000 F480
G92 E0
G1 X1.910 Y-20.918 E0.0775 F500
G1 X1.928 Y-20.917 E0.0782
G1 X2.190 Y-20.891 E0.0898
G1 X2.208 Y-20.889 E0.0906
G1 X3.952 Y-20.630 E0.1680
G1 X3.970 Y-20.627 E0.1688
G1 X4.228 Y-20.576 E0.1804
G1 X4.245 Y-20.572 E0.1811
G1 X5.954 Y-20.144 E0.2585
G1 X5.971 Y-20.139 E0.2592
G1 X6.221 Y-20.064 E0.2707
G1 X6.237 Y-20.058 E0.2715
G1 X7.898 Y-19.465 E0.3489
G1 X7.915 Y-19.459 E0.3497
G1 X8.161 Y-19.357 E0.3614
G1 X8.178 Y-19.349 E0.3622
G1 X9.772 Y-18.594 E0.4396
G1 X9.787 Y-18.586 E0.4404
G1 X10.016 Y-18.464 E0.4518
G1 X10.031 Y-18.456 E0.4525
G1 X11.544 Y-17.551 E0.5299
G1 X11.559 Y-17.541 E0.5307
G1 X11.782 Y-17.392 E0.5425
G1 X11.797 Y-17.382 E0.5433
G1 X13.213 Y-16.329 E0.6207
G1 X13.227 Y-16.319 E0.6215
G1 X13.428 Y-16.153 E0.6330
G1 X13.442 Y-16.142 E0.6337
G1 X14.747 Y-14.958 E0.7111
G1 X14.760 Y-14.946 E0.7119
G1 X14.946 Y-14.760 E0.7234
G1 X14.958 Y-14.747 E0.7242
G1 X16.142 Y-13.442 E0.8016
G1 X16.153 Y-13.428 E0.8023
G1 X16.319 Y-13.227 E0.8138
G1 X16.329 Y-13.213 E0.8146
G1 X17.382 Y-11.797 E0.8920
G1 X17.392 Y-11.782 E0.8928
G1 X17.541 Y-11.559 E0.9046
G1 X17.551 Y-11.544 E0.9054
G1 X18.456 Y-10.031 E0.9828
G1 X18.464 Y-10.016 E0.9835
G1 X18.586 Y-9.787 E0.9949
G1 X18.594 Y-9.772 E0.9957
G1 X19.349 Y-8.178 E1.0731
G1 X19.357 Y-8.161 E1.0739
G1 X19.459 Y-7.915 E1.0856
G1 X19.465 Y-7.898 E1.0864
G1 X20.058 Y-6.237 E1.1638
G1 X20.064 Y-6.221 E1.1646
G1 X20.139 Y-5.971 E1.1761
G1 X20.144 Y-5.954 E1.1768
G1 X20.572 Y-4.245 E1.2542
G1 X20.576 Y-4.228 E1.2549
G1 X20.627 Y-3.970 E1.2665
G1 X20.630 Y-3.952 E1.2673
G1 X20.889 Y-2.208 E1.3447
G1 X20.891 Y-2.190 E1.3455
G1 X20.917 Y-1.928 E1.3571
G1 X20.918 Y-1.910 E1.3578
G1 X21.005 Y-0.148 E1.4353
G1 X21.005 Y-0.130 E1.4361
G1 X21.005 Y0.132 E1.4476
G1 X21.005 Y0.150 E1.4484
G1 X20.918 Y1.910 E1.5258
G1 X20.917 Y1.928 E1.5265
G1 X20.891 Y2.190 E1.5381
G1 X20.889 Y2.208 E1.5389
G1 X20.630 Y3.952 E1.6163
G1 X20.627 Y3.970 E1.6171
G1 X20.576 Y4.228 E1.6286
G1 X20.572 Y4.245 E1.6294
G1 X20.144 Y5.954 E1.7067
G1 X20.139 Y5.971 E1.7075
G1 X20.064 Y6.221 E1.7190
G1 X20.058 Y6.237 E1.7198
G1 X19.465 Y7.898 E1.7972
G1 X19.459 Y7.915 E1.7980
G1 X19.357 Y8.161 E1.8097
G1 X19.349 Y8.178 E1.8105
G1 X18.594 Y9.772 E1.8879
G1 X18.586 Y9.787 E1.8887
G1 X18.464 Y10.016 E1.9000
G1 X18.456 Y10.031 E1.9008
G1 X17.551 Y11.544 E1.9782
G1 X17.541 Y11.559 E1.9790
G1 X17.392 Y11.782 E1.9908
G1 X17.382 Y11.797 E1.9915
G1 X16.329 Y13.213 E2.0690
G1 X16.319 Y13.227 E2.0698
G1 X16.153 Y13.428 E2.0812
G1 X16.142 Y13.442 E2.0820
G1 X14.958 Y14.747 E2.1594
G1 X14.946 Y14.760 E2.1601
G1 X14.760 Y14.946 E2.1717
G1 X14.747 Y14.958 E2.1725
G1 X13.442 Y16.142 E2.2498
G1 X13.428 Y16.153 E2.2506
G1 X13.227 Y16.319 E2.2621
G1 X13.213 Y16.329 E2.2628
G1 X11.797 Y17.382 E2.3403
G1 X11.782 Y17.392 E2.3411
G1 X11.559 Y17.541 E2.3528
G1 X11.544 Y17.551 E2.3536
G1 X10.031 Y18.456 E2.4310
G1 X10.016 Y18.464 E2.4318
G1 X9.787 Y18.586 E2.4432
G1 X9.772 Y18.594 E2.4440
G1 X8.178 Y19.349 E2.5214
G1 X8.161 Y19.357 E2.5222
G1 X7.915 Y19.459 E2.5339
G1 X7.898 Y19.465 E2.5347
G1 X6.237 Y20.058 E2.6121
G1 X6.221 Y20.064 E2.6129
G1 X5.971 Y20.139 E2.6243
G1 X5.954 Y20.144 E2.6251
G1 X4.245 Y20.572 E2.7024
G1 X4.228 Y20.576 E2.7032
G1 X3.970 Y20.627 E2.7148
G1 X3.952 Y20.630 E2.7155
G1 X2.208 Y20.889 E2.7929
G1 X2.191 Y20.891 E2.7937
G1 X1.929 Y20.917 E2.8052
G1 X1.912 Y20.918 E2.8060
G1 X0.149 Y21.005 E2.8835
G1 X0.131 Y21.006 E2.8843
G1 X-0.133 Y21.006 E2.8959
G1 X-0.151 Y21.005 E2.8967
G1 X-1.912 Y20.918 E2.9741
G1 X-1.930 Y20.917 E2.9749
G1 X-2.191 Y20.891 E2.9864
G1 X-2.208 Y20.889 E2.9872
G1 X-3.952 Y20.630 E3.0646
G1 X-3.970 Y20.627 E3.0653
G1 X-4.228 Y20.576 E3.0769
G1 X-4.245 Y20.572 E3.0777
G1 X-5.954 Y20.144 E3.1550
G1 X-5.971 Y20.139 E3.1558
G1 X-6.221 Y20.064 E3.1673
G1 X-6.237 Y20.058 E3.1680
G1 X-7.898 Y19.465 E3.2455
G1 X-7.915 Y19.459 E3.2462
G1 X-8.161 Y19.357 E3.2579
G1 X-8.178 Y19.349 E3.2587
G1 X-9.772 Y18.594 E3.3362
G1 X-9.787 Y18.586 E3.3369
G1 X-10.016 Y18.464 E3.3483
G1 X-10.031 Y18.456 E3.3491
G1 X-11.544 Y17.551 E3.4265
G1 X-11.559 Y17.541 E3.4273
G1 X-11.782 Y17.392 E3.4390
G1 X-11.797 Y17.382 E3.4398
G1 X-13.213 Y16.329 E3.5173
G1 X-13.227 Y16.319 E3.5181
G1 X-13.428 Y16.153 E3.5295
G1 X-13.442 Y16.142 E3.5303
G1 X-14.747 Y14.958 E3.6076
G1 X-14.760 Y14.946 E3.6084
G1 X-14.946 Y14.760 E3.6200
G1 X-14.958 Y14.747 E3.6207
G1 X-16.142 Y13.442 E3.6981
G1 X-16.153 Y13.428 E3.6989
G1 X-16.319 Y13.227 E3.7103
G1 X-16.329 Y13.213 E3.7111
G1 X-17.382 Y11.797 E3.7886
G1 X-17.392 Y11.782 E3.7894
G1 X-17.541 Y11.559 E3.8011
G1 X-17.551 Y11.544 E3.8019
G1 X-18.456 Y10.031 E3.8793
G1 X-18.464 Y10.016 E3.8801
G1 X-18.586 Y9.787 E3.8915
G1 X-18.594 Y9.772 E3.8922
G1 X-19.349 Y8.178 E3.9697
G1 X-19.357 Y8.161 E3.9704
G1 X-19.459 Y7.915 E3.9821
G1 X-19.465 Y7.898 E3.9829
G1 X-20.058 Y6.237 E4.0604
G1 X-20.064 Y6.221 E4.0611
G1 X-20.139 Y5.971 E4.0726
G1 X-20.144 Y5.954 E4.0734
G1 X-20.572 Y4.245 E4.1507
G1 X-20.576 Y4.228 E4.1515
G1 X-20.627 Y3.970 E4.1630
G1 X-20.630 Y3.952 E4.1638
G1 X-20.889 Y2.208 E4.2412
G1 X-20.891 Y2.190 E4.2420
G1 X-20.917 Y1.928 E4.2536
G1 X-20.918 Y1.910 E4.2544
G1 X-21.005 Y0.150 E4.3317
G1 X-21.005 Y0.132 E4.3325
G1 X-21.005 Y-0.130 E4.3440
G1 X-21.005 Y-0.148 E4.3448
G1 X-20.918 Y-1.910 E4.4223
G1 X-20.917 Y-1.928 E4.4231
G1 X-20.891 Y-2.190 E4.4346
G1 X-20.889 Y-2.208 E4.4354
G1 X-20.630 Y-3.952 E4.5128
G1 X-20.627 Y-3.970 E4.5136
G1 X-20.576 Y-4.228 E4.5252
G1 X-20.572 Y-4.245 E4.5259
G1 X-20.144 Y-5.954 E4.6033
G1 X-20.139 Y-5.971 E4.6040
G1 X-20.064 Y-6.221 E4.6155
G1 X-20.058 Y-6.237 E4.6163
G1 X-19.465 Y-7.898 E4.6937
G1 X-19.459 Y-7.915 E4.6945
G1 X-19.357 Y-8.161 E4.7062
G1 X-19.349 Y-8.178 E4.7070
G1 X-18.594 Y-9.772 E4.7844
G1 X-18.586 Y-9.787 E4.7852
G1 X-18.464 Y-10.016 E4.7966
G1 X-18.456 Y-10.031 E4.7973
G1 X-17.551 Y-11.544 E4.8747
G1 X-17.541 Y-11.559 E4.8755
G1 X-17.392 Y-11.782 E4.8873
G1 X-17.382 Y-11.797 E4.8881
G1 X-16.329 Y-13.213 E4.9655
G1 X-16.319 Y-13.227 E4.9663
G1 X-16.153 Y-13.428 E4.9778
G1 X-16.142 Y-13.442 E4.9785
G1 X-14.958 Y-14.747 E5.0559
G1 X-14.946 Y-14.760 E5.0567
G1 X-14.760 Y-14.946 E5.0682
G1 X-14.747 Y-14.958 E5.0690
G1 X-13.442 Y-16.142 E5.1464
G1 X-13.428 Y-16.153 E5.1471
G1 X-13.227 Y-16.319 E5.1586
G1 X-13.213 Y-16.329 E5.1594
G1 X-11.797 Y-17.382 E5.2368
G1 X-11.782 Y-17.392 E5.2376
G1 X-11.559 Y-17.541 E5.2494
G1 X-11.544 Y-17.551 E5.2502
G1 X-10.031 Y-18.456 E5.3276
G1 X-10.016 Y-18.464 E5.3283
G1 X-9.787 Y-18.586 E5.3397
G1 X-9.772 Y-18.594 E5.3405
G1 X-8.178 Y-19.349 E5.4179
G1 X-8.161 Y-19.357 E5.4187
G1 X-7.915 Y-19.459 E5.4304
G1 X-7.898 Y-19.465 E5.4312
G1 X-6.237 Y-20.058 E5.5086
G1 X-6.221 Y-20.064 E5.5094
G1 X-5.971 Y-20.139 E5.5209
G1 X-5.954 Y-20.144 E5.5216
G1 X-4.245 Y-20.572 E5.5990
G1 X-4.228 Y-20.576 E5.5998
G1 X-3.970 Y-20.627 E5.6113
G1 X-3.952 Y-20.630 E5.6121
G1 X-2.208 Y-20.889 E5.6895
G1 X-2.190 Y-20.891 E5.6903
G1 X-1.928 Y-20.917 E5.7018
G1 X-1.910 Y-20.918 E5.7026
G1 X-0.352 Y-20.995 E5.7711
G1 X-0.150 Y-21.005 F500
G1 X-0.132 Y-21.005 F500
G1 X0.130 Y-21.005 F500
G1 X0.148 Y-21.005 F500
G92 E0
G1 E-5.0000 F1600
G1 X0.130 Y-20.525 F9000
G1 E0.0000 F1600
G92 E0
G1 X1.881 Y-20.439 E0.0770 F500
G1 X1.887 Y-20.439 E0.0772
G1 X2.137 Y-20.414 E0.0883
G1 X2.143 Y-20.413 E0.0885
G1 X3.876 Y-20.156 E0.1654
G1 X3.882 Y-20.155 E0.1657
G1 X4.128 Y-20.106 E0.1767
G1 X4.134 Y-20.105 E0.1770
G1 X5.831 Y-19.680 E0.2538
G1 X5.837 Y-19.678 E0.2541
G1 X6.076 Y-19.606 E0.2650
G1 X6.081 Y-19.604 E0.2653
G1 X7.731 Y-19.015 E0.3422
G1 X7.737 Y-19.013 E0.3425
G1 X7.972 Y-18.915 E0.3536
G1 X7.977 Y-18.913 E0.3539
G1 X9.561 Y-18.163 E0.4308
G1 X9.566 Y-18.160 E0.4311
G1 X9.784 Y-18.044 E0.4419
G1 X9.789 Y-18.041 E0.4422
G1 X11.292 Y-17.142 E0.5191
G1 X11.298 Y-17.138 E0.5194
G1 X11.510 Y-16.996 E0.5306
G1 X11.515 Y-16.993 E0.5308
G1 X12.922 Y-15.948 E0.6078
G1 X12.927 Y-15.944 E0.6081
G1 X13.119 Y-15.786 E0.6190
G1 X13.124 Y-15.782 E0.6193
G1 X14.421 Y-14.607 E0.6961
G1 X14.425 Y-14.602 E0.6964
G1 X14.602 Y-14.425 E0.7074
G1 X14.607 Y-14.421 E0.7076
G1 X15.782 Y-13.124 E0.7845
G1 X15.786 Y-13.119 E0.7847
G1 X15.944 Y-12.927 E0.7957
G1 X15.948 Y-12.922 E0.7960
G1 X16.993 Y-11.515 E0.8729
G1 X16.996 Y-11.510 E0.8732
G1 X17.138 Y-11.298 E0.8844
G1 X17.142 Y-11.292 E0.8847
G1 X18.041 Y-9.789 E0.9615
G1 X18.044 Y-9.784 E0.9618
G1 X18.160 Y-9.566 E0.9727
G1 X18.163 Y-9.561 E0.9729
G1 X18.913 Y-7.977 E1.0498
G1 X18.915 Y-7.972 E1.0501
G1 X19.013 Y-7.737 E1.0613
G1 X19.015 Y-7.731 E1.0615
G1 X19.604 Y-6.081 E1.1385
G1 X19.606 Y-6.076 E1.1387
G1 X19.678 Y-5.837 E1.1497
G1 X19.680 Y-5.831 E1.1499
G1 X20.105 Y-4.134 E1.2268
G1 X20.106 Y-4.128 E1.2270
G1 X20.155 Y-3.882 E1.2380
G1 X20.156 Y-3.876 E1.2383
G1 X20.413 Y-2.143 E1.3152
G1 X20.414 Y-2.137 E1.3155
G1 X20.439 Y-1.887 E1.3265
G1 X20.439 Y-1.881 E1.3268
G1 X20.525 Y-0.130 E1.4037
G1 X20.525 Y-0.124 E1.4040
G1 X20.525 Y0.126 E1.4150
G1 X20.525 Y0.132 E1.4153
G1 X20.439 Y1.881 E1.4921
G1 X20.439 Y1.887 E1.4924
G1 X20.414 Y2.137 E1.5034
G1 X20.413 Y2.143 E1.5037
G1 X20.156 Y3.876 E1.5806
G1 X20.155 Y3.882 E1.5809
G1 X20.106 Y4.128 E1.5919
G1 X20.105 Y4.134 E1.5922
G1 X19.680 Y5.831 E1.6690
G1 X19.678 Y5.837 E1.6692
G1 X19.606 Y6.076 E1.6802
G1 X19.604 Y6.081 E1.6805
G1 X19.015 Y7.731 E1.7574
G1 X19.013 Y7.737 E1.7576
G1 X18.915 Y7.972 E1.7688
G1 X18.913 Y7.977 E1.7691
G1 X18.163 Y9.561 E1.8460
G1 X18.160 Y9.566 E1.8462
G1 X18.044 Y9.784 E1.8571
G1 X18.041 Y9.789 E1.8574
G1 X17.142 Y11.292 E1.9343
G1 X17.138 Y11.298 E1.9345
G1 X16.996 Y11.510 E1.9457
G1 X16.993 Y11.515 E1.9460
G1 X15.948 Y12.922 E2.0230
G1 X15.944 Y12.927 E2.0232
G1 X15.786 Y13.119 E2.0342
G1 X15.782 Y13.124 E2.0344
G1 X14.607 Y14.421 E2.1113
G1 X14.602 Y14.425 E2.1115
G1 X14.425 Y14.602 E2.1226
G1 X14.421 Y14.607 E2.1228
G1 X13.124 Y15.782 E2.1997
G1 X13.119 Y15.786 E2.1999
G1 X12.927 Y15.944 E2.2109
G1 X12.922 Y15.948 E2.2111
G1 X11.515 Y16.993 E2.2881
G1 X11.510 Y16.996 E2.2883
G1 X11.298 Y17.138 E2.2996
G1 X11.292 Y17.142 E2.2998
G1 X9.789 Y18.041 E2.3767
G1 X9.784 Y18.044 E2.3770
G1 X9.566 Y18.160 E2.3878
G1 X9.561 Y18.163 E2.3881
G1 X7.977 Y18.913 E2.4650
G1 X7.972 Y18.915 E2.4653
G1 X7.737 Y19.013 E2.4764
G1 X7.731 Y19.015 E2.4767
G1 X6.081 Y19.604 E2.5536
G1 X6.076 Y19.606 E2.5539
G1 X5.837 Y19.678 E2.5648
G1 X5.831 Y19.680 E2.5651
G1 X4.134 Y20.105 E2.6419
G1 X4.128 Y20.106 E2.6422
G1 X3.882 Y20.155 E2.6532
G1 X3.876 Y20.156 E2.6535
G1 X2.144 Y20.413 E2.7304
G1 X2.138 Y20.414 E2.7306
G1 X1.888 Y20.439 E2.7416
G1 X1.882 Y20.439 E2.7419
G1 X0.131 Y20.526 E2.8189
G1 X0.125 Y20.526 E2.8191
G1 X-0.127 Y20.526 E2.8302
G1 X-0.133 Y20.526 E2.8305
G1 X-1.883 Y20.439 E2.9074
G1 X-1.888 Y20.439 E2.9076
G1 X-2.138 Y20.414 E2.9186
G1 X-2.144 Y20.413 E2.9189
G1 X-3.876 Y20.156 E2.9958
G1 X-3.882 Y20.155 E2.9960
G1 X-4.128 Y20.106 E3.0071
