; G-Code generated by Simplify3D(R) Version 3.1.0
; Dec 1, 2016 at 10:26:02 PM
; Settings Summary
;   processName,Process1
;   applyToModels,Pawn
;   profileName,Rostock MAX v2 (modified)
;   profileVersion,2015-05-01 08:00:00
;   baseProfile,
;   printMaterial,Iron PLA
;   printQuality,Medium
;   printExtruders,
;   extruderName,Primary Extruder
;   extruderToolheadNumber,0
;   extruderDiameter,0.6
;   extruderAutoWidth,1
;   extruderWidth,0.72
;   extrusionMultiplier,1.08
;   extruderUseRetract,1
;   extruderRetractionDistance,2
;   extruderExtraRestartDistance,-0.2
;   extruderRetractionZLift,0
;   extruderRetractionSpeed,1800
;   extruderUseCoasting,1
;   extruderCoastingDistance,1
;   extruderUseWipe,0
;   extruderWipeDistance,5
;   primaryExtruder,0
;   layerHeight,0.3
;   topSolidLayers,3
;   bottomSolidLayers,3
;   perimeterOutlines,3
;   printPerimetersInsideOut,1
;   startPointOption,2
;   startPointOriginX,0
;   startPointOriginY,0
;   startPointOriginZ,300
;   sequentialIslands,0
;   spiralVaseMode,0
;   firstLayerHeightPercentage,25
;   firstLayerWidthPercentage,100
;   firstLayerUnderspeed,0.4
;   useRaft,0
;   raftExtruder,0
;   raftLayers,3
;   raftOffset,15
;   raftSeparationDistance,0.14
;   raftInfill,85
;   disableRaftBaseLayers,0
;   useSkirt,1
;   skirtExtruder,0
;   skirtLayers,1
;   skirtOutlines,2
;   skirtOffset,5
;   usePrimePillar,0
;   primePillarExtruder,999
;   primePillarWidth,12
;   primePillarLocation,7
;   primePillarSpeedMultiplier,1
;   useOozeShield,0
;   oozeShieldExtruder,999
;   oozeShieldOffset,2
;   oozeShieldOutlines,1
;   oozeShieldSidewallShape,1
;   oozeShieldSidewallAngle,30
;   oozeShieldSpeedMultiplier,1
;   infillExtruder,0
;   internalInfillPattern,Rectilinear
;   externalInfillPattern,Rectilinear
;   infillPercentage,100
;   outlineOverlapPercentage,40
;   infillExtrusionWidthPercentage,100
;   minInfillLength,3
;   infillLayerInterval,1
;   infillAngles,45,-45
;   overlapInfillAngles,0
;   generateSupport,0
;   supportExtruder,0
;   supportInfillPercentage,30
;   supportExtraInflation,0
;   denseSupportLayers,0
;   denseSupportInfillPercentage,70
;   supportLayerInterval,1
;   supportHorizontalPartOffset,0.3
;   supportUpperSeparationLayers,1
;   supportLowerSeparationLayers,1
;   supportType,0
;   supportGridSpacing,4
;   maxOverhangAngle,70
;   supportAngles,0
;   temperatureName,Primary Extruder,Heated Bed
;   temperatureNumber,0,1
;   temperatureSetpointCount,1,1
;   temperatureSetpointLayers,1,1
;   temperatureSetpointTemperatures,210,60
;   temperatureStabilizeAtStartup,1,1
;   temperatureHeatedBed,0,1
;   temperatureRelayBetweenLayers,0,0
;   temperatureRelayBetweenLoops,0,0
;   fanLayers,1,2
;   fanSpeeds,0,100
;   blipFanToFullPower,1
;   adjustSpeedForCooling,1
;   minSpeedLayerTime,5
;   minCoolingSpeedSlowdown,80
;   increaseFanForCooling,0
;   minFanLayerTime,60
;   maxCoolingFanSpeed,100
;   increaseFanForBridging,0
;   bridgingFanSpeed,100
;   use5D,1
;   relativeEdistances,0
;   allowEaxisZeroing,1
;   independentExtruderAxes,0
;   includeM10123,0
;   stickySupport,1
;   applyToolheadOffsets,0
;   gcodeXoffset,0
;   gcodeYoffset,0
;   gcodeZoffset,0
;   overrideMachineDefinition,1
;   machineTypeOverride,1
;   strokeXoverride,197
;   strokeYoverride,197
;   strokeZoverride,375
;   originOffsetXoverride,98.5
;   originOffsetYoverride,98.5
;   originOffsetZoverride,0
;   homeXdirOverride,0
;   homeYdirOverride,0
;   homeZdirOverride,1
;   flipXoverride,1
;   flipYoverride,-1
;   flipZoverride,1
;   toolheadOffsets,0,0|0,0|0,0|0,0|0,0|0,0
;   overrideFirmwareConfiguration,1
;   firmwareTypeOverride,RepRap (Marlin/Repetier/Sprinter)
;   GPXconfigOverride,r2
;   baudRateOverride,115200
;   overridePrinterModels,1
;   printerModelsOverride
;   startingGcode,G28 ; home all axes
;   layerChangeGcode,
;   retractionGcode,
;   toolChangeGcode,
;   endingGcode,M104 S0 ; turn off extruder,M140 S0 ; turn off bed,G28 ; home axes,M84 ; disable motors
;   exportFileFormat,gcode
;   celebration,0
;   celebrationSong,Random Song
;   postProcessing,
;   defaultSpeed,1000
;   outlineUnderspeed,0.5
;   solidInfillUnderspeed,0.8
;   supportUnderspeed,0.8
;   rapidXYspeed,9000
;   rapidZspeed,1200
;   minBridgingArea,50
;   bridgingExtraInflation,0
;   bridgingExtrusionMultiplier,0.8
;   bridgingSpeedMultiplier,1.25
;   filamentDiameter,1.75
;   filamentPricePerKg,22
;   filamentDensity,1.25
;   useMinPrintHeight,0
;   minPrintHeight,0.05
;   useMaxPrintHeight,0
;   maxPrintHeight,0
;   useDiaphragm,0
;   diaphragmLayerInterval,20
;   robustSlicing,1
;   mergeAllIntoSolid,0
;   onlyRetractWhenCrossingOutline,0
;   retractBetweenLayers,0
;   useRetractionMinTravel,0
;   retractionMinTravel,3
;   retractWhileWiping,1
;   onlyWipeOutlines,1
;   avoidCrossingOutline,1
;   maxMovementDetourFactor,1.5
;   toolChangeRetractionDistance,12
;   toolChangeExtraRestartDistance,-0.5
;   toolChangeRetractionSpeed,600
;   allowThinWallGapFill,1
;   thinWallAllowedOverlapPercentage,10
;   horizontalSizeCompensation,0
G90
M82
M106 S0
M140 S60
M190 S60
M104 S210 T0
M109 S210 T0
G28 ; home all axes
G92 E0
G1 E-2.0000 F1800
G1 Z0.075 F1200
; layer 1, Z = 0.075
T0
; tool H0.300 W0.720
; skirt
G1 X-19.552 Y0.151 F9000
G1 E-0.2000 F540
G92 E0
G1 X-19.553 Y0.126 E0.0024 F800
G1 X-19.553 Y-0.126 E0.0269
G1 X-19.552 Y-0.151 E0.0292
G1 X-19.485 Y-1.629 E0.1727
G1 X-19.483 Y-1.653 E0.1751
G1 X-19.460 Y-1.904 E0.1996
G1 X-19.458 Y-1.929 E0.2020
G1 X-19.256 Y-3.394 E0.3454
G1 X-19.252 Y-3.419 E0.3478
G1 X-19.207 Y-3.667 E0.3723
G1 X-19.202 Y-3.691 E0.3747
G1 X-18.868 Y-5.132 E0.5182
G1 X-18.862 Y-5.156 E0.5205
G1 X-18.794 Y-5.399 E0.5450
G1 X-18.786 Y-5.422 E0.5474
G1 X-18.323 Y-6.827 E0.6909
G1 X-18.315 Y-6.850 E0.6933
G1 X-18.225 Y-7.086 E0.7177
G1 X-18.215 Y-7.109 E0.7201
G1 X-17.626 Y-8.466 E0.8636
G1 X-17.616 Y-8.488 E0.8660
G1 X-17.505 Y-8.715 E0.8905
G1 X-17.493 Y-8.737 E0.8928
G1 X-16.783 Y-10.034 E1.0363
G1 X-16.771 Y-10.056 E1.0387
G1 X-16.640 Y-10.271 E1.0632
G1 X-16.627 Y-10.292 E1.0656
G1 X-15.801 Y-11.520 E1.2090
G1 X-15.787 Y-11.540 E1.2114
G1 X-15.637 Y-11.742 E1.2359
G1 X-15.622 Y-11.762 E1.2383
G1 X-14.688 Y-12.910 E1.3818
G1 X-14.672 Y-12.928 E1.3841
G1 X-14.504 Y-13.116 E1.4086
G1 X-14.487 Y-13.134 E1.4110
G1 X-13.453 Y-14.192 E1.5545
G1 X-13.436 Y-14.210 E1.5569
G1 X-13.251 Y-14.382 E1.5813
G1 X-13.233 Y-14.398 E1.5837
G1 X-12.107 Y-15.358 E1.7272
G1 X-12.088 Y-15.373 E1.7296
G1 X-11.889 Y-15.528 E1.7541
G1 X-11.869 Y-15.543 E1.7564
G1 X-10.660 Y-16.396 E1.8999
G1 X-10.640 Y-16.409 E1.9023
G1 X-10.427 Y-16.545 E1.9268
G1 X-10.406 Y-16.558 E1.9292
G1 X-9.125 Y-17.298 E2.0726
G1 X-9.103 Y-17.310 E2.0750
G1 X-8.879 Y-17.426 E2.0995
G1 X-8.857 Y-17.437 E2.1019
G1 X-7.514 Y-18.057 E2.2454
G1 X-7.492 Y-18.066 E2.2478
G1 X-7.258 Y-18.162 E2.2722
G1 X-7.235 Y-18.170 E2.2746
G1 X-5.841 Y-18.666 E2.4181
G1 X-5.818 Y-18.674 E2.4205
G1 X-5.576 Y-18.747 E2.4449
G1 X-5.553 Y-18.754 E2.4473
G1 X-4.119 Y-19.120 E2.5908
G1 X-4.095 Y-19.126 E2.5932
G1 X-3.848 Y-19.177 E2.6177
G1 X-3.824 Y-19.182 E2.6200
G1 X-2.364 Y-19.416 E2.7635
G1 X-2.339 Y-19.420 E2.7659
G1 X-2.089 Y-19.448 E2.7904
G1 X-2.064 Y-19.451 E2.7928
G1 X-0.588 Y-19.552 E2.9362
G1 X-0.564 Y-19.553 E2.9386
G1 X-0.311 Y-19.559 E2.9631
G1 X-0.287 Y-19.559 E2.9655
G1 X1.192 Y-19.525 E3.1090
G1 X1.217 Y-19.524 E3.1114
G1 X1.468 Y-19.507 E3.1358
G1 X1.493 Y-19.504 E3.1382
G1 X2.963 Y-19.336 E3.2817
G1 X2.987 Y-19.333 E3.2841
G1 X3.236 Y-19.293 E3.3085
G1 X3.260 Y-19.288 E3.3109
G1 X4.709 Y-18.987 E3.4544
G1 X4.733 Y-18.982 E3.4568
G1 X4.977 Y-18.919 E3.4813
G1 X5.001 Y-18.913 E3.4836
G1 X6.416 Y-18.481 E3.6271
G1 X6.439 Y-18.474 E3.6295
G1 X6.677 Y-18.389 E3.6540
G1 X6.700 Y-18.380 E3.6564
G1 X8.070 Y-17.822 E3.7998
G1 X8.093 Y-17.812 E3.8022
G1 X8.322 Y-17.706 E3.8267
G1 X8.344 Y-17.696 E3.8291
G1 X9.657 Y-17.015 E3.9726
G1 X9.679 Y-17.003 E3.9750
G1 X9.897 Y-16.877 E3.9994
G1 X9.918 Y-16.864 E4.0018
G1 X11.165 Y-16.067 E4.1453
G1 X11.185 Y-16.053 E4.1477
G1 X11.391 Y-15.908 E4.1721
G1 X11.411 Y-15.893 E4.1745
G1 X12.579 Y-14.986 E4.3180
G1 X12.598 Y-14.970 E4.3204
G1 X12.791 Y-14.807 E4.3449
G1 X12.809 Y-14.790 E4.3472
G1 X13.890 Y-13.781 E4.4907
G1 X13.908 Y-13.763 E4.4931
G1 X14.084 Y-13.583 E4.5176
G1 X14.101 Y-13.565 E4.5200
G1 X15.086 Y-12.461 E4.6635
G1 X15.102 Y-12.442 E4.6658
G1 X15.261 Y-12.247 E4.6903
G1 X15.276 Y-12.227 E4.6927
G1 X16.156 Y-11.038 E4.8362
G1 X16.171 Y-11.018 E4.8386
G1 X16.311 Y-10.809 E4.8630
G1 X16.325 Y-10.788 E4.8654
G1 X17.093 Y-9.524 E5.0089
G1 X17.105 Y-9.503 E5.0113
G1 X17.227 Y-9.282 E5.0357
G1 X17.238 Y-9.260 E5.0381
G1 X17.889 Y-7.931 E5.1816
G1 X17.899 Y-7.909 E5.1840
G1 X17.999 Y-7.677 E5.2085
G1 X18.009 Y-7.655 E5.2109
G1 X18.536 Y-6.272 E5.3543
G1 X18.544 Y-6.249 E5.3567
G1 X18.623 Y-6.009 E5.3812
G1 X18.630 Y-5.986 E5.3836
G1 X19.029 Y-4.561 E5.5271
G1 X19.035 Y-4.538 E5.5294
G1 X19.092 Y-4.292 E5.5539
G1 X19.097 Y-4.268 E5.5563
G1 X19.365 Y-2.813 E5.6998
G1 X19.369 Y-2.788 E5.7022
G1 X19.403 Y-2.539 E5.7266
G1 X19.406 Y-2.514 E5.7290
G1 X19.541 Y-1.041 E5.8725
G1 X19.542 Y-1.016 E5.8749
G1 X19.554 Y-0.764 E5.8994
G1 X19.555 Y-0.740 E5.9017
G1 X19.555 Y0.740 E6.0452
G1 X19.554 Y0.764 E6.0476
G1 X19.542 Y1.016 E6.0721
G1 X19.541 Y1.041 E6.0745
G1 X19.406 Y2.514 E6.2179
G1 X19.403 Y2.539 E6.2203
G1 X19.369 Y2.788 E6.2448
G1 X19.365 Y2.813 E6.2472
G1 X19.097 Y4.268 E6.3907
G1 X19.092 Y4.292 E6.3930
G1 X19.035 Y4.538 E6.4175
G1 X19.029 Y4.561 E6.4199
G1 X18.630 Y5.986 E6.5634
G1 X18.623 Y6.009 E6.5658
G1 X18.544 Y6.249 E6.5902
G1 X18.536 Y6.272 E6.5926
G1 X18.009 Y7.655 E6.7361
G1 X17.999 Y7.677 E6.7385
G1 X17.899 Y7.909 E6.7630
G1 X17.889 Y7.931 E6.7653
G1 X17.238 Y9.260 E6.9088
G1 X17.227 Y9.282 E6.9112
G1 X17.105 Y9.503 E6.9357
G1 X17.093 Y9.524 E6.9381
G1 X16.325 Y10.788 E7.0815
G1 X16.311 Y10.809 E7.0839
G1 X16.171 Y11.018 E7.1084
G1 X16.156 Y11.038 E7.1108
G1 X15.276 Y12.227 E7.2543
G1 X15.261 Y12.247 E7.2566
G1 X15.102 Y12.442 E7.2811
G1 X15.086 Y12.461 E7.2835
G1 X14.101 Y13.565 E7.4270
G1 X14.084 Y13.583 E7.4294
G1 X13.908 Y13.763 E7.4538
G1 X13.890 Y13.781 E7.4562
G1 X12.809 Y14.790 E7.5997
G1 X12.791 Y14.807 E7.6021
G1 X12.598 Y14.970 E7.6266
G1 X12.579 Y14.986 E7.6289
G1 X11.411 Y15.893 E7.7724
G1 X11.391 Y15.908 E7.7748
G1 X11.185 Y16.053 E7.7993
G1 X11.165 Y16.067 E7.8017
G1 X9.918 Y16.864 E7.9451
G1 X9.897 Y16.877 E7.9475
G1 X9.679 Y17.003 E7.9720
G1 X9.657 Y17.015 E7.9744
G1 X8.344 Y17.696 E8.1179
G1 X8.322 Y17.706 E8.1203
G1 X8.093 Y17.812 E8.1447
G1 X8.070 Y17.822 E8.1471
G1 X6.700 Y18.380 E8.2906
G1 X6.677 Y18.389 E8.2930
G1 X6.439 Y18.474 E8.3174
G1 X6.416 Y18.481 E8.3198
G1 X5.001 Y18.913 E8.4633
G1 X4.977 Y18.919 E8.4657
G1 X4.733 Y18.982 E8.4902
G1 X4.709 Y18.987 E8.4925
G1 X3.260 Y19.288 E8.6360
G1 X3.236 Y19.293 E8.6384
G1 X2.987 Y19.333 E8.6629
G1 X2.963 Y19.336 E8.6653
G1 X1.493 Y19.504 E8.8087
G1 X1.468 Y19.507 E8.8111
G1 X1.217 Y19.524 E8.8356
G1 X1.192 Y19.525 E8.8380
G1 X-0.287 Y19.559 E8.9815
G1 X-0.311 Y19.559 E8.9839
G1 X-0.564 Y19.553 E9.0083
G1 X-0.588 Y19.552 E9.0107
G1 X-2.064 Y19.451 E9.1542
G1 X-2.089 Y19.448 E9.1566
G1 X-2.339 Y19.420 E9.1810
G1 X-2.364 Y19.416 E9.1834
G1 X-3.824 Y19.182 E9.3269
G1 X-3.848 Y19.177 E9.3293
G1 X-4.095 Y19.126 E9.3538
G1 X-4.119 Y19.120 E9.3561
G1 X-5.553 Y18.754 E9.4996
G1 X-5.576 Y18.747 E9.5020
G1 X-5.818 Y18.674 E9.5265
G1 X-5.841 Y18.666 E9.5289
G1 X-7.235 Y18.170 E9.6723
G1 X-7.258 Y18.162 E9.6747
G1 X-7.492 Y18.066 E9.6992
G1 X-7.514 Y18.057 E9.7016
G1 X-8.857 Y17.437 E9.8451
G1 X-8.879 Y17.426 E9.8475
G1 X-9.103 Y17.310 E9.8719
G1 X-9.125 Y17.298 E9.8743
G1 X-10.406 Y16.558 E10.0178
G1 X-10.427 Y16.545 E10.0202
G1 X-10.640 Y16.409 E10.0446
G1 X-10.660 Y16.396 E10.0470
G1 X-11.869 Y15.543 E10.1905
G1 X-11.889 Y15.528 E10.1929
G1 X-12.088 Y15.373 E10.2174
G1 X-12.107 Y15.358 E10.2197
G1 X-13.233 Y14.398 E10.3632
G1 X-13.251 Y14.382 E10.3656
G1 X-13.436 Y14.210 E10.3901
G1 X-13.453 Y14.192 E10.3925
G1 X-14.487 Y13.134 E10.5360
G1 X-14.504 Y13.116 E10.5383
G1 X-14.672 Y12.928 E10.5628
G1 X-14.688 Y12.910 E10.5652
G1 X-15.622 Y11.762 E10.7087
G1 X-15.637 Y11.743 E10.7111
G1 X-15.787 Y11.540 E10.7355
G1 X-15.801 Y11.520 E10.7379
G1 X-16.626 Y10.292 E10.8814
G1 X-16.640 Y10.271 E10.8838
G1 X-16.771 Y10.056 E10.9082
G1 X-16.783 Y10.034 E10.9106
G1 X-17.493 Y8.737 E11.0541
G1 X-17.505 Y8.715 E11.0565
G1 X-17.616 Y8.488 E11.0810
G1 X-17.626 Y8.466 E11.0834
G1 X-18.215 Y7.109 E11.2268
G1 X-18.225 Y7.086 E11.2292
G1 X-18.315 Y6.850 E11.2537
G1 X-18.323 Y6.827 E11.2561
G1 X-18.786 Y5.422 E11.3996
G1 X-18.794 Y5.399 E11.4019
G1 X-18.862 Y5.156 E11.4264
G1 X-18.868 Y5.132 E11.4288
G1 X-19.202 Y3.691 E11.5723
G1 X-19.207 Y3.667 E11.5747
G1 X-19.252 Y3.419 E11.5991
G1 X-19.256 Y3.394 E11.6015
G1 X-19.458 Y1.929 E11.7450
G1 X-19.460 Y1.904 E11.7474
G1 X-19.483 Y1.653 E11.7718
G1 X-19.485 Y1.629 E11.7742
G1 X-19.507 Y1.150 E11.8207
G1 X-19.552 Y0.151 F800
G92 E0
G1 E-2.0000 F1800
G1 X-18.833 Y0.126 F9000
G1 E-0.2000 F1800
G92 E0
G1 X-18.833 Y0.118 E0.0008 F800
G1 X-18.833 Y-0.118 E0.0237
G1 X-18.833 Y-0.126 E0.0245
G1 X-18.766 Y-1.588 E0.1664
G1 X-18.766 Y-1.596 E0.1672
G1 X-18.744 Y-1.831 E0.1900
G1 X-18.743 Y-1.839 E0.1908
G1 X-18.544 Y-3.288 E0.3327
G1 X-18.543 Y-3.296 E0.3335
G1 X-18.500 Y-3.528 E0.3564
G1 X-18.498 Y-3.536 E0.3572
G1 X-18.168 Y-4.962 E0.4991
G1 X-18.166 Y-4.970 E0.4999
G1 X-18.102 Y-5.197 E0.5228
G1 X-18.100 Y-5.205 E0.5235
G1 X-17.642 Y-6.594 E0.6654
G1 X-17.639 Y-6.602 E0.6662
G1 X-17.555 Y-6.822 E0.6891
G1 X-17.552 Y-6.830 E0.6899
G1 X-16.969 Y-8.172 E0.8318
G1 X-16.965 Y-8.179 E0.8326
G1 X-16.862 Y-8.391 E0.8555
G1 X-16.858 Y-8.398 E0.8563
G1 X-16.155 Y-9.681 E0.9982
G1 X-16.151 Y-9.689 E0.9990
G1 X-16.029 Y-9.890 E1.0218
G1 X-16.024 Y-9.897 E1.0226
G1 X-15.208 Y-11.111 E1.1645
G1 X-15.203 Y-11.118 E1.1653
G1 X-15.063 Y-11.307 E1.1882
G1 X-15.058 Y-11.314 E1.1890
G1 X-14.135 Y-12.449 E1.3309
G1 X-14.129 Y-12.455 E1.3317
G1 X-13.972 Y-12.631 E1.3546
G1 X-13.967 Y-12.637 E1.3554
G1 X-12.944 Y-13.683 E1.4973
G1 X-12.938 Y-13.689 E1.4980
G1 X-12.766 Y-13.850 E1.5209
G1 X-12.760 Y-13.855 E1.5217
G1 X-11.646 Y-14.804 E1.6636
G1 X-11.640 Y-14.809 E1.6644
G1 X-11.453 Y-14.954 E1.6873
G1 X-11.447 Y-14.959 E1.6881
G1 X-10.252 Y-15.803 E1.8300
G1 X-10.245 Y-15.807 E1.8308
G1 X-10.046 Y-15.934 E1.8536
G1 X-10.039 Y-15.939 E1.8544
G1 X-8.772 Y-16.670 E1.9963
G1 X-8.765 Y-16.674 E1.9971
G1 X-8.555 Y-16.783 E2.0200
G1 X-8.548 Y-16.786 E2.0208
G1 X-7.220 Y-17.400 E2.1627
G1 X-7.212 Y-17.403 E2.1635
G1 X-6.994 Y-17.492 E2.1864
G1 X-6.986 Y-17.495 E2.1872
G1 X-5.608 Y-17.985 E2.3291
G1 X-5.600 Y-17.987 E2.3299
G1 X-5.374 Y-18.056 E2.3527
G1 X-5.366 Y-18.058 E2.3535
G1 X-3.949 Y-18.421 E2.4954
G1 X-3.941 Y-18.423 E2.4962
G1 X-3.710 Y-18.471 E2.5191
G1 X-3.702 Y-18.472 E2.5199
G1 X-2.257 Y-18.704 E2.6618
G1 X-2.249 Y-18.705 E2.6626
G1 X-2.015 Y-18.732 E2.6855
G1 X-2.007 Y-18.733 E2.6863
G1 X-0.547 Y-18.833 E2.8281
G1 X-0.539 Y-18.833 E2.8289
G1 X-0.303 Y-18.839 E2.8518
G1 X-0.295 Y-18.839 E2.8526
G1 X1.168 Y-18.805 E2.9945
G1 X1.176 Y-18.805 E2.9953
G1 X1.411 Y-18.789 E3.0182
G1 X1.419 Y-18.788 E3.0190
G1 X2.873 Y-18.622 E3.1609
G1 X2.881 Y-18.621 E3.1617
G1 X3.114 Y-18.583 E3.1845
G1 X3.122 Y-18.582 E3.1853
G1 X4.554 Y-18.284 E3.3272
G1 X4.562 Y-18.282 E3.3280
G1 X4.791 Y-18.224 E3.3509
G1 X4.799 Y-18.222 E3.3517
G1 X6.198 Y-17.795 E3.4936
G1 X6.206 Y-17.792 E3.4944
G1 X6.428 Y-17.713 E3.5173
G1 X6.436 Y-17.710 E3.5181
G1 X7.791 Y-17.158 E3.6599
G1 X7.798 Y-17.155 E3.6607
G1 X8.012 Y-17.056 E3.6836
G1 X8.020 Y-17.053 E3.6844
G1 X9.319 Y-16.379 E3.8263
G1 X9.326 Y-16.376 E3.8271
G1 X9.530 Y-16.258 E3.8500
G1 X9.537 Y-16.253 E3.8508
G1 X10.770 Y-15.465 E3.9927
G1 X10.776 Y-15.460 E3.9935
G1 X10.969 Y-15.324 E4.0163
G1 X10.976 Y-15.319 E4.0171
G1 X12.131 Y-14.422 E4.1590
G1 X12.138 Y-14.417 E4.1598
G1 X12.317 Y-14.264 E4.1827
G1 X12.323 Y-14.259 E4.1835
G1 X13.393 Y-13.260 E4.3254
G1 X13.399 Y-13.254 E4.3262
G1 X13.563 Y-13.086 E4.3491
G1 X13.569 Y-13.080 E4.3499
G1 X14.543 Y-11.988 E4.4918
