; G-Code generated by Simplify3D(R) Version 3.1.1
; Dec 24, 2016 at 12:55:24 AM
; Settings Summary
;   processName,Process1
;   applyToModels,Pawn
;   profileName,Rostock MAX v2 (modified)
;   profileVersion,2015-05-01 08:00:00
;   baseProfile,
;   printMaterial,Iron PLA
;   printQuality,Medium
;   printExtruders,
;   extruderName,Primary Extruder
;   extruderToolheadNumber,0
;   extruderDiameter,0.6
;   extruderAutoWidth,1
;   extruderWidth,0.72
;   extrusionMultiplier,1
;   extruderUseRetract,0
;   extruderRetractionDistance,2
;   extruderExtraRestartDistance,0
;   extruderRetractionZLift,0.5
;   extruderRetractionSpeed,1800
;   extruderUseCoasting,0
;   extruderCoastingDistance,1
;   extruderUseWipe,0
;   extruderWipeDistance,5
;   primaryExtruder,0
;   layerHeight,0.3
;   topSolidLayers,3
;   bottomSolidLayers,3
;   perimeterOutlines,3
;   printPerimetersInsideOut,1
;   startPointOption,2
;   startPointOriginX,0
;   startPointOriginY,0
;   startPointOriginZ,300
;   sequentialIslands,0
;   spiralVaseMode,0
;   firstLayerHeightPercentage,25
;   firstLayerWidthPercentage,100
;   firstLayerUnderspeed,0.4
;   useRaft,0
;   raftExtruder,0
;   raftLayers,3
;   raftOffset,15
;   raftSeparationDistance,0.14
;   raftInfill,85
;   disableRaftBaseLayers,0
;   useSkirt,1
;   skirtExtruder,0
;   skirtLayers,1
;   skirtOutlines,3
;   skirtOffset,10
;   usePrimePillar,0
;   primePillarExtruder,999
;   primePillarWidth,12
;   primePillarLocation,7
;   primePillarSpeedMultiplier,1
;   useOozeShield,0
;   oozeShieldExtruder,999
;   oozeShieldOffset,2
;   oozeShieldOutlines,1
;   oozeShieldSidewallShape,1
;   oozeShieldSidewallAngle,30
;   oozeShieldSpeedMultiplier,1
;   infillExtruder,0
;   internalInfillPattern,Rectilinear
;   externalInfillPattern,Rectilinear
;   infillPercentage,100
;   outlineOverlapPercentage,25
;   infillExtrusionWidthPercentage,150
;   minInfillLength,5
;   infillLayerInterval,1
;   infillAngles,45,-45
;   overlapInfillAngles,0
;   generateSupport,0
;   supportExtruder,0
;   supportInfillPercentage,30
;   supportExtraInflation,0
;   denseSupportLayers,0
;   denseSupportInfillPercentage,70
;   supportLayerInterval,1
;   supportHorizontalPartOffset,0.3
;   supportUpperSeparationLayers,1
;   supportLowerSeparationLayers,1
;   supportType,1
;   supportGridSpacing,4
;   maxOverhangAngle,45
;   supportAngles,0
;   temperatureName,Primary Extruder,Heated Bed
;   temperatureNumber,0,1
;   temperatureSetpointCount,1,1
;   temperatureSetpointLayers,1,1
;   temperatureSetpointTemperatures,215,60
;   temperatureStabilizeAtStartup,1,1
;   temperatureHeatedBed,0,1
;   temperatureRelayBetweenLayers,0,0
;   temperatureRelayBetweenLoops,0,0
;   fanLayers,1,2
;   fanSpeeds,0,80
;   blipFanToFullPower,1
;   adjustSpeedForCooling,1
;   minSpeedLayerTime,15
;   minCoolingSpeedSlowdown,20
;   increaseFanForCooling,0
;   minFanLayerTime,60
;   maxCoolingFanSpeed,100
;   increaseFanForBridging,0
;   bridgingFanSpeed,100
;   use5D,1
;   relativeEdistances,0
;   allowEaxisZeroing,1
;   independentExtruderAxes,0
;   includeM10123,0
;   stickySupport,1
;   applyToolheadOffsets,0
;   gcodeXoffset,0
;   gcodeYoffset,0
;   gcodeZoffset,0
;   overrideMachineDefinition,1
;   machineTypeOverride,1
;   strokeXoverride,197
;   strokeYoverride,197
;   strokeZoverride,375
;   originOffsetXoverride,98.5
;   originOffsetYoverride,98.5
;   originOffsetZoverride,0
;   homeXdirOverride,0
;   homeYdirOverride,0
;   homeZdirOverride,1
;   flipXoverride,1
;   flipYoverride,-1
;   flipZoverride,1
;   toolheadOffsets,0,0|0,0|0,0|0,0|0,0|0,0
;   overrideFirmwareConfiguration,1
;   firmwareTypeOverride,RepRap (Marlin/Repetier/Sprinter)
;   GPXconfigOverride,r2
;   baudRateOverride,115200
;   overridePrinterModels,1
;   printerModelsOverride
;   startingGcode,G28 ; home all axes
;   layerChangeGcode,
;   retractionGcode,
;   toolChangeGcode,
;   endingGcode,M104 S0 ; turn off extruder,M140 S0 ; turn off bed,G28 ; home axes,M84 ; disable motors
;   exportFileFormat,gcode
;   celebration,0
;   celebrationSong,Random Song
;   postProcessing,
;   defaultSpeed,1500
;   outlineUnderspeed,0.5
;   solidInfillUnderspeed,0.8
;   supportUnderspeed,0.8
;   rapidXYspeed,9000
;   rapidZspeed,1200
;   minBridgingArea,50
;   bridgingExtraInflation,0
;   bridgingExtrusionMultiplier,0.95
;   bridgingSpeedMultiplier,0.7
;   filamentDiameter,1.75
;   filamentPricePerKg,22
;   filamentDensity,1.25
;   useMinPrintHeight,0
;   minPrintHeight,0.05
;   useMaxPrintHeight,0
;   maxPrintHeight,0
;   useDiaphragm,0
;   diaphragmLayerInterval,20
;   robustSlicing,1
;   mergeAllIntoSolid,0
;   onlyRetractWhenCrossingOutline,1
;   retractBetweenLayers,0
;   useRetractionMinTravel,0
;   retractionMinTravel,3
;   retractWhileWiping,1
;   onlyWipeOutlines,1
;   avoidCrossingOutline,1
;   maxMovementDetourFactor,1.5
;   toolChangeRetractionDistance,12
;   toolChangeExtraRestartDistance,-0.5
;   toolChangeRetractionSpeed,600
;   allowThinWallGapFill,1
;   thinWallAllowedOverlapPercentage,10
;   horizontalSizeCompensation,0
G90
M82
M106 S0
M140 S60
M190 S60
M104 S215 T0
M109 S215 T0
G28 ; home all axes
G92 E0
G1 E-2.0000 F1800
G1 Z0.575 F1200
; layer 1, Z = 0.075
T0
; tool H0.300 W0.720
; skirt
G1 X-25.272 Y0.289 F9000
G1 Z0.075 F1200
G1 E0.0000 F540
G92 E0
G1 X-25.273 Y0.248 E0.0037 F600
G1 X-25.273 Y-0.248 E0.0483
G1 X-25.272 Y-0.289 E0.0519
G1 X-25.194 Y-2.011 E0.2067
G1 X-25.191 Y-2.052 E0.2104
G1 X-25.146 Y-2.546 E0.2550
G1 X-25.141 Y-2.587 E0.2586
G1 X-24.906 Y-4.294 E0.4134
G1 X-24.900 Y-4.335 E0.4171
G1 X-24.810 Y-4.823 E0.4617
G1 X-24.802 Y-4.863 E0.4653
G1 X-24.413 Y-6.542 E0.6201
G1 X-24.402 Y-6.582 E0.6238
G1 X-24.269 Y-7.060 E0.6684
G1 X-24.257 Y-7.099 E0.6721
G1 X-23.717 Y-8.736 E0.8268
G1 X-23.703 Y-8.774 E0.8305
G1 X-23.526 Y-9.238 E0.8751
G1 X-23.511 Y-9.276 E0.8788
G1 X-22.824 Y-10.857 E1.0335
G1 X-22.807 Y-10.894 E1.0372
G1 X-22.588 Y-11.340 E1.0818
G1 X-22.570 Y-11.376 E1.0855
G1 X-21.742 Y-12.888 E1.2403
G1 X-21.721 Y-12.923 E1.2439
G1 X-21.464 Y-13.347 E1.2885
G1 X-21.442 Y-13.382 E1.2922
G1 X-20.480 Y-14.812 E1.4470
G1 X-20.456 Y-14.846 E1.4506
G1 X-20.161 Y-15.245 E1.4952
G1 X-20.136 Y-15.277 E1.4989
G1 X-19.048 Y-16.614 E1.6537
G1 X-19.022 Y-16.645 E1.6573
G1 X-18.691 Y-17.016 E1.7019
G1 X-18.663 Y-17.046 E1.7056
G1 X-17.458 Y-18.278 E1.8604
G1 X-17.429 Y-18.307 E1.8641
G1 X-17.066 Y-18.645 E1.9086
G1 X-17.036 Y-18.673 E1.9123
G1 X-15.724 Y-19.791 E2.0671
G1 X-15.692 Y-19.816 E2.0708
G1 X-15.300 Y-20.121 E2.1153
G1 X-15.267 Y-20.145 E2.1190
G1 X-13.859 Y-21.139 E2.2738
G1 X-13.825 Y-21.162 E2.2775
G1 X-13.407 Y-21.429 E2.3220
G1 X-13.372 Y-21.451 E2.3257
G1 X-11.879 Y-22.313 E2.4805
G1 X-11.843 Y-22.332 E2.4842
G1 X-11.403 Y-22.561 E2.5288
G1 X-11.366 Y-22.579 E2.5324
G1 X-9.801 Y-23.301 E2.6872
G1 X-9.763 Y-23.317 E2.6909
G1 X-9.304 Y-23.505 E2.7355
G1 X-9.266 Y-23.519 E2.7391
G1 X-7.642 Y-24.096 E2.8939
G1 X-7.603 Y-24.109 E2.8976
G1 X-7.128 Y-24.254 E2.9422
G1 X-7.088 Y-24.265 E2.9459
G1 X-5.419 Y-24.692 E3.1006
G1 X-5.379 Y-24.701 E3.1043
G1 X-4.893 Y-24.802 E3.1489
G1 X-4.852 Y-24.810 E3.1526
G1 X-3.151 Y-25.083 E3.3073
G1 X-3.110 Y-25.089 E3.3110
G1 X-2.617 Y-25.145 E3.3556
G1 X-2.576 Y-25.149 E3.3593
G1 X-0.857 Y-25.267 E3.5141
G1 X-0.816 Y-25.269 E3.5177
G1 X-0.320 Y-25.280 E3.5623
G1 X-0.279 Y-25.280 E3.5660
G1 X1.444 Y-25.241 E3.7208
G1 X1.485 Y-25.239 E3.7244
G1 X1.981 Y-25.205 E3.7690
G1 X2.021 Y-25.201 E3.7727
G1 X3.734 Y-25.005 E3.9275
G1 X3.774 Y-25.000 E3.9311
G1 X4.264 Y-24.921 E3.9757
G1 X4.305 Y-24.914 E3.9794
G1 X5.992 Y-24.563 E4.1342
G1 X6.032 Y-24.554 E4.1379
G1 X6.513 Y-24.431 E4.1824
G1 X6.552 Y-24.420 E4.1861
G1 X8.201 Y-23.917 E4.3409
G1 X8.240 Y-23.904 E4.3446
G1 X8.708 Y-23.738 E4.3891
G1 X8.746 Y-23.723 E4.3928
G1 X10.342 Y-23.073 E4.5476
G1 X10.380 Y-23.057 E4.5513
G1 X10.830 Y-22.848 E4.5958
G1 X10.867 Y-22.830 E4.5995
G1 X12.397 Y-22.038 E4.7543
G1 X12.433 Y-22.018 E4.7580
G1 X12.863 Y-21.770 E4.8026
G1 X12.898 Y-21.748 E4.8062
G1 X14.350 Y-20.820 E4.9610
G1 X14.384 Y-20.797 E4.9647
G1 X14.789 Y-20.510 E5.0093
G1 X14.822 Y-20.486 E5.0129
G1 X16.184 Y-19.429 E5.1677
G1 X16.215 Y-19.403 E5.1714
G1 X16.593 Y-19.081 E5.2160
G1 X16.624 Y-19.054 E5.2197
G1 X17.883 Y-17.878 E5.3744
G1 X17.913 Y-17.849 E5.3781
G1 X18.260 Y-17.494 E5.4227
G1 X18.288 Y-17.464 E5.4264
G1 X19.435 Y-16.178 E5.5811
G1 X19.462 Y-16.147 E5.5848
G1 X19.775 Y-15.762 E5.6294
G1 X19.800 Y-15.729 E5.6331
G1 X20.826 Y-14.344 E5.7878
G1 X20.849 Y-14.311 E5.7915
G1 X21.126 Y-13.899 E5.8361
G1 X21.148 Y-13.864 E5.8398
G1 X22.044 Y-12.392 E5.9946
G1 X22.064 Y-12.356 E5.9982
G1 X22.303 Y-11.921 E6.0428
G1 X22.322 Y-11.885 E6.0465
G1 X23.079 Y-10.337 E6.2013
G1 X23.097 Y-10.300 E6.2049
G1 X23.294 Y-9.844 E6.2495
G1 X23.310 Y-9.806 E6.2532
G1 X23.924 Y-8.196 E6.4080
G1 X23.938 Y-8.157 E6.4117
G1 X24.093 Y-7.686 E6.4562
G1 X24.105 Y-7.647 E6.4599
G1 X24.570 Y-5.987 E6.6147
G1 X24.580 Y-5.947 E6.6184
G1 X24.692 Y-5.464 E6.6629
G1 X24.701 Y-5.424 E6.6666
G1 X25.013 Y-3.729 E6.8214
G1 X25.019 Y-3.688 E6.8251
G1 X25.087 Y-3.197 E6.8696
G1 X25.091 Y-3.156 E6.8733
G1 X25.248 Y-1.439 E7.0281
G1 X25.251 Y-1.399 E7.0318
G1 X25.274 Y-0.903 E7.0764
G1 X25.275 Y-0.862 E7.0800
G1 X25.275 Y0.862 E7.2348
G1 X25.274 Y0.903 E7.2385
G1 X25.251 Y1.399 E7.2831
G1 X25.248 Y1.439 E7.2867
G1 X25.091 Y3.156 E7.4415
G1 X25.087 Y3.197 E7.4452
G1 X25.019 Y3.688 E7.4898
G1 X25.013 Y3.729 E7.4935
G1 X24.701 Y5.424 E7.6482
G1 X24.692 Y5.464 E7.6519
G1 X24.580 Y5.947 E7.6965
G1 X24.570 Y5.987 E7.7002
G1 X24.105 Y7.647 E7.8549
G1 X24.093 Y7.686 E7.8586
G1 X23.938 Y8.157 E7.9032
G1 X23.924 Y8.196 E7.9069
G1 X23.310 Y9.806 E8.0616
G1 X23.294 Y9.844 E8.0653
G1 X23.097 Y10.300 E8.1099
G1 X23.079 Y10.337 E8.1136
G1 X22.322 Y11.885 E8.2684
G1 X22.303 Y11.921 E8.2720
G1 X22.064 Y12.356 E8.3166
G1 X22.044 Y12.392 E8.3203
G1 X21.148 Y13.864 E8.4751
G1 X21.126 Y13.899 E8.4787
G1 X20.849 Y14.311 E8.5233
G1 X20.826 Y14.344 E8.5270
G1 X19.800 Y15.729 E8.6818
G1 X19.775 Y15.762 E8.6854
G1 X19.462 Y16.147 E8.7300
G1 X19.435 Y16.178 E8.7337
G1 X18.288 Y17.464 E8.8885
G1 X18.260 Y17.494 E8.8922
G1 X17.913 Y17.849 E8.9367
G1 X17.883 Y17.878 E8.9404
G1 X16.624 Y19.054 E9.0952
G1 X16.593 Y19.081 E9.0989
G1 X16.215 Y19.403 E9.1434
G1 X16.184 Y19.429 E9.1471
G1 X14.822 Y20.486 E9.3019
G1 X14.789 Y20.510 E9.3056
G1 X14.384 Y20.797 E9.3501
G1 X14.350 Y20.820 E9.3538
G1 X12.898 Y21.748 E9.5086
G1 X12.863 Y21.770 E9.5123
G1 X12.433 Y22.018 E9.5569
G1 X12.397 Y22.038 E9.5605
G1 X10.867 Y22.830 E9.7153
G1 X10.830 Y22.848 E9.7190
G1 X10.380 Y23.057 E9.7636
G1 X10.342 Y23.073 E9.7673
G1 X8.746 Y23.723 E9.9220
G1 X8.708 Y23.738 E9.9257
G1 X8.240 Y23.904 E9.9703
G1 X8.201 Y23.917 E9.9740
G1 X6.552 Y24.420 E10.1287
G1 X6.513 Y24.431 E10.1324
G1 X6.032 Y24.554 E10.1770
G1 X5.992 Y24.563 E10.1807
G1 X4.305 Y24.914 E10.3354
G1 X4.264 Y24.921 E10.3391
G1 X3.774 Y25.000 E10.3837
G1 X3.734 Y25.005 E10.3874
G1 X2.021 Y25.201 E10.5422
G1 X1.981 Y25.205 E10.5458
G1 X1.485 Y25.239 E10.5904
G1 X1.444 Y25.241 E10.5941
G1 X-0.279 Y25.280 E10.7488
G1 X-0.320 Y25.280 E10.7525
G1 X-0.816 Y25.269 E10.7971
G1 X-0.857 Y25.267 E10.8008
G1 X-2.576 Y25.149 E10.9556
G1 X-2.617 Y25.145 E10.9592
G1 X-3.110 Y25.089 E11.0038
G1 X-3.151 Y25.083 E11.0075
G1 X-4.852 Y24.810 E11.1623
G1 X-4.893 Y24.802 E11.1660
G1 X-5.379 Y24.701 E11.2105
G1 X-5.419 Y24.692 E11.2142
G1 X-7.088 Y24.265 E11.3690
G1 X-7.128 Y24.254 E11.3727
G1 X-7.603 Y24.109 E11.4172
G1 X-7.642 Y24.096 E11.4209
G1 X-9.266 Y23.519 E11.5757
G1 X-9.304 Y23.505 E11.5794
G1 X-9.763 Y23.317 E11.6239
G1 X-9.801 Y23.301 E11.6276
G1 X-11.366 Y22.579 E11.7824
G1 X-11.403 Y22.561 E11.7861
G1 X-11.843 Y22.332 E11.8307
G1 X-11.879 Y22.313 E11.8343
G1 X-13.372 Y21.451 E11.9891
G1 X-13.407 Y21.429 E11.9928
G1 X-13.825 Y21.162 E12.0374
G1 X-13.859 Y21.139 E12.0410
G1 X-15.267 Y20.145 E12.1958
G1 X-15.300 Y20.121 E12.1995
G1 X-15.692 Y19.816 E12.2441
G1 X-15.724 Y19.791 E12.2478
G1 X-17.036 Y18.673 E12.4025
G1 X-17.066 Y18.645 E12.4062
G1 X-17.429 Y18.307 E12.4508
G1 X-17.458 Y18.278 E12.4545
G1 X-18.663 Y17.045 E12.6092
G1 X-18.691 Y17.016 E12.6129
G1 X-19.022 Y16.645 E12.6575
G1 X-19.048 Y16.614 E12.6612
G1 X-20.136 Y15.277 E12.8159
G1 X-20.161 Y15.245 E12.8196
G1 X-20.456 Y14.846 E12.8642
G1 X-20.480 Y14.812 E12.8679
G1 X-21.442 Y13.382 E13.0226
G1 X-21.464 Y13.348 E13.0263
G1 X-21.722 Y12.923 E13.0709
G1 X-21.742 Y12.888 E13.0746
G1 X-22.570 Y11.376 E13.2294
G1 X-22.588 Y11.340 E13.2330
G1 X-22.807 Y10.894 E13.2776
G1 X-22.824 Y10.857 E13.2813
G1 X-23.511 Y9.276 E13.4361
G1 X-23.526 Y9.238 E13.4398
G1 X-23.703 Y8.774 E13.4843
G1 X-23.717 Y8.736 E13.4880
G1 X-24.257 Y7.099 E13.6428
G1 X-24.269 Y7.060 E13.6465
G1 X-24.402 Y6.582 E13.6910
G1 X-24.413 Y6.542 E13.6947
G1 X-24.802 Y4.863 E13.8495
G1 X-24.810 Y4.823 E13.8532
G1 X-24.900 Y4.335 E13.8977
G1 X-24.906 Y4.294 E13.9014
G1 X-25.141 Y2.587 E14.0562
G1 X-25.146 Y2.546 E14.0599
G1 X-25.191 Y2.052 E14.1045
G1 X-25.194 Y2.011 E14.1081
G1 X-25.272 Y0.289 E14.2629
G1 X-24.552 Y0.265 F9000
G92 E0
G1 X-24.553 Y0.240 E0.0022 F600
G1 X-24.553 Y-0.240 E0.0453
G1 X-24.552 Y-0.265 E0.0475
G1 X-24.475 Y-1.970 E0.2008
G1 X-24.473 Y-1.994 E0.2030
G1 X-24.429 Y-2.472 E0.2461
G1 X-24.427 Y-2.497 E0.2483
G1 X-24.194 Y-4.188 E0.4016
G1 X-24.190 Y-4.212 E0.4039
G1 X-24.103 Y-4.684 E0.4469
G1 X-24.098 Y-4.708 E0.4492
G1 X-23.713 Y-6.371 E0.6025
G1 X-23.707 Y-6.395 E0.6047
G1 X-23.577 Y-6.857 E0.6478
G1 X-23.570 Y-6.881 E0.6500
G1 X-23.035 Y-8.502 E0.8033
G1 X-23.027 Y-8.525 E0.8055
G1 X-22.856 Y-8.974 E0.8486
G1 X-22.847 Y-8.997 E0.8508
G1 X-22.167 Y-10.562 E1.0041
G1 X-22.156 Y-10.585 E1.0063
G1 X-21.945 Y-11.016 E1.0494
G1 X-21.934 Y-11.038 E1.0516
G1 X-21.114 Y-12.535 E1.2049
G1 X-21.102 Y-12.556 E1.2071
G1 X-20.853 Y-12.966 E1.2502
G1 X-20.839 Y-12.987 E1.2524
G1 X-19.887 Y-14.404 E1.4057
G1 X-19.873 Y-14.424 E1.4079
G1 X-19.587 Y-14.810 E1.4510
G1 X-19.572 Y-14.829 E1.4533
G1 X-18.495 Y-16.153 E1.6066
G1 X-18.479 Y-16.172 E1.6088
G1 X-18.159 Y-16.530 E1.6519
G1 X-18.142 Y-16.548 E1.6541
G1 X-16.949 Y-17.769 E1.8074
G1 X-16.932 Y-17.786 E1.8096
G1 X-16.581 Y-18.114 E1.8527
G1 X-16.562 Y-18.130 E1.8549
G1 X-15.263 Y-19.237 E2.0082
G1 X-15.244 Y-19.253 E2.0104
G1 X-14.865 Y-19.547 E2.0535
G1 X-14.845 Y-19.562 E2.0557
G1 X-13.451 Y-20.546 E2.2090
G1 X-13.430 Y-20.560 E2.2112
G1 X-13.026 Y-20.819 E2.2543
G1 X-13.005 Y-20.831 E2.2565
G1 X-11.526 Y-21.685 E2.4098
G1 X-11.505 Y-21.697 E2.4121
G1 X-11.079 Y-21.918 E2.4552
G1 X-11.057 Y-21.928 E2.4574
G1 X-9.507 Y-22.644 E2.6107
G1 X-9.484 Y-22.654 E2.6129
G1 X-9.040 Y-22.835 E2.6560
G1 X-9.017 Y-22.844 E2.6582
G1 X-7.408 Y-23.415 E2.8115
G1 X-7.385 Y-23.423 E2.8137
G1 X-6.926 Y-23.563 E2.8568
G1 X-6.902 Y-23.570 E2.8590
G1 X-5.248 Y-23.993 E3.0123
G1 X-5.224 Y-23.998 E3.0145
G1 X-4.754 Y-24.096 E3.0576
G1 X-4.730 Y-24.100 E3.0598
G1 X-3.045 Y-24.371 E3.2131
G1 X-3.020 Y-24.375 E3.2153
G1 X-2.543 Y-24.429 E3.2584
G1 X-2.519 Y-24.431 E3.2607
G1 X-0.816 Y-24.548 E3.4140
G1 X-0.791 Y-24.549 E3.4162
G1 X-0.311 Y-24.560 E3.4593
G1 X-0.287 Y-24.560 E3.4615
G1 X1.420 Y-24.521 E3.6148
G1 X1.444 Y-24.520 E3.6170
G1 X1.923 Y-24.487 E3.6601
G1 X1.948 Y-24.485 E3.6623
G1 X3.644 Y-24.291 E3.8156
G1 X3.668 Y-24.288 E3.8178
G1 X4.142 Y-24.211 E3.8609
G1 X4.166 Y-24.207 E3.8631
G1 X5.838 Y-23.860 E4.0164
G1 X5.862 Y-23.854 E4.0186
G1 X6.327 Y-23.735 E4.0617
G1 X6.350 Y-23.729 E4.0639
G1 X7.983 Y-23.231 E4.2172
G1 X8.007 Y-23.223 E4.2194
G1 X8.459 Y-23.062 E4.2625
G1 X8.482 Y-23.053 E4.2648
G1 X10.063 Y-22.409 E4.4181
G1 X10.085 Y-22.399 E4.4203
G1 X10.521 Y-22.198 E4.4634
G1 X10.543 Y-22.187 E4.4656
G1 X12.059 Y-21.402 E4.6189
G1 X12.080 Y-21.390 E4.6211
G1 X12.496 Y-21.150 E4.6642
G1 X12.517 Y-21.137 E4.6664
G1 X13.955 Y-20.217 E4.8197
G1 X13.975 Y-20.204 E4.8219
G1 X14.368 Y-19.927 E4.8650
G1 X14.387 Y-19.912 E4.8672
G1 X15.736 Y-18.865 E5.0205
G1 X15.755 Y-18.850 E5.0227
G1 X16.120 Y-18.539 E5.0658
G1 X16.138 Y-18.522 E5.0680
G1 X17.386 Y-17.357 E5.2213
G1 X17.404 Y-17.340 E5.2235
G1 X17.739 Y-16.997 E5.2667
G1 X17.756 Y-16.979 E5.2689
