; G-Code generated by Simplify3D(R) Version 3.1.0
; Oct 25, 2016 at 10:15:46 PM
; Settings Summary
;   processName,Process1
;   applyToModels,Rook2
;   profileName,Rostock MAX v2 (modified)
;   profileVersion,2015-05-01 08:00:00
;   baseProfile,
;   printMaterial,Iron PLA
;   printQuality,Medium
;   printExtruders,
;   extruderName,Primary Extruder
;   extruderToolheadNumber,0
;   extruderDiameter,0.6
;   extruderAutoWidth,1
;   extruderWidth,0.72
;   extrusionMultiplier,1.1
;   extruderUseRetract,1
;   extruderRetractionDistance,2
;   extruderExtraRestartDistance,-0.2
;   extruderRetractionZLift,0
;   extruderRetractionSpeed,1800
;   extruderUseCoasting,1
;   extruderCoastingDistance,1
;   extruderUseWipe,0
;   extruderWipeDistance,5
;   primaryExtruder,0
;   layerHeight,0.3
;   topSolidLayers,3
;   bottomSolidLayers,3
;   perimeterOutlines,3
;   printPerimetersInsideOut,1
;   startPointOption,2
;   startPointOriginX,0
;   startPointOriginY,0
;   startPointOriginZ,300
;   sequentialIslands,0
;   spiralVaseMode,0
;   firstLayerHeightPercentage,25
;   firstLayerWidthPercentage,100
;   firstLayerUnderspeed,0.4
;   useRaft,0
;   raftExtruder,0
;   raftLayers,3
;   raftOffset,15
;   raftSeparationDistance,0.14
;   raftInfill,85
;   disableRaftBaseLayers,0
;   useSkirt,1
;   skirtExtruder,0
;   skirtLayers,1
;   skirtOutlines,2
;   skirtOffset,5
;   usePrimePillar,0
;   primePillarExtruder,999
;   primePillarWidth,12
;   primePillarLocation,7
;   primePillarSpeedMultiplier,1
;   useOozeShield,0
;   oozeShieldExtruder,999
;   oozeShieldOffset,2
;   oozeShieldOutlines,1
;   oozeShieldSidewallShape,1
;   oozeShieldSidewallAngle,30
;   oozeShieldSpeedMultiplier,1
;   infillExtruder,0
;   internalInfillPattern,Rectilinear
;   externalInfillPattern,Rectilinear
;   infillPercentage,85
;   outlineOverlapPercentage,40
;   infillExtrusionWidthPercentage,100
;   minInfillLength,3
;   infillLayerInterval,1
;   infillAngles,45,-45
;   overlapInfillAngles,0
;   generateSupport,0
;   supportExtruder,0
;   supportInfillPercentage,30
;   supportExtraInflation,0
;   denseSupportLayers,0
;   denseSupportInfillPercentage,70
;   supportLayerInterval,1
;   supportHorizontalPartOffset,0.3
;   supportUpperSeparationLayers,1
;   supportLowerSeparationLayers,1
;   supportType,0
;   supportGridSpacing,4
;   maxOverhangAngle,70
;   supportAngles,0
;   temperatureName,Primary Extruder,Heated Bed
;   temperatureNumber,0,1
;   temperatureSetpointCount,1,1
;   temperatureSetpointLayers,1,1
;   temperatureSetpointTemperatures,210,60
;   temperatureStabilizeAtStartup,1,1
;   temperatureHeatedBed,0,1
;   temperatureRelayBetweenLayers,0,0
;   temperatureRelayBetweenLoops,0,0
;   fanLayers,1,2
;   fanSpeeds,0,100
;   blipFanToFullPower,1
;   adjustSpeedForCooling,1
;   minSpeedLayerTime,5
;   minCoolingSpeedSlowdown,80
;   increaseFanForCooling,0
;   minFanLayerTime,60
;   maxCoolingFanSpeed,100
;   increaseFanForBridging,0
;   bridgingFanSpeed,100
;   use5D,1
;   relativeEdistances,0
;   allowEaxisZeroing,1
;   independentExtruderAxes,0
;   includeM10123,0
;   stickySupport,1
;   applyToolheadOffsets,0
;   gcodeXoffset,0
;   gcodeYoffset,0
;   gcodeZoffset,0
;   overrideMachineDefinition,1
;   machineTypeOverride,1
;   strokeXoverride,197
;   strokeYoverride,197
;   strokeZoverride,375
;   originOffsetXoverride,98.5
;   originOffsetYoverride,98.5
;   originOffsetZoverride,0
;   homeXdirOverride,0
;   homeYdirOverride,0
;   homeZdirOverride,1
;   flipXoverride,1
;   flipYoverride,-1
;   flipZoverride,1
;   toolheadOffsets,0,0|0,0|0,0|0,0|0,0|0,0
;   overrideFirmwareConfiguration,1
;   firmwareTypeOverride,RepRap (Marlin/Repetier/Sprinter)
;   GPXconfigOverride,r2
;   baudRateOverride,115200
;   overridePrinterModels,1
;   printerModelsOverride
;   startingGcode,G28 ; home all axes
;   layerChangeGcode,
;   retractionGcode,
;   toolChangeGcode,
;   endingGcode,M104 S0 ; turn off extruder,M140 S0 ; turn off bed,G28 ; home axes,M84 ; disable motors
;   exportFileFormat,gcode
;   celebration,0
;   celebrationSong,Random Song
;   postProcessing,
;   defaultSpeed,1000
;   outlineUnderspeed,0.5
;   solidInfillUnderspeed,0.8
;   supportUnderspeed,0.8
;   rapidXYspeed,9000
;   rapidZspeed,1200
;   minBridgingArea,50
;   bridgingExtraInflation,0
;   bridgingExtrusionMultiplier,0.8
;   bridgingSpeedMultiplier,1.25
;   filamentDiameter,1.75
;   filamentPricePerKg,22
;   filamentDensity,1.25
;   useMinPrintHeight,0
;   minPrintHeight,0.05
;   useMaxPrintHeight,0
;   maxPrintHeight,0
;   useDiaphragm,0
;   diaphragmLayerInterval,20
;   robustSlicing,1
;   mergeAllIntoSolid,0
;   onlyRetractWhenCrossingOutline,0
;   retractBetweenLayers,0
;   useRetractionMinTravel,0
;   retractionMinTravel,3
;   retractWhileWiping,1
;   onlyWipeOutlines,1
;   avoidCrossingOutline,1
;   maxMovementDetourFactor,1.5
;   toolChangeRetractionDistance,12
;   toolChangeExtraRestartDistance,-0.5
;   toolChangeRetractionSpeed,600
;   allowThinWallGapFill,1
;   thinWallAllowedOverlapPercentage,10
;   horizontalSizeCompensation,0
G90
M82
M106 S0
M140 S60
M190 S60
M104 S210 T0
M109 S210 T0
G28 ; home all axes
G92 E0
G1 E-2.0000 F1800
G1 Z0.075 F1200
; layer 1, Z = 0.075
T0
; tool H0.300 W0.720
; skirt
G1 X17.072 Y13.084 F9000
G1 E-0.2000 F540
G92 E0
G1 X15.998 Y14.377 E0.1661 F800
G1 X15.982 Y14.396 E0.1685
G1 X15.809 Y14.585 E0.1938
G1 X15.792 Y14.603 E0.1963
G1 X14.603 Y15.792 E0.3623
G1 X14.585 Y15.809 E0.3648
G1 X14.396 Y15.981 E0.3901
G1 X14.377 Y15.998 E0.3926
G1 X13.084 Y17.072 E0.5586
G1 X13.064 Y17.087 E0.5611
G1 X12.860 Y17.242 E0.5864
G1 X12.840 Y17.256 E0.5888
G1 X11.453 Y18.206 E0.7549
G1 X11.432 Y18.220 E0.7574
G1 X11.214 Y18.355 E0.7827
G1 X11.193 Y18.367 E0.7851
G1 X9.724 Y19.185 E0.9512
G1 X9.702 Y19.197 E0.9537
G1 X9.473 Y19.311 E0.9789
G1 X9.450 Y19.322 E0.9814
G1 X7.912 Y20.001 E1.1475
G1 X7.889 Y20.010 E1.1499
G1 X7.651 Y20.103 E1.1752
G1 X7.627 Y20.111 E1.1777
G1 X6.033 Y20.645 E1.3438
G1 X6.009 Y20.653 E1.3462
G1 X5.763 Y20.723 E1.3715
G1 X5.739 Y20.729 E1.3740
G1 X4.102 Y21.114 E1.5400
G1 X4.078 Y21.119 E1.5425
G1 X3.826 Y21.166 E1.5678
G1 X3.802 Y21.170 E1.5702
G1 X2.137 Y21.402 E1.7363
G1 X2.112 Y21.405 E1.7388
G1 X1.857 Y21.429 E1.7641
G1 X1.832 Y21.431 E1.7665
G1 X0.153 Y21.508 E1.9326
G1 X0.128 Y21.509 E1.9351
G1 X-0.128 Y21.509 E1.9603
G1 X-0.153 Y21.508 E1.9628
G1 X-1.832 Y21.431 E2.1289
G1 X-1.857 Y21.429 E2.1313
G1 X-2.112 Y21.405 E2.1566
G1 X-2.137 Y21.402 E2.1591
G1 X-3.802 Y21.170 E2.3252
G1 X-3.826 Y21.166 E2.3276
G1 X-4.078 Y21.119 E2.3529
G1 X-4.102 Y21.114 E2.3554
G1 X-5.739 Y20.729 E2.5214
G1 X-5.763 Y20.723 E2.5239
G1 X-6.009 Y20.653 E2.5492
G1 X-6.033 Y20.645 E2.5516
G1 X-7.627 Y20.111 E2.7177
G1 X-7.651 Y20.103 E2.7202
G1 X-7.889 Y20.010 E2.7455
G1 X-7.912 Y20.001 E2.7479
G1 X-9.450 Y19.322 E2.9140
G1 X-9.473 Y19.311 E2.9165
G1 X-9.702 Y19.197 E2.9417
G1 X-9.724 Y19.185 E2.9442
G1 X-11.193 Y18.367 E3.1103
G1 X-11.214 Y18.355 E3.1127
G1 X-11.432 Y18.220 E3.1380
G1 X-11.453 Y18.206 E3.1405
G1 X-12.840 Y17.256 E3.3066
G1 X-12.860 Y17.242 E3.3090
G1 X-13.064 Y17.087 E3.3343
G1 X-13.084 Y17.072 E3.3368
G1 X-14.377 Y15.998 E3.5028
G1 X-14.396 Y15.981 E3.5053
G1 X-14.585 Y15.809 E3.5306
G1 X-14.603 Y15.792 E3.5331
G1 X-15.792 Y14.603 E3.6991
G1 X-15.809 Y14.585 E3.7016
G1 X-15.982 Y14.396 E3.7269
G1 X-15.998 Y14.377 E3.7293
G1 X-17.072 Y13.084 E3.8954
G1 X-17.087 Y13.064 E3.8979
G1 X-17.242 Y12.860 E3.9231
G1 X-17.256 Y12.840 E3.9256
G1 X-18.206 Y11.453 E4.0917
G1 X-18.220 Y11.432 E4.0941
G1 X-18.355 Y11.214 E4.1194
G1 X-18.367 Y11.193 E4.1219
G1 X-19.185 Y9.724 E4.2880
G1 X-19.197 Y9.702 E4.2904
G1 X-19.311 Y9.473 E4.3157
G1 X-19.322 Y9.450 E4.3182
G1 X-20.001 Y7.912 E4.4842
G1 X-20.010 Y7.889 E4.4867
G1 X-20.103 Y7.651 E4.5120
G1 X-20.111 Y7.627 E4.5145
G1 X-20.645 Y6.033 E4.6805
G1 X-20.653 Y6.009 E4.6830
G1 X-20.723 Y5.763 E4.7083
G1 X-20.729 Y5.739 E4.7107
G1 X-21.114 Y4.102 E4.8768
G1 X-21.119 Y4.078 E4.8793
G1 X-21.166 Y3.826 E4.9046
G1 X-21.170 Y3.802 E4.9070
G1 X-21.402 Y2.137 E5.0731
G1 X-21.405 Y2.112 E5.0755
G1 X-21.429 Y1.857 E5.1008
G1 X-21.431 Y1.832 E5.1033
G1 X-21.508 Y0.153 E5.2694
G1 X-21.509 Y0.128 E5.2718
G1 X-21.509 Y-0.128 E5.2971
G1 X-21.508 Y-0.153 E5.2996
G1 X-21.431 Y-1.832 E5.4656
G1 X-21.429 Y-1.857 E5.4681
G1 X-21.405 Y-2.112 E5.4934
G1 X-21.402 Y-2.137 E5.4959
G1 X-21.170 Y-3.802 E5.6619
G1 X-21.166 Y-3.826 E5.6644
G1 X-21.119 Y-4.078 E5.6897
G1 X-21.114 Y-4.102 E5.6921
G1 X-20.729 Y-5.739 E5.8582
G1 X-20.723 Y-5.763 E5.8607
G1 X-20.653 Y-6.009 E5.8860
G1 X-20.645 Y-6.033 E5.8884
G1 X-20.111 Y-7.627 E6.0545
G1 X-20.103 Y-7.651 E6.0569
G1 X-20.010 Y-7.889 E6.0822
G1 X-20.001 Y-7.912 E6.0847
G1 X-19.322 Y-9.450 E6.2508
G1 X-19.311 Y-9.473 E6.2532
G1 X-19.197 Y-9.702 E6.2785
G1 X-19.185 Y-9.724 E6.2810
G1 X-18.367 Y-11.193 E6.4470
G1 X-18.355 Y-11.214 E6.4495
G1 X-18.220 Y-11.432 E6.4748
G1 X-18.206 Y-11.453 E6.4773
G1 X-17.256 Y-12.840 E6.6433
G1 X-17.242 Y-12.860 E6.6458
G1 X-17.087 Y-13.064 E6.6711
G1 X-17.072 Y-13.084 E6.6735
G1 X-15.998 Y-14.377 E6.8396
G1 X-15.981 Y-14.396 E6.8421
G1 X-15.809 Y-14.585 E6.8674
G1 X-15.792 Y-14.603 E6.8698
G1 X-14.603 Y-15.792 E7.0359
G1 X-14.585 Y-15.809 E7.0384
G1 X-14.396 Y-15.981 E7.0636
G1 X-14.377 Y-15.998 E7.0661
G1 X-13.084 Y-17.072 E7.2322
G1 X-13.064 Y-17.087 E7.2346
G1 X-12.860 Y-17.242 E7.2599
G1 X-12.840 Y-17.256 E7.2624
G1 X-11.453 Y-18.206 E7.4284
G1 X-11.432 Y-18.220 E7.4309
G1 X-11.214 Y-18.355 E7.4562
G1 X-11.193 Y-18.367 E7.4587
G1 X-9.724 Y-19.185 E7.6247
G1 X-9.702 Y-19.197 E7.6272
G1 X-9.473 Y-19.311 E7.6525
G1 X-9.450 Y-19.322 E7.6549
G1 X-7.912 Y-20.001 E7.8210
G1 X-7.889 Y-20.010 E7.8235
G1 X-7.651 Y-20.103 E7.8488
G1 X-7.627 Y-20.111 E7.8512
G1 X-6.033 Y-20.645 E8.0173
G1 X-6.009 Y-20.653 E8.0198
G1 X-5.763 Y-20.723 E8.0450
G1 X-5.739 Y-20.729 E8.0475
G1 X-4.102 Y-21.114 E8.2136
G1 X-4.078 Y-21.119 E8.2160
G1 X-3.826 Y-21.166 E8.2413
G1 X-3.802 Y-21.170 E8.2438
G1 X-2.137 Y-21.402 E8.4099
G1 X-2.112 Y-21.405 E8.4123
G1 X-1.857 Y-21.429 E8.4376
G1 X-1.832 Y-21.431 E8.4401
G1 X-0.153 Y-21.508 E8.6061
G1 X-0.128 Y-21.509 E8.6086
G1 X0.128 Y-21.509 E8.6339
G1 X0.153 Y-21.508 E8.6363
G1 X1.832 Y-21.431 E8.8024
G1 X1.857 Y-21.429 E8.8049
G1 X2.112 Y-21.405 E8.8302
G1 X2.137 Y-21.402 E8.8326
G1 X3.802 Y-21.170 E8.9987
G1 X3.826 Y-21.166 E9.0012
G1 X4.078 Y-21.119 E9.0264
G1 X4.102 Y-21.114 E9.0289
G1 X5.739 Y-20.729 E9.1950
G1 X5.763 Y-20.723 E9.1974
G1 X6.009 Y-20.653 E9.2227
G1 X6.033 Y-20.645 E9.2252
G1 X7.627 Y-20.111 E9.3913
G1 X7.651 Y-20.103 E9.3937
G1 X7.889 Y-20.010 E9.4190
G1 X7.912 Y-20.001 E9.4215
G1 X9.450 Y-19.322 E9.5875
G1 X9.473 Y-19.311 E9.5900
G1 X9.702 Y-19.197 E9.6153
G1 X9.724 Y-19.185 E9.6177
G1 X11.193 Y-18.367 E9.7838
G1 X11.214 Y-18.355 E9.7863
G1 X11.432 Y-18.220 E9.8116
G1 X11.453 Y-18.206 E9.8140
G1 X12.840 Y-17.256 E9.9801
G1 X12.860 Y-17.242 E9.9826
G1 X13.064 Y-17.087 E10.0078
G1 X13.084 Y-17.072 E10.0103
G1 X14.377 Y-15.998 E10.1764
G1 X14.396 Y-15.981 E10.1788
G1 X14.585 Y-15.809 E10.2041
G1 X14.603 Y-15.792 E10.2066
G1 X15.792 Y-14.603 E10.3727
G1 X15.809 Y-14.585 E10.3751
G1 X15.981 Y-14.396 E10.4004
G1 X15.998 Y-14.377 E10.4029
G1 X17.072 Y-13.084 E10.5689
G1 X17.087 Y-13.064 E10.5714
G1 X17.242 Y-12.860 E10.5967
G1 X17.256 Y-12.840 E10.5992
G1 X18.206 Y-11.453 E10.7652
G1 X18.220 Y-11.432 E10.7677
G1 X18.355 Y-11.214 E10.7930
G1 X18.367 Y-11.193 E10.7954
G1 X19.185 Y-9.724 E10.9615
G1 X19.197 Y-9.702 E10.9640
G1 X19.311 Y-9.473 E10.9893
G1 X19.322 Y-9.450 E10.9917
G1 X20.001 Y-7.912 E11.1578
G1 X20.010 Y-7.889 E11.1602
G1 X20.103 Y-7.651 E11.1855
G1 X20.111 Y-7.627 E11.1880
G1 X20.645 Y-6.033 E11.3541
G1 X20.653 Y-6.009 E11.3565
G1 X20.723 Y-5.763 E11.3818
G1 X20.729 Y-5.739 E11.3843
G1 X21.114 Y-4.102 E11.5503
G1 X21.119 Y-4.078 E11.5528
G1 X21.166 Y-3.826 E11.5781
G1 X21.170 Y-3.802 E11.5806
G1 X21.402 Y-2.137 E11.7466
G1 X21.405 Y-2.112 E11.7491
G1 X21.429 Y-1.857 E11.7744
G1 X21.431 Y-1.832 E11.7768
G1 X21.508 Y-0.153 E11.9429
G1 X21.509 Y-0.128 E11.9454
G1 X21.509 Y0.128 E11.9707
G1 X21.508 Y0.153 E11.9731
G1 X21.431 Y1.832 E12.1392
G1 X21.429 Y1.857 E12.1416
G1 X21.405 Y2.112 E12.1669
G1 X21.402 Y2.137 E12.1694
G1 X21.170 Y3.802 E12.3355
G1 X21.166 Y3.826 E12.3379
G1 X21.119 Y4.078 E12.3632
G1 X21.114 Y4.102 E12.3657
G1 X20.729 Y5.739 E12.5317
G1 X20.723 Y5.763 E12.5342
G1 X20.653 Y6.009 E12.5595
G1 X20.645 Y6.033 E12.5620
G1 X20.111 Y7.627 E12.7280
G1 X20.103 Y7.651 E12.7305
G1 X20.010 Y7.889 E12.7558
G1 X20.001 Y7.912 E12.7582
G1 X19.322 Y9.450 E12.9243
G1 X19.311 Y9.473 E12.9268
G1 X19.197 Y9.702 E12.9521
G1 X19.185 Y9.724 E12.9545
G1 X18.367 Y11.193 E13.1206
G1 X18.355 Y11.214 E13.1231
G1 X18.220 Y11.432 E13.1483
G1 X18.206 Y11.453 E13.1508
G1 X17.648 Y12.267 E13.2483
G1 X17.256 Y12.840 F800
G1 X17.242 Y12.860 F800
G1 X17.087 Y13.064 F800
G1 X17.072 Y13.084 F800
G92 E0
G1 E-2.0000 F1800
G1 X16.513 Y12.630 F9000
G1 E-0.2000 F1800
G92 E0
G1 X15.449 Y13.911 E0.1644 F800
G1 X15.444 Y13.917 E0.1652
G1 X15.283 Y14.094 E0.1889
G1 X15.277 Y14.100 E0.1897
G1 X14.100 Y15.277 E0.3541
G1 X14.094 Y15.283 E0.3550
G1 X13.917 Y15.444 E0.3786
G1 X13.911 Y15.449 E0.3794
G1 X12.630 Y16.513 E0.5438
G1 X12.624 Y16.518 E0.5447
G1 X12.433 Y16.662 E0.5683
G1 X12.426 Y16.667 E0.5691
G1 X11.053 Y17.608 E0.7335
G1 X11.046 Y17.612 E0.7344
G1 X10.842 Y17.738 E0.7580
G1 X10.835 Y17.742 E0.7588
G1 X9.381 Y18.552 E0.9233
G1 X9.374 Y18.556 E0.9241
G1 X9.159 Y18.663 E0.9477
G1 X9.152 Y18.666 E0.9485
G1 X7.629 Y19.339 E1.1130
G1 X7.621 Y19.342 E1.1138
G1 X7.398 Y19.428 E1.1374
G1 X7.390 Y19.431 E1.1383
G1 X5.812 Y19.960 E1.3027
G1 X5.804 Y19.963 E1.3035
G1 X5.574 Y20.028 E1.3271
G1 X5.566 Y20.030 E1.3280
G1 X3.946 Y20.411 E1.4924
G1 X3.938 Y20.413 E1.4932
G1 X3.702 Y20.457 E1.5168
G1 X3.694 Y20.458 E1.5177
G1 X2.046 Y20.688 E1.6821
G1 X2.037 Y20.689 E1.6829
G1 X1.799 Y20.711 E1.7066
G1 X1.791 Y20.712 E1.7074
G1 X0.128 Y20.789 E1.8718
G1 X0.120 Y20.789 E1.8726
G1 X-0.120 Y20.789 E1.8963
G1 X-0.128 Y20.789 E1.8971
G1 X-1.791 Y20.712 E2.0615
G1 X-1.799 Y20.711 E2.0623
G1 X-2.037 Y20.689 E2.0860
G1 X-2.046 Y20.688 E2.0868
G1 X-3.694 Y20.458 E2.2512
G1 X-3.702 Y20.457 E2.2520
G1 X-3.938 Y20.413 E2.2757
G1 X-3.946 Y20.411 E2.2765
G1 X-5.566 Y20.030 E2.4409
G1 X-5.574 Y20.028 E2.4417
G1 X-5.804 Y19.963 E2.4654
G1 X-5.812 Y19.960 E2.4662
G1 X-7.390 Y19.431 E2.6306
G1 X-7.398 Y19.428 E2.6315
G1 X-7.621 Y19.342 E2.6551
G1 X-7.629 Y19.339 E2.6559
G1 X-9.152 Y18.666 E2.8203
G1 X-9.159 Y18.663 E2.8212
G1 X-9.374 Y18.556 E2.8448
G1 X-9.381 Y18.552 E2.8456
G1 X-10.835 Y17.742 E3.0101
G1 X-10.842 Y17.738 E3.0109
G1 X-11.046 Y17.612 E3.0345
G1 X-11.053 Y17.608 E3.0353
G1 X-12.426 Y16.667 E3.1998
G1 X-12.433 Y16.662 E3.2006
G1 X-12.624 Y16.518 E3.2242
G1 X-12.630 Y16.513 E3.2250
G1 X-13.911 Y15.449 E3.3895
G1 X-13.917 Y15.444 E3.3903
G1 X-14.094 Y15.283 E3.4139
G1 X-14.100 Y15.277 E3.4148
G1 X-15.277 Y14.100 E3.5792
G1 X-15.283 Y14.094 E3.5800
G1 X-15.444 Y13.917 E3.6036
G1 X-15.449 Y13.911 E3.6045
G1 X-16.513 Y12.630 E3.7689
G1 X-16.518 Y12.624 E3.7697
G1 X-16.662 Y12.433 E3.7933
G1 X-16.667 Y12.426 E3.7942
G1 X-17.608 Y11.053 E3.9586
G1 X-17.612 Y11.046 E3.9594
G1 X-17.738 Y10.842 E3.9831
G1 X-17.742 Y10.835 E3.9839
G1 X-18.552 Y9.381 E4.1483
G1 X-18.556 Y9.374 E4.1491
G1 X-18.663 Y9.159 E4.1728
G1 X-18.666 Y9.152 E4.1736
G1 X-19.339 Y7.629 E4.3380
G1 X-19.342 Y7.621 E4.3388
G1 X-19.428 Y7.398 E4.3625
G1 X-19.431 Y7.390 E4.3633
G1 X-19.960 Y5.812 E4.5277
G1 X-19.963 Y5.804 E4.5285
G1 X-20.028 Y5.574 E4.5522
G1 X-20.030 Y5.566 E4.5530
G1 X-20.411 Y3.946 E4.7174
G1 X-20.413 Y3.938 E4.7182
G1 X-20.457 Y3.702 E4.7419
G1 X-20.458 Y3.694 E4.7427
G1 X-20.688 Y2.046 E4.9071
G1 X-20.689 Y2.037 E4.9080
G1 X-20.711 Y1.799 E4.9316
G1 X-20.712 Y1.791 E4.9324
G1 X-20.789 Y0.128 E5.0968
G1 X-20.789 Y0.120 E5.0977
G1 X-20.789 Y-0.120 E5.1213
G1 X-20.789 Y-0.128 E5.1221
G1 X-20.712 Y-1.791 E5.2866
G1 X-20.711 Y-1.799 E5.2874
G1 X-20.689 Y-2.037 E5.3110
G1 X-20.688 Y-2.046 E5.3118
G1 X-20.458 Y-3.694 E5.4763
G1 X-20.457 Y-3.702 E5.4771
G1 X-20.413 Y-3.938 E5.5007
