; G-Code generated by Simplify3D(R) Version 3.1.0
; Jul 8, 2016 at 1:44:08 AM
; Settings Summary
;   processName,Process1
;   applyToModels,WHALE
;   profileName,Rostock MAX v2 (modified)
;   profileVersion,2015-05-01 08:00:00
;   baseProfile,
;   printMaterial,PLA
;   printQuality,Medium
;   printExtruders,
;   extruderName,Primary Extruder
;   extruderToolheadNumber,0
;   extruderDiameter,0.4
;   extruderAutoWidth,1
;   extruderWidth,0.48
;   extrusionMultiplier,1.1
;   extruderUseRetract,1
;   extruderRetractionDistance,6
;   extruderExtraRestartDistance,0
;   extruderRetractionZLift,0.3
;   extruderRetractionSpeed,6600
;   extruderUseCoasting,0
;   extruderCoastingDistance,1
;   extruderUseWipe,1
;   extruderWipeDistance,5
;   primaryExtruder,0
;   layerHeight,0.2
;   topSolidLayers,3
;   bottomSolidLayers,3
;   perimeterOutlines,3
;   printPerimetersInsideOut,1
;   startPointOption,2
;   startPointOriginX,0
;   startPointOriginY,0
;   startPointOriginZ,300
;   sequentialIslands,0
;   spiralVaseMode,0
;   firstLayerHeightPercentage,100
;   firstLayerWidthPercentage,100
;   firstLayerUnderspeed,0.4
;   useRaft,1
;   raftExtruder,0
;   raftLayers,3
;   raftOffset,3
;   raftSeparationDistance,0.14
;   raftInfill,85
;   disableRaftBaseLayers,0
;   useSkirt,1
;   skirtExtruder,0
;   skirtLayers,1
;   skirtOutlines,2
;   skirtOffset,4
;   usePrimePillar,0
;   primePillarExtruder,999
;   primePillarWidth,12
;   primePillarLocation,7
;   primePillarSpeedMultiplier,1
;   useOozeShield,0
;   oozeShieldExtruder,999
;   oozeShieldOffset,2
;   oozeShieldOutlines,1
;   oozeShieldSidewallShape,1
;   oozeShieldSidewallAngle,30
;   oozeShieldSpeedMultiplier,1
;   infillExtruder,0
;   internalInfillPattern,Rectilinear
;   externalInfillPattern,Rectilinear
;   infillPercentage,50
;   outlineOverlapPercentage,25
;   infillExtrusionWidthPercentage,150
;   minInfillLength,5
;   infillLayerInterval,1
;   infillAngles,45,-45
;   overlapInfillAngles,0
;   generateSupport,1
;   supportExtruder,0
;   supportInfillPercentage,30
;   supportExtraInflation,0
;   denseSupportLayers,0
;   denseSupportInfillPercentage,70
;   supportLayerInterval,1
;   supportHorizontalPartOffset,0.3
;   supportUpperSeparationLayers,1
;   supportLowerSeparationLayers,1
;   supportType,0
;   supportGridSpacing,4
;   maxOverhangAngle,45
;   supportAngles,0
;   temperatureName,Primary Extruder,Heated Bed
;   temperatureNumber,0,1
;   temperatureSetpointCount,1,1
;   temperatureSetpointLayers,1,1
;   temperatureSetpointTemperatures,205,70
;   temperatureStabilizeAtStartup,1,1
;   temperatureHeatedBed,0,1
;   temperatureRelayBetweenLayers,0,0
;   temperatureRelayBetweenLoops,0,0
;   fanLayers,1,2
;   fanSpeeds,0,100
;   blipFanToFullPower,1
;   adjustSpeedForCooling,1
;   minSpeedLayerTime,15
;   minCoolingSpeedSlowdown,20
;   increaseFanForCooling,0
;   minFanLayerTime,60
;   maxCoolingFanSpeed,100
;   increaseFanForBridging,0
;   bridgingFanSpeed,100
;   use5D,1
;   relativeEdistances,0
;   allowEaxisZeroing,1
;   independentExtruderAxes,0
;   includeM10123,0
;   stickySupport,1
;   applyToolheadOffsets,0
;   gcodeXoffset,0
;   gcodeYoffset,0
;   gcodeZoffset,0
;   overrideMachineDefinition,1
;   machineTypeOverride,1
;   strokeXoverride,197
;   strokeYoverride,197
;   strokeZoverride,375
;   originOffsetXoverride,98.5
;   originOffsetYoverride,98.5
;   originOffsetZoverride,0
;   homeXdirOverride,0
;   homeYdirOverride,0
;   homeZdirOverride,1
;   flipXoverride,1
;   flipYoverride,-1
;   flipZoverride,1
;   toolheadOffsets,0,0|0,0|0,0|0,0|0,0|0,0
;   overrideFirmwareConfiguration,1
;   firmwareTypeOverride,RepRap (Marlin/Repetier/Sprinter)
;   GPXconfigOverride,r2
;   baudRateOverride,115200
;   overridePrinterModels,1
;   printerModelsOverride
;   startingGcode,G28 ; home all axes
;   layerChangeGcode,
;   retractionGcode,
;   toolChangeGcode,
;   endingGcode,M104 S0 ; turn off extruder,M140 S0 ; turn off bed,G28 ; home axes,M84 ; disable motors
;   exportFileFormat,gcode
;   celebration,0
;   celebrationSong,Random Song
;   postProcessing,
;   defaultSpeed,2000
;   outlineUnderspeed,0.5
;   solidInfillUnderspeed,0.8
;   supportUnderspeed,0.8
;   rapidXYspeed,9000
;   rapidZspeed,1200
;   minBridgingArea,50
;   bridgingExtraInflation,0
;   bridgingExtrusionMultiplier,0.95
;   bridgingSpeedMultiplier,0.7
;   filamentDiameter,1.7
;   filamentPricePerKg,33.98
;   filamentDensity,1.25
;   useMinPrintHeight,0
;   minPrintHeight,0
;   useMaxPrintHeight,0
;   maxPrintHeight,0
;   useDiaphragm,0
;   diaphragmLayerInterval,20
;   robustSlicing,1
;   mergeAllIntoSolid,0
;   onlyRetractWhenCrossingOutline,1
;   retractBetweenLayers,1
;   useRetractionMinTravel,0
;   retractionMinTravel,3
;   retractWhileWiping,0
;   onlyWipeOutlines,1
;   avoidCrossingOutline,0
;   maxMovementDetourFactor,1
;   toolChangeRetractionDistance,12
;   toolChangeExtraRestartDistance,-0.5
;   toolChangeRetractionSpeed,600
;   allowThinWallGapFill,0
;   thinWallAllowedOverlapPercentage,10
;   horizontalSizeCompensation,0
G90
M82
M106 S0
M140 S70
M190 S70
M104 S205 T0
M109 S205 T0
G28 ; home all axes
G92 E0
G1 E-6.0000 F6600
G1 Z0.800 F1200
; layer 1, Z = 0.5
T0
; tool H0.500 W0.480
; skirt
G1 X1.966 Y21.167 F9000
G1 Z0.500 F1200
G1 E0.0000 F1980
G92 E0
G1 X1.961 Y21.167 E0.0006 F800
G1 X1.899 Y21.177 E0.0078
G1 X1.894 Y21.178 E0.0084
G1 X1.692 Y21.206 E0.0322
G1 X1.687 Y21.206 E0.0328
G1 X1.625 Y21.214 E0.0400
G1 X1.620 Y21.215 E0.0406
G1 X-9.170 Y22.400 E1.3031
G1 X-9.149 Y22.438 E1.3081
G1 X-9.135 Y22.484 E1.3137
G1 X-9.070 Y22.559 E1.3253
G1 X-8.081 Y22.942 E1.4486
G1 X-7.898 Y23.097 E1.4765
G1 X-6.364 Y25.652 E1.8231
G1 X-6.314 Y25.886 E1.8510
G1 X-6.468 Y27.170 E2.0013
G1 X-6.278 Y27.486 E2.0443
G1 X-6.228 Y27.721 E2.0722
G1 X-7.203 Y35.848 E3.0242
G1 X-7.229 Y35.947 E3.0361
G1 X-7.717 Y37.091 E3.1808
G1 X-7.770 Y37.179 E3.1927
G1 X-10.405 Y40.395 E3.6763
G1 X-10.481 Y40.464 E3.6882
G1 X-11.507 Y41.167 E3.8329
G1 X-11.599 Y41.213 E3.8448
G1 X-18.927 Y43.619 E4.7419
G1 X-19.155 Y43.620 E4.7684
G1 X-19.749 Y43.429 E4.8409
G1 X-20.325 Y43.619 E4.9115
G1 X-20.553 Y43.620 E4.9380
G1 X-21.147 Y43.429 E5.0105
G1 X-21.724 Y43.619 E5.0812
G1 X-21.952 Y43.620 E5.1077
G1 X-22.845 Y43.333 E5.2168
G1 X-23.467 Y43.510 E5.2919
G1 X-23.690 Y43.502 E5.3180
G1 X-24.201 Y43.321 E5.3809
G1 X-24.865 Y43.510 E5.4613
G1 X-25.089 Y43.502 E5.4873
G1 X-25.596 Y43.322 E5.5499
G1 X-25.725 Y43.321 E5.5649
G1 X-28.174 Y42.585 E5.8623
G1 X-28.348 Y42.472 E5.8864
G1 X-30.426 Y40.041 E6.2584
G1 X-31.352 Y39.374 E6.3912
G1 X-33.311 Y38.004 E6.6692
G1 X-33.315 Y37.999 E6.6700
G1 X-33.675 Y37.748 E6.7211
G1 X-33.685 Y37.735 E6.7229
G1 X-34.408 Y37.230 E6.8255
G1 X-34.413 Y37.224 E6.8264
G1 X-34.774 Y36.972 E6.8775
G1 X-34.778 Y36.966 E6.8784
G1 X-35.138 Y36.714 E6.9295
G1 X-35.148 Y36.702 E6.9314
G1 X-35.865 Y36.201 E7.0331
G1 X-35.870 Y36.195 E7.0340
G1 X-36.237 Y35.939 E7.0860
G1 X-36.242 Y35.933 E7.0869
G1 X-36.608 Y35.677 E7.1389
G1 X-36.613 Y35.671 E7.1398
G1 X-36.968 Y35.423 E7.1902
G1 X-36.973 Y35.417 E7.1911
G1 X-37.337 Y35.162 E7.2427
G1 X-37.342 Y35.156 E7.2437
G1 X-37.697 Y34.908 E7.2940
G1 X-37.702 Y34.902 E7.2949
G1 X-38.064 Y34.649 E7.3463
G1 X-38.069 Y34.643 E7.3472
G1 X-38.433 Y34.389 E7.3988
G1 X-38.438 Y34.383 E7.3997
G1 X-38.805 Y34.126 E7.4518
G1 X-38.810 Y34.120 E7.4527
G1 X-39.165 Y33.872 E7.5032
G1 X-39.170 Y33.866 E7.5041
G1 X-39.532 Y33.613 E7.5554
G1 X-39.537 Y33.607 E7.5564
G1 X-39.897 Y33.355 E7.6075
G1 X-39.902 Y33.349 E7.6084
G1 X-40.263 Y33.097 E7.6595
G1 X-40.268 Y33.091 E7.6604
G1 X-40.631 Y32.837 E7.7121
G1 X-40.636 Y32.831 E7.7130
G1 X-40.995 Y32.580 E7.7639
G1 X-41.000 Y32.574 E7.7648
G1 X-41.364 Y32.319 E7.8165
G1 X-41.369 Y32.313 E7.8174
G1 X-41.729 Y32.062 E7.8684
G1 X-41.734 Y32.056 E7.8693
G1 X-42.092 Y31.806 E7.9201
G1 X-42.097 Y31.800 E7.9210
G1 X-42.458 Y31.547 E7.9723
G1 X-42.463 Y31.541 E7.9732
G1 X-42.824 Y31.289 E8.0244
G1 X-42.829 Y31.283 E8.0253
G1 X-43.190 Y31.030 E8.0766
G1 X-43.195 Y31.024 E8.0775
G1 X-43.556 Y30.772 E8.1287
G1 X-43.561 Y30.766 E8.1296
G1 X-43.590 Y30.746 E8.1338
G1 X-45.026 Y29.839 E8.3313
G1 X-45.142 Y29.721 E8.3505
G1 X-45.218 Y29.597 E8.3675
G1 X-45.386 Y29.480 E8.3912
G1 X-45.390 Y29.474 E8.3920
G1 X-45.753 Y29.221 E8.4436
G1 X-45.879 Y29.068 E8.4666
G1 X-46.861 Y26.832 E8.7506
G1 X-46.889 Y26.636 E8.7737
G1 X-46.843 Y26.293 E8.8138
G1 X-46.893 Y26.144 E8.8321
G1 X-46.893 Y26.140 E8.8326
G1 X-46.911 Y26.111 E8.8366
G1 X-46.964 Y25.953 E8.8560
G1 X-46.965 Y25.949 E8.8564
G1 X-46.982 Y25.920 E8.8604
G1 X-47.035 Y25.763 E8.8797
G1 X-47.036 Y25.759 E8.8801
G1 X-47.053 Y25.730 E8.8841
G1 X-47.106 Y25.572 E8.9034
G1 X-47.107 Y25.569 E8.9039
G1 X-47.125 Y25.539 E8.9079
G1 X-47.178 Y25.381 E8.9272
G1 X-47.178 Y25.377 E8.9277
G1 X-47.196 Y25.348 E8.9317
G1 X-47.249 Y25.190 E8.9511
G1 X-47.249 Y25.187 E8.9515
G1 X-47.267 Y25.158 E8.9554
G1 X-47.320 Y25.000 E8.9748
G1 X-47.320 Y24.996 E8.9752
G1 X-47.338 Y24.967 E8.9792
G1 X-47.391 Y24.809 E8.9986
G1 X-47.391 Y24.805 E8.9990
G1 X-47.409 Y24.776 E9.0030
G1 X-47.462 Y24.618 E9.0224
G1 X-47.462 Y24.615 E9.0228
G1 X-47.480 Y24.586 E9.0267
G1 X-47.533 Y24.428 E9.0461
G1 X-47.534 Y24.423 E9.0466
G1 X-47.552 Y24.394 E9.0506
G1 X-47.604 Y24.237 E9.0700
G1 X-47.605 Y24.233 E9.0704
G1 X-47.623 Y24.204 E9.0744
G1 X-47.676 Y24.046 E9.0938
G1 X-47.676 Y24.043 E9.0941
G1 X-47.694 Y24.013 E9.0981
G1 X-47.747 Y23.856 E9.1175
G1 X-47.747 Y23.851 E9.1180
G1 X-47.765 Y23.822 E9.1220
G1 X-47.818 Y23.664 E9.1414
G1 X-47.818 Y23.660 E9.1418
G1 X-47.836 Y23.631 E9.1458
G1 X-47.889 Y23.473 E9.1651
G1 X-47.889 Y23.470 E9.1655
G1 X-47.907 Y23.441 E9.1694
G1 X-47.960 Y23.284 E9.1888
G1 X-47.960 Y23.280 E9.1892
G1 X-47.979 Y23.250 E9.1933
G1 X-48.031 Y23.092 E9.2126
G1 X-48.032 Y23.088 E9.2131
G1 X-48.050 Y23.059 E9.2171
G1 X-48.102 Y22.901 E9.2364
G1 X-48.106 Y22.866 E9.2405
G1 X-48.188 Y22.747 E9.2574
G1 X-48.241 Y22.604 E9.2752
G1 X-48.305 Y22.547 E9.2851
G1 X-48.405 Y22.402 E9.3055
G1 X-48.443 Y22.300 E9.3182
G1 X-79.989 Y13.433 E13.1295
G1 X-80.095 Y13.383 E13.1431
G1 X-81.273 Y12.581 E13.3089
G1 X-81.357 Y12.500 E13.3225
G1 X-84.248 Y8.686 E13.8791
G1 X-84.302 Y8.582 E13.8927
G1 X-84.756 Y7.231 E14.0585
G1 X-84.775 Y7.116 E14.0721
G1 X-84.775 Y-7.116 E15.7274
G1 X-84.756 Y-7.231 E15.7410
G1 X-84.302 Y-8.582 E15.9068
G1 X-84.248 Y-8.686 E15.9204
G1 X-81.357 Y-12.500 E16.4770
G1 X-81.273 Y-12.581 E16.4906
G1 X-80.095 Y-13.383 E16.6564
G1 X-79.989 Y-13.433 E16.6700
G1 X-48.876 Y-22.178 E20.4289
G1 X-48.836 Y-22.258 E20.4394
G1 X-48.821 Y-22.274 E20.4418
G1 X-48.790 Y-22.449 E20.4626
G1 X-48.732 Y-22.562 E20.4773
G1 X-48.719 Y-22.640 E20.4865
G1 X-48.661 Y-22.753 E20.5013
G1 X-48.647 Y-22.831 E20.5105
G1 X-48.590 Y-22.944 E20.5253
G1 X-48.576 Y-23.022 E20.5344
G1 X-48.519 Y-23.135 E20.5492
G1 X-48.505 Y-23.213 E20.5583
G1 X-48.448 Y-23.326 E20.5731
G1 X-48.434 Y-23.404 E20.5823
G1 X-48.376 Y-23.516 E20.5970
G1 X-48.363 Y-23.594 E20.6061
G1 X-48.305 Y-23.707 E20.6209
G1 X-48.291 Y-23.785 E20.6301
G1 X-48.234 Y-23.898 E20.6448
G1 X-48.220 Y-23.976 E20.6540
G1 X-48.163 Y-24.088 E20.6687
G1 X-48.149 Y-24.167 E20.6780
G1 X-48.092 Y-24.280 E20.6928
G1 X-48.078 Y-24.358 E20.7019
G1 X-48.021 Y-24.471 E20.7166
G1 X-48.007 Y-24.548 E20.7258
G1 X-47.949 Y-24.661 E20.7405
G1 X-47.936 Y-24.739 E20.7497
G1 X-47.878 Y-24.852 E20.7644
G1 X-47.865 Y-24.929 E20.7736
G1 X-47.807 Y-25.043 E20.7884
G1 X-47.793 Y-25.121 E20.7976
G1 X-47.736 Y-25.234 E20.8123
G1 X-47.722 Y-25.311 E20.8215
G1 X-47.665 Y-25.424 E20.8362
G1 X-47.651 Y-25.502 E20.8454
G1 X-47.594 Y-25.615 E20.8602
G1 X-47.580 Y-25.693 E20.8693
G1 X-47.523 Y-25.805 E20.8840
G1 X-47.509 Y-25.883 E20.8932
G1 X-47.451 Y-25.997 E20.9080
G1 X-47.438 Y-26.074 E20.9172
G1 X-47.380 Y-26.187 E20.9319
G1 X-47.366 Y-26.265 E20.9411
G1 X-47.309 Y-26.378 E20.9559
G1 X-47.295 Y-26.456 E20.9650
G1 X-47.224 Y-26.596 E20.9834
G1 X-47.223 Y-26.602 E20.9840
G1 X-47.128 Y-26.791 E21.0086
G1 X-46.799 Y-27.140 E21.0645
G1 X-46.767 Y-27.314 E21.0850
G1 X-46.659 Y-27.514 E21.1114
G1 X-46.514 Y-27.653 E21.1348
G1 X-45.960 Y-28.960 E21.2999
G1 X-45.835 Y-29.116 E21.3232
G1 X-43.112 Y-31.056 E21.7121
G1 X-40.824 Y-33.486 E22.1003
G1 X-40.641 Y-33.592 E22.1248
G1 X-40.209 Y-33.694 E22.1765
G1 X-39.435 Y-34.435 E22.3011
G1 X-39.239 Y-34.530 E22.3264
G1 X-39.069 Y-34.693 E22.3538
G1 X-38.874 Y-34.788 E22.3791
G1 X-38.703 Y-34.952 E22.4066
G1 X-38.508 Y-35.047 E22.4318
G1 X-38.337 Y-35.210 E22.4593
G1 X-38.142 Y-35.305 E22.4846
G1 X-37.971 Y-35.469 E22.5121
G1 X-37.767 Y-35.567 E22.5384
G1 X-37.712 Y-35.575 E22.5449
G1 X-37.554 Y-35.724 E22.5702
G1 X-37.469 Y-35.765 E22.5811
G1 X-37.239 Y-35.985 E22.6182
G1 X-37.044 Y-36.080 E22.6434
G1 X-36.873 Y-36.244 E22.6709
G1 X-36.678 Y-36.338 E22.6962
G1 X-36.507 Y-36.502 E22.7237
G1 X-36.312 Y-36.597 E22.7489
G1 X-36.141 Y-36.760 E22.7764
G1 X-35.946 Y-36.855 E22.8017
G1 X-35.775 Y-37.019 E22.8292
G1 X-35.580 Y-37.114 E22.8544
G1 X-35.409 Y-37.277 E22.8819
G1 X-35.214 Y-37.372 E22.9072
G1 X-35.043 Y-37.536 E22.9347
G1 X-34.848 Y-37.631 E22.9600
G1 X-34.677 Y-37.794 E22.9874
G1 X-34.482 Y-37.889 E23.0127
G1 X-34.311 Y-38.052 E23.0402
G1 X-34.116 Y-38.147 E23.0654
G1 X-33.945 Y-38.311 E23.0929
G1 X-33.750 Y-38.405 E23.1182
G1 X-33.579 Y-38.569 E23.1457
G1 X-33.384 Y-38.664 E23.1709
G1 X-33.213 Y-38.828 E23.1984
G1 X-33.018 Y-38.922 E23.2237
G1 X-32.847 Y-39.086 E23.2512
G1 X-32.652 Y-39.181 E23.2764
G1 X-32.481 Y-39.344 E23.3039
G1 X-32.286 Y-39.439 E23.3292
G1 X-32.115 Y-39.603 E23.3567
G1 X-31.920 Y-39.697 E23.3819
G1 X-31.749 Y-39.861 E23.4094
G1 X-31.554 Y-39.956 E23.4347
G1 X-31.383 Y-40.119 E23.4621
G1 X-31.188 Y-40.214 E23.4874
G1 X-31.017 Y-40.378 E23.5149
G1 X-30.822 Y-40.473 E23.5401
G1 X-30.651 Y-40.636 E23.5676
G1 X-30.456 Y-40.731 E23.5929
G1 X-30.285 Y-40.895 E23.6204
G1 X-30.090 Y-40.989 E23.6456
G1 X-29.919 Y-41.153 E23.6732
G1 X-29.724 Y-41.248 E23.6984
G1 X-29.553 Y-41.411 E23.7259
G1 X-29.358 Y-41.506 E23.7511
G1 X-29.187 Y-41.670 E23.7786
G1 X-28.992 Y-41.764 E23.8039
G1 X-28.849 Y-41.902 E23.8269
G1 X-28.366 Y-42.470 E23.9137
G1 X-28.192 Y-42.583 E23.9378
G1 X-27.535 Y-42.782 E24.0176
G1 X-27.348 Y-42.961 E24.0478
G1 X-27.144 Y-43.060 E24.0741
G1 X-26.159 Y-43.198 E24.1898
G1 X-25.738 Y-43.325 E24.2409
G1 X-25.586 Y-43.326 E24.2586
G1 X-25.089 Y-43.502 E24.3200
G1 X-24.865 Y-43.510 E24.3460
G1 X-24.557 Y-43.422 E24.3832
G1 X-24.368 Y-43.449 E24.4054
G1 X-24.145 Y-43.410 E24.4317
G1 X-24.067 Y-43.369 E24.4421
G1 X-23.690 Y-43.502 E24.4885
G1 X-23.467 Y-43.510 E24.5145
G1 X-22.845 Y-43.333 E24.5897
G1 X-21.952 Y-43.620 E24.6988
G1 X-21.724 Y-43.619 E24.7253
G1 X-21.147 Y-43.429 E24.7959
G1 X-20.553 Y-43.620 E24.8684
G1 X-20.326 Y-43.619 E24.8949
G1 X-19.749 Y-43.429 E24.9655
G1 X-19.155 Y-43.620 E25.0381
G1 X-18.927 Y-43.619 E25.0645
G1 X-10.908 Y-40.986 E26.0462
G1 X-10.790 Y-40.920 E26.0620
G1 X-9.514 Y-39.859 E26.2550
G1 X-9.427 Y-39.755 E26.2708
G1 X-6.733 Y-34.833 E26.9234
G1 X-6.691 Y-34.703 E26.9392
G1 X-6.485 Y-33.057 E27.1322
G1 X-6.493 Y-32.921 E27.1480
G1 X-6.687 Y-32.170 E27.2382
G1 X-5.960 Y-28.206 E27.7070
G1 X-5.998 Y-27.964 E27.7355
G1 X-6.251 Y-27.493 E27.7977
G1 X-6.046 Y-26.372 E27.9303
G1 X-6.084 Y-26.129 E27.9589
G1 X-7.533 Y-23.439 E28.3142
G1 X-7.714 Y-23.274 E28.3428
G1 X-8.428 Y-22.971 E28.4329
G1 X-8.431 Y-22.962 E28.4341
G1 X-8.547 Y-22.803 E28.4569
G1 X-8.696 Y-22.686 E28.4790
G1 X-8.768 Y-22.494 E28.5028
G1 X-8.862 Y-22.366 E28.5212
G1 X1.620 Y-21.215 E29.7477
G1 X1.625 Y-21.214 E29.7483
G1 X1.687 Y-21.206 E29.7555
G1 X1.692 Y-21.206 E29.7561
G1 X1.894 Y-21.178 E29.7799
G1 X1.899 Y-21.177 E29.7805
G1 X1.961 Y-21.167 E29.7877
G1 X1.966 Y-21.167 E29.7883
G1 X23.027 Y-17.631 E32.2723
G1 X47.498 Y-14.443 E35.1425
G1 X51.604 Y-14.443 E35.6201
G1 X52.806 Y-17.050 E35.9541
G1 X52.832 Y-17.097 E35.9602
G1 X53.185 Y-17.637 E36.0353
G1 X53.218 Y-17.679 E36.0414
G1 X54.636 Y-19.272 E36.2895
G1 X54.674 Y-19.309 E36.2957
G1 X55.169 Y-19.722 E36.3707
G1 X55.212 Y-19.753 E36.3769
G1 X69.066 Y-28.210 E38.2648
