; G-Code generated by Simplify3D(R) Version 3.1.0
; Jun 24, 2016 at 2:32:28 AM
; Settings Summary
;   processName,Process1
;   applyToModels,retraction_cube
;   profileName,Rostock MAX v2 (modified)
;   profileVersion,2015-05-01 08:00:00
;   baseProfile,
;   printMaterial,PLA
;   printQuality,Medium
;   printExtruders,
;   extruderName,Primary Extruder
;   extruderToolheadNumber,0
;   extruderDiameter,0.5
;   extruderAutoWidth,0
;   extruderWidth,0.5
;   extrusionMultiplier,0.95
;   extruderUseRetract,1
;   extruderRetractionDistance,3
;   extruderExtraRestartDistance,0
;   extruderRetractionZLift,0.3
;   extruderRetractionSpeed,6600
;   extruderUseCoasting,0
;   extruderCoastingDistance,1
;   extruderUseWipe,1
;   extruderWipeDistance,5
;   primaryExtruder,0
;   layerHeight,0.2
;   topSolidLayers,3
;   bottomSolidLayers,3
;   perimeterOutlines,3
;   printPerimetersInsideOut,1
;   startPointOption,2
;   startPointOriginX,0
;   startPointOriginY,0
;   startPointOriginZ,300
;   sequentialIslands,0
;   spiralVaseMode,0
;   firstLayerHeightPercentage,90
;   firstLayerWidthPercentage,100
;   firstLayerUnderspeed,0.5
;   useRaft,0
;   raftExtruder,0
;   raftLayers,3
;   raftOffset,3
;   raftSeparationDistance,0.14
;   raftInfill,85
;   disableRaftBaseLayers,0
;   useSkirt,1
;   skirtExtruder,0
;   skirtLayers,1
;   skirtOutlines,2
;   skirtOffset,4
;   usePrimePillar,0
;   primePillarExtruder,999
;   primePillarWidth,12
;   primePillarLocation,7
;   primePillarSpeedMultiplier,1
;   useOozeShield,0
;   oozeShieldExtruder,999
;   oozeShieldOffset,2
;   oozeShieldOutlines,1
;   oozeShieldSidewallShape,1
;   oozeShieldSidewallAngle,30
;   oozeShieldSpeedMultiplier,1
;   infillExtruder,0
;   internalInfillPattern,Rectilinear
;   externalInfillPattern,Rectilinear
;   infillPercentage,20
;   outlineOverlapPercentage,15
;   infillExtrusionWidthPercentage,150
;   minInfillLength,5
;   infillLayerInterval,1
;   infillAngles,45,-45
;   overlapInfillAngles,0
;   generateSupport,0
;   supportExtruder,0
;   supportInfillPercentage,30
;   supportExtraInflation,0
;   denseSupportLayers,0
;   denseSupportInfillPercentage,70
;   supportLayerInterval,1
;   supportHorizontalPartOffset,0.3
;   supportUpperSeparationLayers,1
;   supportLowerSeparationLayers,1
;   supportType,0
;   supportGridSpacing,4
;   maxOverhangAngle,45
;   supportAngles,0
;   temperatureName,Primary Extruder,Heated Bed
;   temperatureNumber,0,1
;   temperatureSetpointCount,1,1
;   temperatureSetpointLayers,1,1
;   temperatureSetpointTemperatures,205,60
;   temperatureStabilizeAtStartup,1,1
;   temperatureHeatedBed,0,1
;   temperatureRelayBetweenLayers,0,0
;   temperatureRelayBetweenLoops,0,0
;   fanLayers,1,2
;   fanSpeeds,0,100
;   blipFanToFullPower,1
;   adjustSpeedForCooling,1
;   minSpeedLayerTime,15
;   minCoolingSpeedSlowdown,20
;   increaseFanForCooling,0
;   minFanLayerTime,60
;   maxCoolingFanSpeed,100
;   increaseFanForBridging,0
;   bridgingFanSpeed,100
;   use5D,1
;   relativeEdistances,0
;   allowEaxisZeroing,1
;   independentExtruderAxes,0
;   includeM10123,0
;   stickySupport,1
;   applyToolheadOffsets,0
;   gcodeXoffset,0
;   gcodeYoffset,0
;   gcodeZoffset,0
;   overrideMachineDefinition,1
;   machineTypeOverride,1
;   strokeXoverride,197
;   strokeYoverride,197
;   strokeZoverride,375
;   originOffsetXoverride,98.5
;   originOffsetYoverride,98.5
;   originOffsetZoverride,0
;   homeXdirOverride,0
;   homeYdirOverride,0
;   homeZdirOverride,1
;   flipXoverride,1
;   flipYoverride,-1
;   flipZoverride,1
;   toolheadOffsets,0,0|0,0|0,0|0,0|0,0|0,0
;   overrideFirmwareConfiguration,1
;   firmwareTypeOverride,RepRap (Marlin/Repetier/Sprinter)
;   GPXconfigOverride,r2
;   baudRateOverride,115200
;   overridePrinterModels,1
;   printerModelsOverride
;   startingGcode,G28 ; home all axes
;   layerChangeGcode,
;   retractionGcode,
;   toolChangeGcode,
;   endingGcode,M104 S0 ; turn off extruder,M140 S0 ; turn off bed,G28 ; home axes,M84 ; disable motors
;   exportFileFormat,gcode
;   celebration,0
;   celebrationSong,Random Song
;   postProcessing,
;   defaultSpeed,3000
;   outlineUnderspeed,0.5
;   solidInfillUnderspeed,0.8
;   supportUnderspeed,0.8
;   rapidXYspeed,9000
;   rapidZspeed,1200
;   minBridgingArea,50
;   bridgingExtraInflation,0
;   bridgingExtrusionMultiplier,0.95
;   bridgingSpeedMultiplier,0.7
;   filamentDiameter,1.7
;   filamentPricePerKg,33.98
;   filamentDensity,1.25
;   useMinPrintHeight,0
;   minPrintHeight,0
;   useMaxPrintHeight,0
;   maxPrintHeight,0
;   useDiaphragm,0
;   diaphragmLayerInterval,20
;   robustSlicing,1
;   mergeAllIntoSolid,0
;   onlyRetractWhenCrossingOutline,1
;   retractBetweenLayers,1
;   useRetractionMinTravel,0
;   retractionMinTravel,3
;   retractWhileWiping,0
;   onlyWipeOutlines,1
;   avoidCrossingOutline,0
;   maxMovementDetourFactor,3
;   toolChangeRetractionDistance,12
;   toolChangeExtraRestartDistance,-0.5
;   toolChangeRetractionSpeed,600
;   allowThinWallGapFill,1
;   thinWallAllowedOverlapPercentage,10
;   horizontalSizeCompensation,0
G90
M82
M106 S0
M140 S60
M190 S60
M104 S205 T0
M109 S205 T0
G28 ; home all axes
G92 E0
G1 E-3.0000 F6600
G1 Z0.480 F1200
; layer 1, Z = 0.18
T0
; tool H0.200 W0.500
; skirt
G1 X19.750 Y-16.806 F9000
G1 Z0.180 F1200
G1 E0.0000 F1980
G92 E0
G1 X19.750 Y16.806 E1.4068 F1500
G1 X19.636 Y17.082 E1.4193
G1 X17.082 Y19.636 E1.5705
G1 X16.806 Y19.750 E1.5830
G1 X-16.806 Y19.750 E2.9897
G1 X-17.082 Y19.636 E3.0022
G1 X-19.636 Y17.082 E3.1534
G1 X-19.750 Y16.806 E3.1659
G1 X-19.750 Y-16.806 E4.5727
G1 X-19.636 Y-17.082 E4.5852
G1 X-17.082 Y-19.636 E4.7364
G1 X-16.806 Y-19.750 E4.7489
G1 X16.806 Y-19.750 E6.1556
G1 X17.082 Y-19.636 E6.1681
G1 X19.636 Y-17.082 E6.3193
G1 X19.750 Y-16.806 E6.3318
G1 X19.250 Y-16.707 F9000
G92 E0
G1 X19.250 Y16.707 E1.3985 F1500
G1 X19.212 Y16.798 E1.4026
G1 X16.798 Y19.212 E1.5455
G1 X16.707 Y19.250 E1.5497
G1 X-16.707 Y19.250 E2.9481
G1 X-16.798 Y19.212 E2.9523
G1 X-19.212 Y16.798 E3.0951
G1 X-19.250 Y16.707 E3.0993
G1 X-19.250 Y-16.707 E4.4978
G1 X-19.212 Y-16.798 E4.5019
G1 X-16.798 Y-19.212 E4.6448
G1 X-16.707 Y-19.250 E4.6490
G1 X16.707 Y-19.250 E6.0474
G1 X16.798 Y-19.212 E6.0516
G1 X19.212 Y-16.798 E6.1944
G1 X19.250 Y-16.707 E6.1986
G92 E0
G1 E-3.0000 F6600
G1 Z0.480 F1200
; inner perimeter
G1 X13.750 Y-13.750 F9000
G1 Z0.180 F1200
G1 E0.0000 F6600
G92 E0
G1 X13.750 Y13.750 E1.1510 F1250
G1 X-13.750 Y13.750 E2.3020
G1 X-13.750 Y-13.750 E3.4529
G1 X13.750 Y-13.750 E4.6039
; inner perimeter
G1 X14.250 Y-14.250 F9000
G92 E0
G1 X14.250 Y14.250 E1.1928 F1000
G1 X-14.250 Y14.250 E2.3857
G1 X-14.250 Y-14.250 E3.5785
G1 X14.250 Y-14.250 E4.7713
; outer perimeter
G1 X14.750 Y-14.750 F9000
G92 E0
G1 X14.750 Y14.750 E1.2347 F750
G1 X-14.750 Y14.750 E2.4694
G1 X-14.750 Y-14.750 E3.7041
G1 X14.750 Y-14.750 E4.9388
G1 X14.750 Y-9.750 F3000
; solid layer
G1 X12.838 Y-13.325 F9000
G92 E0
G1 X13.325 Y-12.838 E0.0288 F1200
G1 X13.325 Y-12.131 E0.0584
G1 X12.131 Y-13.325 E0.1291
G1 X11.424 Y-13.325 E0.1587
G1 X13.325 Y-11.424 E0.2712
G1 X13.325 Y-10.717 E0.3008
G1 X10.717 Y-13.325 E0.4552
G1 X10.010 Y-13.325 E0.4848
G1 X13.325 Y-10.010 E0.6811
G1 X13.325 Y-9.302 E0.7107
G1 X9.302 Y-13.325 E0.9488
G1 X8.595 Y-13.325 E0.9783
G1 X13.325 Y-8.595 E1.2583
G1 X13.325 Y-7.888 E1.2879
G1 X7.888 Y-13.325 E1.6097
G1 X7.181 Y-13.325 E1.6393
G1 X13.325 Y-7.181 E2.0030
G1 X13.325 Y-6.474 E2.0325
G1 X6.474 Y-13.325 E2.4381
G1 X5.767 Y-13.325 E2.4677
G1 X13.325 Y-5.767 E2.9150
G1 X13.325 Y-5.060 E2.9446
G1 X5.060 Y-13.325 E3.4338
G1 X4.353 Y-13.325 E3.4634
G1 X13.325 Y-4.353 E3.9945
G1 X13.325 Y-3.646 E4.0241
G1 X3.646 Y-13.325 E4.5970
G1 X2.938 Y-13.325 E4.6266
G1 X13.325 Y-2.938 E5.2414
G1 X13.325 Y-2.231 E5.2710
G1 X2.231 Y-13.325 E5.9276
G1 X1.524 Y-13.325 E5.9572
G1 X13.325 Y-1.524 E6.6557
G1 X13.325 Y-0.817 E6.6853
G1 X0.817 Y-13.325 E7.4257
G1 X0.110 Y-13.325 E7.4553
G1 X13.325 Y-0.110 E8.2375
G1 X13.325 Y0.597 E8.2671
G1 X-0.597 Y-13.325 E9.0911
G1 X-1.304 Y-13.325 E9.1207
G1 X13.325 Y1.304 E9.9866
G1 X13.325 Y2.011 E10.0162
G1 X-2.011 Y-13.325 E10.9240
G1 X-2.718 Y-13.325 E10.9536
G1 X13.325 Y2.718 E11.9032
G1 X13.325 Y3.425 E11.9328
G1 X-3.425 Y-13.325 E12.9242
G1 X-4.133 Y-13.325 E12.9538
G1 X13.325 Y4.133 E13.9872
G1 X13.325 Y4.840 E14.0167
G1 X-4.840 Y-13.325 E15.0919
G1 X-5.547 Y-13.325 E15.1215
G1 X13.325 Y5.547 E16.2385
G1 X13.325 Y6.254 E16.2681
G1 X-6.254 Y-13.325 E17.4270
G1 X-6.961 Y-13.325 E17.4566
G1 X13.325 Y6.961 E18.6574
G1 X13.325 Y7.668 E18.6870
G1 X-7.668 Y-13.325 E19.9295
G1 X-8.375 Y-13.325 E19.9591
G1 X13.325 Y8.375 E21.2436
G1 X13.325 Y9.082 E21.2732
G1 X-9.082 Y-13.325 E22.5995
G1 X-9.789 Y-13.325 E22.6291
G1 X13.325 Y9.789 E23.9972
G1 X13.325 Y10.497 E24.0268
G1 X-10.497 Y-13.325 E25.4368
G1 X-11.204 Y-13.325 E25.4664
G1 X13.325 Y11.204 E26.9183
G1 X13.325 Y11.911 E26.9479
G1 X-11.911 Y-13.325 E28.4416
G1 X-12.618 Y-13.325 E28.4712
G1 X13.325 Y12.618 E30.0068
G1 X13.325 Y13.325 E30.0363
G1 X-13.325 Y-13.325 E31.6138
G1 X-13.325 Y-12.618 E31.6434
G1 X12.618 Y13.325 E33.1789
G1 X11.911 Y13.325 E33.2085
G1 X-13.325 Y-11.911 E34.7022
G1 X-13.325 Y-11.204 E34.7318
G1 X11.204 Y13.325 E36.1837
G1 X10.497 Y13.325 E36.2133
G1 X-13.325 Y-10.497 E37.6233
G1 X-13.325 Y-9.789 E37.6529
G1 X9.789 Y13.325 E39.0211
G1 X9.082 Y13.325 E39.0507
G1 X-13.325 Y-9.082 E40.3770
G1 X-13.325 Y-8.375 E40.4065
G1 X8.375 Y13.325 E41.6910
G1 X7.668 Y13.325 E41.7206
G1 X-13.325 Y-7.668 E42.9632
G1 X-13.325 Y-6.961 E42.9928
G1 X6.961 Y13.325 E44.1935
G1 X6.254 Y13.325 E44.2231
G1 X-13.325 Y-6.254 E45.3820
G1 X-13.325 Y-5.547 E45.4116
G1 X5.547 Y13.325 E46.5286
G1 X4.840 Y13.325 E46.5582
G1 X-13.325 Y-4.840 E47.6334
G1 X-13.325 Y-4.133 E47.6630
G1 X4.133 Y13.325 E48.6963
G1 X3.426 Y13.325 E48.7259
G1 X-13.325 Y-3.426 E49.7174
G1 X-13.325 Y-2.718 E49.7470
G1 X2.718 Y13.325 E50.6966
G1 X2.011 Y13.325 E50.7262
G1 X-13.325 Y-2.011 E51.6339
G1 X-13.325 Y-1.304 E51.6635
G1 X1.304 Y13.325 E52.5294
G1 X0.597 Y13.325 E52.5590
G1 X-13.325 Y-0.597 E53.3831
G1 X-13.325 Y0.110 E53.4127
G1 X-0.110 Y13.325 E54.1949
G1 X-0.817 Y13.325 E54.2245
G1 X-13.325 Y0.817 E54.9648
G1 X-13.325 Y1.524 E54.9944
G1 X-1.524 Y13.325 E55.6929
G1 X-2.231 Y13.325 E55.7225
G1 X-13.325 Y2.231 E56.3791
G1 X-13.325 Y2.938 E56.4087
G1 X-2.938 Y13.325 E57.0235
G1 X-3.646 Y13.325 E57.0531
G1 X-13.325 Y3.646 E57.6260
G1 X-13.325 Y4.353 E57.6556
G1 X-4.353 Y13.325 E58.1867
G1 X-5.060 Y13.325 E58.2163
G1 X-13.325 Y5.060 E58.7055
G1 X-13.325 Y5.767 E58.7351
G1 X-5.767 Y13.325 E59.1825
G1 X-6.474 Y13.325 E59.2121
G1 X-13.325 Y6.474 E59.6176
G1 X-13.325 Y7.181 E59.6472
G1 X-7.181 Y13.325 E60.0109
G1 X-7.888 Y13.325 E60.0405
G1 X-13.325 Y7.888 E60.3623
G1 X-13.325 Y8.595 E60.3919
G1 X-8.595 Y13.325 E60.6718
G1 X-9.302 Y13.325 E60.7014
G1 X-13.325 Y9.302 E60.9395
G1 X-13.325 Y10.010 E60.9691
G1 X-10.010 Y13.325 E61.1653
G1 X-10.717 Y13.325 E61.1949
G1 X-13.325 Y10.717 E61.3493
G1 X-13.325 Y11.424 E61.3789
G1 X-11.424 Y13.325 E61.4915
G1 X-12.131 Y13.325 E61.5211
G1 X-13.325 Y12.131 E61.5917
G1 X-13.325 Y12.838 E61.6213
G1 X-12.838 Y13.325 E61.6502
G92 E0
G1 E-3.0000 F6600
G1 Z0.680 F1200
; layer 2, Z = 0.38
M106 S255
; inner perimeter
G1 X-13.750 Y13.750 F9000
G1 Z0.380 F1200
G1 E0.0000 F6600
G92 E0
G1 X-13.750 Y-13.750 E1.1510 F2500
G1 X13.750 Y-13.750 E2.3020
G1 X13.750 Y13.750 E3.4529
G1 X-13.750 Y13.750 E4.6039
; inner perimeter
G1 X-14.250 Y14.250 F9000
G92 E0
G1 X-14.250 Y-14.250 E1.1928 F2000
G1 X14.250 Y-14.250 E2.3857
G1 X14.250 Y14.250 E3.5785
G1 X-14.250 Y14.250 E4.7713
; outer perimeter
G1 X-14.750 Y14.750 F9000
G92 E0
G1 X-14.750 Y-14.750 E1.2347 F1500
G1 X14.750 Y-14.750 E2.4694
G1 X14.750 Y14.750 E3.7041
G1 X-14.750 Y14.750 E4.9388
G1 X-14.750 Y9.750 F3000
; solid layer
G1 X-13.325 Y-12.838 F9000
G92 E0
G1 X-12.838 Y-13.325 E0.0288 F2400
G1 X-12.131 Y-13.325 E0.0584
G1 X-13.325 Y-12.131 E0.1291
G1 X-13.325 Y-11.424 E0.1587
G1 X-11.424 Y-13.325 E0.2712
G1 X-10.717 Y-13.325 E0.3008
G1 X-13.325 Y-10.717 E0.4552
G1 X-13.325 Y-10.009 E0.4848
G1 X-10.009 Y-13.325 E0.6811
G1 X-9.302 Y-13.325 E0.7107
G1 X-13.325 Y-9.302 E0.9488
G1 X-13.325 Y-8.595 E0.9784
G1 X-8.595 Y-13.325 E1.2583
G1 X-7.888 Y-13.325 E1.2879
G1 X-13.325 Y-7.888 E1.6097
G1 X-13.325 Y-7.181 E1.6393
G1 X-7.181 Y-13.325 E2.0030
G1 X-6.474 Y-13.325 E2.0326
G1 X-13.325 Y-6.474 E2.4381
G1 X-13.325 Y-5.767 E2.4677
G1 X-5.767 Y-13.325 E2.9151
G1 X-5.060 Y-13.325 E2.9446
G1 X-13.325 Y-5.060 E3.4339
G1 X-13.325 Y-4.353 E3.4635
G1 X-4.353 Y-13.325 E3.9945
G1 X-3.646 Y-13.325 E4.0241
G1 X-13.325 Y-3.646 E4.5971
G1 X-13.325 Y-2.938 E4.6267
G1 X-2.938 Y-13.325 E5.2415
G1 X-2.231 Y-13.325 E5.2710
G1 X-13.325 Y-2.231 E5.9277
G1 X-13.325 Y-1.524 E5.9573
G1 X-1.524 Y-13.325 E6.6558
G1 X-0.817 Y-13.325 E6.6854
G1 X-13.325 Y-0.817 E7.4257
G1 X-13.325 Y-0.110 E7.4553
G1 X-0.110 Y-13.325 E8.2375
G1 X0.597 Y-13.325 E8.2671
G1 X-13.325 Y0.597 E9.0912
G1 X-13.325 Y1.304 E9.1208
G1 X1.304 Y-13.325 E9.9867
G1 X2.011 Y-13.325 E10.0163
G1 X-13.325 Y2.011 E10.9240
G1 X-13.325 Y2.718 E10.9536
G1 X2.718 Y-13.325 E11.9032
G1 X3.426 Y-13.325 E11.9328
G1 X-13.325 Y3.426 E12.9243
G1 X-13.325 Y4.133 E12.9539
G1 X4.133 Y-13.325 E13.9872
G1 X4.840 Y-13.325 E14.0168
G1 X-13.325 Y4.840 E15.0920
G1 X-13.325 Y5.547 E15.1216
G1 X5.547 Y-13.325 E16.2386
G1 X6.254 Y-13.325 E16.2682
G1 X-13.325 Y6.254 E17.4271
G1 X-13.325 Y6.961 E17.4567
G1 X6.961 Y-13.325 E18.6574
G1 X7.668 Y-13.325 E18.6870
G1 X-13.325 Y7.668 E19.9296
G1 X-13.325 Y8.375 E19.9592
G1 X8.375 Y-13.325 E21.2437
G1 X9.082 Y-13.325 E21.2733
G1 X-13.325 Y9.082 E22.5996
G1 X-13.325 Y9.790 E22.6292
G1 X9.790 Y-13.325 E23.9973
G1 X10.497 Y-13.325 E24.0269
G1 X-13.325 Y10.497 E25.4369
G1 X-13.325 Y11.204 E25.4665
G1 X11.204 Y-13.325 E26.9184
G1 X11.911 Y-13.325 E26.9480
G1 X-13.325 Y11.911 E28.4417
G1 X-13.325 Y12.618 E28.4713
G1 X12.618 Y-13.325 E30.0069
G1 X13.325 Y-13.325 E30.0364
G1 X-13.325 Y13.325 E31.6139
G1 X-12.618 Y13.325 E31.6435
G1 X13.325 Y-12.618 E33.1790
G1 X13.325 Y-11.911 E33.2086
G1 X-11.911 Y13.325 E34.7023
G1 X-11.204 Y13.325 E34.7319
G1 X13.325 Y-11.204 E36.1838
G1 X13.325 Y-10.497 E36.2134
G1 X-10.497 Y13.325 E37.6234
G1 X-9.789 Y13.325 E37.6530
G1 X13.325 Y-9.789 E39.0211
G1 X13.325 Y-9.082 E39.0507
G1 X-9.082 Y13.325 E40.3770
G1 X-8.375 Y13.325 E40.4066
G1 X13.325 Y-8.375 E41.6911
G1 X13.325 Y-7.668 E41.7207
G1 X-7.668 Y13.325 E42.9633
G1 X-6.961 Y13.325 E42.9929
G1 X13.325 Y-6.961 E44.1936
G1 X13.325 Y-6.254 E44.2232
G1 X-6.254 Y13.325 E45.3821
G1 X-5.547 Y13.325 E45.4117
G1 X13.325 Y-5.547 E46.5287
G1 X13.325 Y-4.840 E46.5583
G1 X-4.840 Y13.325 E47.6335
G1 X-4.133 Y13.325 E47.6631
G1 X13.325 Y-4.133 E48.6964
G1 X13.325 Y-3.425 E48.7260
G1 X-3.425 Y13.325 E49.7174
G1 X-2.718 Y13.325 E49.7470
G1 X13.325 Y-2.718 E50.6966
G1 X13.325 Y-2.011 E50.7262
G1 X-2.011 Y13.325 E51.6340
G1 X-1.304 Y13.325 E51.6636
G1 X13.325 Y-1.304 E52.5295
G1 X13.325 Y-0.597 E52.5591
G1 X-0.597 Y13.325 E53.3831
G1 X0.110 Y13.325 E53.4127
G1 X13.325 Y0.110 E54.1949
G1 X13.325 Y0.817 E54.2245
G1 X0.817 Y13.325 E54.9649
G1 X1.524 Y13.325 E54.9945
G1 X13.325 Y1.524 E55.6930
G1 X13.325 Y2.231 E55.7225
G1 X2.231 Y13.325 E56.3792
G1 X2.938 Y13.325 E56.4088
G1 X13.325 Y2.938 E57.0236
G1 X13.325 Y3.646 E57.0532
G1 X3.646 Y13.325 E57.6261
G1 X4.353 Y13.325 E57.6557
G1 X13.325 Y4.353 E58.1867
G1 X13.325 Y5.060 E58.2163
G1 X5.060 Y13.325 E58.7056
G1 X5.767 Y13.325 E58.7352
G1 X13.325 Y5.767 E59.1825
G1 X13.325 Y6.474 E59.2121
G1 X6.474 Y13.325 E59.6176
G1 X7.181 Y13.325 E59.6472
G1 X13.325 Y7.181 E60.0109
G1 X13.325 Y7.888 E60.0405
G1 X7.888 Y13.325 E60.3623
G1 X8.595 Y13.325 E60.3919
G1 X13.325 Y8.595 E60.6718
G1 X13.325 Y9.302 E60.7014
G1 X9.302 Y13.325 E60.9395
G1 X10.010 Y13.325 E60.9691
G1 X13.325 Y10.010 E61.1654
G1 X13.325 Y10.717 E61.1950
G1 X10.717 Y13.325 E61.3493
G1 X11.424 Y13.325 E61.3789
G1 X13.325 Y11.424 E61.4915
G1 X13.325 Y12.131 E61.5211
G1 X12.131 Y13.325 E61.5917
G1 X12.838 Y13.325 E61.6213
G1 X13.325 Y12.838 E61.6502
G92 E0
G1 E-3.0000 F6600
G1 Z0.880 F1200
; layer 3, Z = 0.58
; inner perimeter
